/* XPM */
static char *bb7a916e2d8b4b9fb50d0caad25ccb30YaE9xEmv5llBnCih[] = {
/* columns rows colors chars-per-pixel */
"128 128 18 1 ",
"  c black",
". c #090909",
"X c #141312",
"o c #161616",
"O c #0A2A12",
"+ c #102D17",
"@ c #26241F",
"# c #312E23",
"$ c gray21",
"% c #5B0808",
"& c #700B0B",
"* c #453F2F",
"= c #144414",
"- c #3D6936",
"; c gray33",
": c #565656",
"> c #6D6D6D",
", c #62954A",
/* pixels */
"                                                                                                                                ",
" ********* **** ********************************************* **** ************************************** **** **************** ",
" ********** ** *********************************************** ** **************************************** ** ***************** ",
" **         **                                                 **                                          **                ** ",
" ** XX@@@@@ ** @XXXXX@@@@@@@@@XXXXX@@@X@@@@@XXXXX@@X@@@@@@XXXX ** @X@@@@XXXXX@@@@@@@@@XXXXX@@@X@@@@@XXXXX@ ** @X@@XXXXX@X@@@ ** ",
" ** X@@@@@@ ** @@XXX@@@@@X@@@@@XXX@@@@X@@@@@@XXX@@@X@@@@@@@XXX ** @X@@@@@XXX@@@X@@@@@@@XXX@@@@X@@@@@@XXX@@ ** @X@@@XXX@@X@@@ ** ",
" ** @@@@@@@ ** @@@X@@@@@@X@@@@@@X@@@@@X@@@@@@@X@@@@@@@@@@@@@X@ ** @X@@X@@@X@@@@X@@@@@@@@X@@@@@X@@@@@@@X@@@ ** @X@@@@X@@@X@@@ ** ",
" ** @@@@@@@ ** @@@X@@@X@@X@X@@@@X@@@@@X@@@@@@@X@@@@@@@@X@@@@X@ ** @@@@X@@@X@@@@X@@@@@@@@X@@@@@X@@X@@@@X@@@ ** @@@@@@X@@@X@@@ ** ",
" ** @@@X@@@ *  @@@X@@@@@@@@@@@@@X@@@@@@@@@X@@@X@@@@@X@@X@@@@X@ *  @@@@X@@@X@@@@X@@@@@@@@X@@@@@X@@@@@X@X@@@ *  @@@@@@X@@@X@@@ ** ",
" ** @@@X@@@ *  @@@X@@@@@@@@@@@@@X@@@@@+@@@X@@@X@@@@X@@@X@@@@X@ *  @@@@X@@@X@@@@X@@@@@X@@X@@@@@@X@@@@@@X@@@ *  @@@@@@X@@@X@@@ ** ",
" ** @@@@X@@ *  @@@X@@@@@@@@@@X@@X@@@@O++@@X@@@X@@@X@@@@X@@@@X@ *  @@@@@@@@X@@@@X@@@@@X@@X@@@@@@X@@@@@@X@@@ *  @@@@@@X@@@@X@@ ** ",
" ** @@@@X@@ ** @@@X@@@@X@@@@@X@@X@@@++,++@X@@@X@@@X@@@@X@@@@X@ ** @@@@@@@@X@@@@X@@@@@X@@X@@@@@@@X@@@@@X@@@ ** @@@X@@X@@@@X@@ ** ",
" ** @@@@@@@ ** @@@X@@@@X@@@@@@@@X++O+-+@@@X@@@X@@@X@@@@@@@@@X@ ** @@@@@@@@X@@@X@@@@@@X@@X@@@@@@@X@@@X@X@@@ ** @@@X@@X@@@@X@@ ** ",
" ** @@X@@@@ ** @@@X@X@@X@@@@@@@@++=+,++@@X@@@@X@@@X@@@@@@@@@X@ ** @@@X@@@@X@@@X@@@@@@@@@X@@@@@@@X@@X@@X@@@ ** @@@X@@X@X@@X@@ ** ",
" ** @@X@@@@@  @@X@X@@@@@@@@@@@@@+=O=+@@@@X@@@@X@@@@@@@@@@@@@X@@  @@@@X@@@@X@@@X@@@@@@@@@X@@@@@+@X@@@@@X@@@@  @@@@X@@X@X@@@@@ ** ",
" +* @@X@@@@@@@@@X@X@X@@@@@@@@X@@X+-@X@@@@X@@@@+@@@@@@@@@@@@+++@@@@@@@X@@@@X@@@X@@@@@@@@@X@@@@+,+X@@@@@X@@@@@@@@@X@@@X@X@@@@@ ** ",
" ++ @@X@@@@@@@@X@@X@@@@@@@@@@X@@XO@+X@@@@X@@@++@@@@@@@@X+++-,-+@@@@@@X@@@@X@@@X@@@@@@@@@X@@++-+@X@@X@@X@@@X@@@@X@@@@X@X@@@@@ ** ",
" +=+@@X@@@@@@@@@@@X@@@@@@@@@++@++=,+X@@@@@X@+-,+@@@@@@@+-@++-,++X@@@@X@@@@X@@@X@@@@@@@@@X@+-,++@@@@@@@X@@@X@@@@X@@@@X@@@@X@@ ** ",
"+--++@@@@@@X@@@@@@X@@@@@@X@+,-=+==+-=+@@@@+@+-,+@@+@X@@,,@++,=+=++@@@X@@@@X@@@X@@@@@@@@@X@+O,+@@@@@@@@X@@@X@@@@X@@@@X@@X@@@@ ** ",
"--,+@+@@@@@X@@@@@@X@@@+@@X+-=-,+O=++-+@@@+-+++-+++-+X@-+-,--++=,,XX@@@@@@@X@@@X@@@@X@@@@X+,-+@@@@@X@@@X@@@X@@@@X@@@@X@@@@@@@ ** ",
"-++,+O+@@@X+@++@@@+@@O,++OO==,-,X++=X@@@+--,OO+++-,,+-+=+O-+X=,,+@@X@@@@@@X@@@X@@@@X@@@@+@XO++@@@X@@@@X@@@X@@@@@X@@@X@@@@@@@ ** ",
"+=++O-,=O@+=+-=+@+-+@-++,-+++O=+XO++X@@@@+-+,=X-,++=X,==+++,+@++@@@X@@@@@@X@@@X@@@@X@@@@+-O+--+@@X@@@@X@@@X@X@@@X@@@X@@@X@@@ ** ",
"+,+ @+=-OX+=+,-=++-,-=@-++,+=+OOX=--+@@O,+++=+X,=,OO=-,=++-+X@@@@@@X+@+@@@X@@@X@@@@X@@@+--++,-,+X@@@@@X@@@X@X@@@@@@@X@@@X@@@ ** ",
"O++ @+=+,=+OO,++--,O++=++-++++@@X++=-++++-=+++X+,=X--OOO@--,X@@@@@X+++-+@@X@@@++@@@@@@@@O,X++,+@X@@@@@X@@@X@X@@@@@@@X@@@X@@@ ** ",
" ++ @@++++@+=+,==++-,=+=-@@X++@@X@@+,=,X+,-X+@X@+-+@,+-+@@@@X@@@@X-,++-,+@X@@+--+@@@@@++O@++++@X@@@@@@X@@@X@X@@@@@@@X@@@X@@@ ** ",
"-+,+@@@@@@@@++++O+,=+,++@@@@@@@@X@+,=-O+@++@@@X@++X@+@-,++@@X++@X-,+@@+++@X@@+-,+@@+@@+O++@@@@@X@@@@@@X@@@X@X@@@@@@@X@@@X@@@ ** ",
"+++ +@+@@@@@@@X@@+=-,++@@@X+@X@@X@@+,=,+@@@@@@X@@@@XX+@+@@+@+-+X+-+@+@+==++++-,=,+=,++O-,+@@@@@X@@@@X@X@@@X@X@@@@@@@X@@@@@@@ ** ",
"-,++++@@@X@@@@X@@@+-++@@@@+,+X@@X@@@+++X@@@@@@X@@@@@@@++++@+,-+X++@++++=-=X@++==+=,-+O-,+@@@@@@@@@@@X@X@@@X@X@@@@@@@X@@@@@X@ ** ",
"--,+++@@@X@@@@@@@@X+@@@@@X--+X@@X@@@@@OOX@@@@@X@X@@@@@@@+OO+O,,O++OO+@+=,,+O-,-++=--O+@@X@@@++@@@+X@X@X@@@@@X@@@@X@@X@@@@@X@ ** ",
"-+++@+@@@X@@@@@@@@X@@X++@X+,++@@X@@@@@@@OOO@@@X@@X@@@@@@X@@+XOO@++++* @+-@+@O,-=@=O++@@@X@@+,,+@+++++@X@@@@@X@@@@X@@X@@X@@X@ ** ",
" +,++@@@@@@@@@@@@@X@@+-,+@O-+@@@X@@@@@@@@X@@@@X@@@@@@@@X@@@@+@++@ ****  X@X+++==-O@@@@@@X@+++-X+-,X+-+X@@@@@X@@@@X@@X@@X@@@@ ** ",
" ,- ++@@@@@@@@@@@@X@@+-,+O@+@@@@X@@@@@@@@@@@@@X@@@@@@@@X@@@@X+@@ *******  X@+@+-,,@@@@@@X+-@++@-,-O-,+X@@@@@@@@@@X@@X@@X@@@@ ** ",
"--,++++              +-,O++                                     ********** @+@+O-==+-@@@+-,+O+,+--+@,+X@@X@@@@@@@X@@X@@@X@@@ ** ",
" --+==+**************+*O++,+*+********************************************* @+@+O+=,,-@@+-,@+--,+@X+@+,+@X@@@@@@@@X@X@@@@X@@ ** ",
" ++==+****************+*,,,++-+******************************************** @@@@+O+=,=+@+@++X++,+@X@+,-+@@X@@@@@@@X@X@@@@X@@ ** ",
" ==+ =                -++---,+                                  ********** @@@@@X@+O-+++++@+X@@+@@@@@+X-+@@X@@@@@@X@X@@@@X@@ ** ",
" -+ +=+@@@@@@@@@@@X@@+---+@+@+@@X@@@@@@@@@@@@@X@@@@@@@@@@@@@X@@@ *******  X@@@@@X@@+OO,=+@+@X@@@@@@@@@++@@@X@@@@@@X@X@@@@@@@ ** ",
"--,,==+@@@@@@@@@@@X@@+O,-@+X-,+@X@@@@X@@@@@@@@X@@@@@@@@@@@@@X@@@@ ****  @@X@@@@@@@@@++=,+@@@X@@@@X@@@@X+@@@@X@@@@@X@X@@@@@@@ ** ",
"--=+===+@@@@@@@@@@X@@@+O,+++--,+X@@@@X@@@@@@@@X@@@@@X@@@@@@@X@@@@@ ** @X@@X@@@@@@@@@@@+=-+@@@@@@@X@@@@X@@@@@@X@@@@X@X@@@@@@@ ** ",
"-=+ +++@@@@@@@@@@@X@@+@+O++@+X+@+@@@@X@@@@@@@@X@@@@@X@@@@@@@X@@@@@@  @@X@@X@@@@@@@@@@@@+,,@@@@@@@@X@@@X@@@@@@X@@@@X@X@@X@@@@ ** ",
" -=++--+@@@@@@@@@@X@+,+@O@@+@@@+,+++@X@@@@X+@@X@@@@@X@@@@@@@X@@@@@@@@@@X@@X@@@X@@@@@@@@@X++@@@@@@@X@@@X@@@@@@X@@@@X@X@@X@@@@ ** ",
"++, --,+@@@@@@X@@@X@+,,O@+@+@@@+,,--+X@@@@+,++X@@@@@X@@@++@@X@@@@@@@@@@X@@X@@@X@@@@@@@@@X@+@@X@@@@@X@@X@@@X@@@X@@@X@X@@@X@@@ ** ",
" +++++,+@@@@@@X@@@X@+,,+O@+@+++---@@@+@@@@+,,,+@@X@@X@@++,+@X@@@@@@@@@@X@@X@@@XX@@@@@@@@X@@@@X@@@@@X@@X@@@X@@@X@@@X@X@@@@X@@ ** ",
" -,+==O+,-@@@+,@@@X@+@O+@OO+@@@@+++++X+@@@X+,++@@X@@+@++-,,++@@@@@@@@@X@@@X@@@@XX@@@++@@X@@+@X@@@@@@X@X@@@X@@@X@@@X@X@@@@@X@ ** ",
" -+ +=X+-=OO+,-,+@-,,+O+@@X+-,,+X@,,+@X,@@X+@+X@@X@+-++++,-+X@@@@@@@@X@@@@X@++++XX@+,-+@+@+-++@@@X@@@@X@@@X@@@X@@@X@X@@@@@@@ ** ",
"++-=,+X+-+@++-,O+++--++@@@@@+--,+,-,O+,,,,++++XO@X+-,,OOX@@@+@@@@X@@@X@@@@X@+-,,+X++-+++-++,--+@@X@@@@X@@@X@@@X  @@@X@@@@@@@ ** ",
"-+--+@@@++@@++++O+O,O@,+@@@@@---+++@@+X+,+X@-,-,-O++,--+++++,++@@X@@@X@@@@X@@+,-+++-,+--,,++,-@+@X@@@@X@@@@@@@ ** @@X@@@X@@@ ** ",
"-,++@@@@@+@X@@@@@+++@,-,+@@@@X+@X+@@@@+@++OO+,-,++@@+++@@+O-,-,+@X@@@+@@@@X@@@+++OO+O+++-,+++++@@X@@@@X@@@@@@ ###* @X@@@X@@@ ** ",
"++-,@@@@@@@X@@@@@@X@+@,+@@@@@X@@+O@@-+X@@@++++X+@@@@X@@@X@+++++++X@++-+@@@X+X@++-,+@++@+-+@@@+@@@X@@@@X@@@@@ #####* X@@@X@@@ ** ",
"++- @@@@@@@X@@@@@@X@@++X@@@@@X@+X+,-,X+@@@@@@@X@@@@@X@@@@@@@+-,,++++,,,+@@+,-+O++,,+@+@@+@@@@@@@@X@@@@X@@@@ ###oo##* @@@X@@@ ** ",
"--++@@@@@@@X@@@@@@X@@@@X@@@@@@@+X--,,,+@@--@@@X@@@@@X@@@@@@@X+,-+++,,,++++-,,,+@+-+@@@@@X@@@@@X@@X@@@@X@@@ ###...o##* @@X@@@ ** ",
"-*+++@@@@@@@@@@@@@X@@@@X@@@@@@@@++,--+@@-,,@@@X@@X@@X@@@@@@@X@++O+,++X@++++,+O@+@+@@@@@@X@@@@X@@@X@@@@X@@ ##&.....o##* @@@@@ ** ",
"+++ @@@@@@@@@@@@@@X@@@@@@@@@@@@@X@X+++@++@@@@@+@@X@@X@@@@@@@X@@@+@+,,+O,@++OO@@X+@@@@@@@X@@@@X@@@@@@@@X@@ ##%.....o##* @@@@@ ** ",
"++* @@X@@@@@@@X@@@X@@@@@@@@@@@@@X@@++O-,-,@@,-X+@X@@@@@@@@@@X@@@@+@@+@+O,O+++@@+X@@@@@@@X@@@X@@@@@@@X@X@@ #&%%...o###* @@@@@ ** ",
"+** @@X@@@@@@@X@@@X@@@@@@@X@@@@@X@@@+-,-+++-,,++,+++@@@X@@@@X@@@X@@@@+X+,+X@@++@X@@@@@@@X@@@X@@@@@@@X@X@@@ #%##.o###* @@@X@@ ** ",
" ** @@X@@@@@@@@@@@X@@@@@@@@X@@@@X@@@@+-+X++@++--,-@@+@@X@@@@X@@@X@@@@@X@@@X@@@@@@X@@@@@@X@@@X@@@@@@@X@X@@@@ %&#.o##* @@@@X@@ ** ",
" ** @@@@@@@@@@@@@@X@@@@@@@@@@@@@X@@X@@@@X@+@+@+@-+++@,+X@@@@X@@@X@@@@@@@@@X@@@@@@@@@@@@@X@@@X@@    @X@X@@@@ #%...o#* @@@@X@@ ** ",
" +* @@@@@@@@@@@@@@X@@@@@@@@@@@@@X@@@@@@@X@@+@@X+-+@+,-,+@@@@X@@X@@@@@@@@@@X@@@@@@@@@@@@@X@@X@@ **** X@X@@@@@ #..oo* X@@@@@X@ ** ",
" ++ @@@++@X@@++@@@X@+@@X@@@X@@@@X@@@@@@@@@@X@@X@@@+@+-,++-@@X@@X@@@@@@@X@@X@@X@@@@@@@@@@X@@XX *####* @X@@@@@ #####* X@@@@@X@ ** ",
" -++@@@@@+X@+,+++@X+=+@X@@@X@@X@X@@X@@@@@@@X@@X@@@++@@+++-,@X@@X@@@@@@@X@@X@@X@@@@@@@@@@X@@X *######* X@@@X@@ ###* @X@@@@@X@ ** ",
" +, +@-+@+X+,--,+@+-,+X@@@@@@@X@X@@X@@@@@@@X@@X@@@+@@+@X,,@@X@@X@@@@@@@@X@X@@X@@@@@@@@@@X@@ *########* @@@X&@@ ** @@X@@@X@@@ ** ",
"+-+,@++=@@X-,++O=++OOX+@+++@@@X@X@@X@@@@@@X@@@X@@@@@@@+-+@@@X@@X@@@X@@@X@@X@@X@@@@@@@@@@X@ *##########* @@&&%@@  @@@X@@X@@@@ ** ",
"++-+-OO+OOO@+-=+,+++,+O+=,-+@@X@X@@X@@@@@X@@@@X@@@@@@@X+@@@@X@@@@@@X@@@@@@X@@X@@@@@@@@@@X *############* @@@&@@X@@@@X@@X@@X@ ** ",
" ++,+-,-+@@@@=,+++-,++@+@,++@@@@X@@X@@@@X@@@X@X@@@@@@@X@@@@@X@@@@@@X@@@@@@X@@X@@@@@@@@@@ *##############* @@@@@&@@X@X@@X@@X@ ** ",
" =+ =+=,,@@@@@+@+-=+@@+++O@@++@@X@@X@@@@X@@@X@X@@@@@@X@@@@@@X@@@@@@X@@@@@@X@@X@@@@@@@@@ *################* @@@@%@@X@X@X@@@X@ ** ",
" =+ +=,-+@@@@@@@@++@@@@+@-O+@++++@@@@@@@X@@@X@X@@@@@@X@@@@@@X@@@@@@X@+@@@@X@@X@@@@@@@@ *##################* @@@X@X@@X@X@@@@@ ** ",
" =-= +  +              +-,=+O++=-+   ++                          +  + +               *#########  #########*                 ** ",
" =-,==,++***************+++*++-,,=+**+-+*+++********************+,++*+++************* *######## ** ########* ****************** ",
" --+=,,=+********************+O+-+**+-=,+*+,+*******************=,+*+,-+OO*********** *#######  **  #######* ****************** ",
"=-+  +                        +O++O+ ++= +,-,+                 +-= +=-,,+             *#####  $ ** ;  #####*                 ** ",
" -- +@@@@@@@@@@@@@X@@@@@@@@@@@@+O,-O@+++@+@,-+X@@+@@@X@X@+++X@+@X-@@O+=+@@X@+X@@@@@@@@ *### $$; ** ;;> ###* @X@@@@X@X@X@@@@@ ** ",
"+=+ -@@@@@X@@@@@@@X@@X@@@X@@@X@O=-,++@--+X+++@+++@+++X@X++,-+@+@+@OOX@+@+@+@++++@@@@@@@ *# $$;  **  ;;> #* @@X@@@@X@X@X@@@@@ ** ",
"+=+,,@@@@X@@@@@@@@X@@X@@@@X@@X@@O=+++=,,=++@@+=,+@@-,+++O-=,-O++,=@@@X@+--,+++--+@@X@@@@  $$; ##  ## ;;>  @@@X@@@@X@X@@@@@@@ ** ",
" -,-+@@@X@@@@@@@@@X@@X@@@@X@@@@@X+,=+@=+@+,+@+X=,++O-X@+@+-=+++=,@@@@X@++,-O+-,=+@@X@@@@ $$; ######## ;;> @@@@X@@@X@X@@@@X@@ ** ",
" ,=++@@X@@@@@@X@@@X@@@@@@@X@@@@@X@++,O++O-O,+OOO=@@@@,X@+@++X@@@X,@@@@@+++,++X=+@@@X@@@@ $; ########## ;> @@@@@X@@X@X@@@X@@@ ** ",
"=,, +@@O@@@@@@X@@@X@@@@@@X@@@@@@X@@+=@=+=,+OO@X@@@@@@@X@@@@@X@@@X+@@@@+=+@+@@++@@@@X@@@ $;  *########*  ;> @@@@@X@@@X@@X@@@@ ** ",
"-,+ @@O=O@@@@@X@@@X@@@@@X@@@@@@@X@@@+@+=,+@+@--@@@X+@@,@+@X=X@@@X@+++@=,O+X@@X@@@@@@@@@ $; @ *######* X ;> @@@@@X@@@X@@X@@@@ ** ",
" -=+@O-,=O@@@@OOO@X@@X@@@@@@@@@@X@@@@@+-+@@+@@=,O@+@+-,+=+@,=@++=,+++=,O+@X@@X@@+++X@@@ $; @@ *####* @X ;> @@@@@X@@@X@@X@@@@ ** ",
" == +@++,-O@@O-,=OX@@@@@@@@@X@@@X@@@@@+X@@@@@+X=-++OO+-+=++=,+@@+,=+++,O@@X@@X@+=-=-@@@ $; @@@ **** @@X ;> @@@@@@@X@X@X@@X@@ ** ",
"+++=@++=-,-O@@+=-OX++X@X@@@@X@@@X@@@@@X@@@@@++++@@+,+OOO+,++OO++OO+,O@+X@@X@@X@@+,-,+@@ $; @@@@    @@@X ;> @@@@@@@X@X@@X@@X@ ** ",
" =-+=@+-=,,,O+=+==+-O+@X+-@@@@@@X@@@@X@@@@@@@@X@@@,+++==,+@+++@+@+X+++@@@@X@@++@@+==+@@@ $; @@@@@@%@@@ ;; @@@@X@@@X@X@@@X@X@ ** ",
" ++-=O+===-O+-,-O+O,=-++-,+@@@@@X@@@@X@@X@@@@@X@@@@,X@+@+++@X@@@+X@@@@@@@@X++=++++-+@@@@ $$; @@@@%@@@ ;;; @@@@X@@@X@X@@@@X@@ ** ",
" +=,-=++++OO++-,@++-,,,+X+=-X+@@X@@@@@@@@X@@@@X@@@@@@@@X@@@@X@@@@X@@@@@@@@+-=,-+++O++@@@X $$; @%&&%@ ;;; @@@@@X@@@X@X@@@@@@@ ** ",
" +=+++=-+=+==+,@@+X++-+++O==+X+@X++@@OO@@X@@@@X@@X@@@@@X@@@@X@@@@@@@@@@@@@X+--+++---=+@@X@ $$;      ;;; @X@@@@X@@X@@X@@@@@@@ ** ",
" ---=@+,,-+===++@@X@@@@+=+-,=+=+--+++,,OX@@@@@X@@X@@@@@X@@@@X@@@@@@@@@@@@@X++==+-,,==+@@X@@ $$;;%&;;;$ @@X@@@@X@@X@@X@@@@@X@ ** ",
" -,-=@@@-@@++++@@@X@@X@@-,=O+-+,-=++==,+@@@X@@X@@X@@@@X@@@@@X@@@@@@@@@X@@@O+++=+-,+++@@@X@@@  $&%%$$  X@@X@@@@X@@X@@X@@@@@X@ ** ",
" ++-+@X@@@@@@@@@@@X@@@@@,++@XO=,=++X+++=+@@@+@X@@X@@@@X@@@@@X@@@@@@@@@X++++++=+@++@@@@@@X@@@@@      @@X@@X@@@@X@@X@@X@@@@@X@ ** ",
" *+++@X@@@@@@@@@@@X@@@X@++@@X-+=++=,,=+==+++-+X@@X@@@@X@@@@@X@@X@@@@@@X+--,-=+@@X@@@@@@@X@@@@@X&&&@X@@X@@X@@@@X@@@@@X@@@@@X@ ** ",
" **+@+X++@@@@@@@@@X@@@@X@@@@@,--O++++,+++,----+@@X@@@@X@@@@@X@@X@@@@@X@@O,,--@@X@@@@@@@@X@@@@@X@&@@X@@X@@X@@@@@@@@@@X@@@@@@@ ** ",
" ** @@+@@@@@@@@@@@X@@@@@@@X@+@,,+@@X@@++-=,,-+++@@@+@@X@@@@@X@@X@@@  @X@@OX,=+@X@@@@@@@@X@@@@@X@%@@X@@X@@@X@@@@@@@@@X@@@@@@@ ** ",
" ** @@@@@@@@@@@@@@X@@@@@@@X@@+++X@@X@+++=,++--=++@+-+@X@@@@@X@@X@@ ** X@@@O++=+X@@@@@@@@+@@@@@X@@&@X@@X@@@X@@@X@@@@@X@@X@@@@ ** ",
" ** @@@@@@@@@@@@@@X@@@X@@@@@@X@@X@@@@@O@+@@+@--O++,,+@X@@@@@X@@X@ ****  @@XO=+X+@@@@@@@+=+@@@@X@@&@@@@X@@@X@@@@@@@@@X@@X@@@@ ** ",
" ** @@@@@@@@@@@@@@X@@@X@@@@@@X@@X@@@@O=O@@@@++,,O+-++++++@@@X@@X *******  X=-=+X@@@@@@==+@@@@@X@@@@@@@-+@@X@@@X@@X@@X@@X@@@@ ** ",
" **                                 O=,=O      -,O+=+=,-+       ********** -,-++@@X@@-=@+@@@@@@@X@@@@-,,++X@@@@@@X@@X@@X@@@@ ** ",
" ************************************O=,O*****+*,--+-,-++****************** -,-@@@@X,-,-+@@@@@@@X@-,=+,-O-+=@@@@@X@@X@@X@@@@ ** ",
" *************************************OO*****++**++-=--+******************* O,++@@@X++++X@@@@@+++++,-O++-,++@@@@X@@@X@@X@@@@ ** ",
" **                                   O       ++++--==++=       ********-*OO@@+O+@+X+,-=+@-@@@@--==O,@=++,=@@@@@@X@@X@@X@@@@ ** ",
" ** @@@X@@@@X@@@@@X@X@@@@@@@@@@@X@@@OOO@@X@++++++++,--++-=+,X@@X ******- O+@@@@+,=@++-,,X+=-++X,+++++@+@@@@@@@@@@X@@X@X@@@@@ ** ",
" ** @@@X@@@@X@@@@@X@@@@@@@@@@@X@X@@O-O,+@X@+@@X++@O++-X+-+,+X@++- ****-,=+,=@@X-@+O-+++++=-=+@-OO=+@+@X@@@@@@@@@@X@@X@@@@@@@ ** ",
" ** @@@X@@@@@@@@@@X@@@OO@@@X@@@@X@@@O-+@+X+O+@X@@@+O++++-,-@X+-,,,,*,,O++@+@@@X@@X+,-++@X++=+@O+-,-@@@X@@@@@@@@@@X@@X@@@@@X@ ** ",
" ** @@@X@@@@@@@@@@X@@O,-O@+X@@+@X@@@O@+@+++-O+X@@O+@OO+,++-++,,-,@@+O=,-++X@@@@X@@@++-+OO-,-O+@@,-@@@@X@@@@@@@@@@X@@X@@@@@X@ ** ",
" **+@@@X@@@@+@@X@@X@++O,O+@+@+=+X@@XO-O+O--,@++OO==+@@+++,,++++++@+++++++@X@@@@@X@@X@@@+X,,,+@+@@X@@@@X@@@@@@X@@@X@@X@@@@X@@ ** ",
" *+,+@@X@@@@++@++@X+@@+--++@-++@+@@O-,-@@-=OO@+,,,OO++@@+++,++++@O++-@+@@@X@@@@@XXX@@@@@++++@+@@@X@@@@X@@@@@@X@@@@@@X@@@@X@@ ** ",
" +++@@++@@@X+@+-,O+OO+X=@=X,++=-,+O+,-=+@+@@OO++=X+@@@@+@@++++O=O++-,@@@@@X@@@@@@@@@@@@@X@@X@@@@@X@@@@X@@X@@X@@@@@@@X@X@@X@@ ** ",
"+-+,@+-,+@@+++--+=X-,-++O+OO,=-=,-@=+@+@++@O,+XO+X@++@+,+@@+,-,O++-,++@@@@X@@X@@@@@@@X@@X@@X@@@@@X@@@@X@@X@@X@@@@@@@X@X@@X@@ ** ",
"-,=++++,-,@+O+=-=@X,,++--@--OO++O+++,+X+@+@++,+@O=X+,+@,XO@@X+,-+++++++@,@X@@@X@@@@@@X@@X@@@X@@@@@@@@@X@@X@@@@X@@@@@X@X@@@X@ ** ",
"=,-,+=++,+O,=++X++--@+-,,+@O,OX@+@--O@@@+@+@+,++,,O++,@+,@@@X@++++++++,,@@X@@@X@@@@@@X@@X@@@X@@@@@@@@@X@@X@@@@@X@@@@X@X@@@X@ ** ",
"---,++,,O+-,,+@++@X++@O-O@@@O@@@X@@@@@@@@@@@++X@=@X+++,+,OO@X@@++@@@+++,O@X+@X@@@@@@@X@@X@@@X@@@@@@@@@X@@X@@@@@X@@@@X@@@@@@@ ** ",
"++++,,=O+@+-+@+@@@X@@@@OX@@@X@@@X@@@@@@@@@@@+@X@@@@X+@++++@@X@@@@@@@@@+X@O+++X@@@@@@@X@@X@@@X@@@X@@@X@X@@X@@@@@X@@@@X@@@@@@@ ** ",
"==+,-+O@+@@+@+@X@@X@X@@@X@@@X@@@X@@@X@@@@@@@@@X@@@@XX@@++@@@X@@@@@@X@@@@X@X+OX@@X@@@@X@@X@@@@@@@X@@@X@X@@X@@@@@X@@@@X@@@X@@@ ** ",
"+,=-,-++@@@@@@@@@@X@@X@@X@@@X@@@X@@@X@@@@X@@@@X@@@@@X@@@@@@@X@@@@@@@X@@@X@X@@X@@X@@@@X@@X@@@@@@@X@@@X@X@@X@@@@@X@@@@X@@@X@@@ ** ",
",+++O-,+@X@@@@@@@@X@@X@@@@X@@@@@X@@@@X@@@@@@@@X@@X@@@@@@@@@@X@@@@@@@@X@@@@X@@X@@X@@@@@@@X@@@@@@@X@@@X@X@@@@@@@@@@@@@X@@@X@@@ ** ",
"=+,=@++@@X@@@@@@@@X@@X@@@@X@@@X@X@@@@@X@@@@@@@X@@X@@@@@@@@@@X@@@@@@@@X@@@@X@@X@@X@@@@@@@X@@@@@@@X@@@X@X@@@@@@@@@@@@@X@@@X@@@ ** ",
"+=++@X@@@X@@  @@X@X@@@@@@@X@@@X@X@@@@@X@@@@@@@X@@X@@@@@X@@@@X@@  @@@@X@@@@X@@@@@X@@@X@@@X@@@@@@@X@@@@@X@@@@  @@@@@@@X@@@X@@@ ** ",
"=,,+@X@@@@@ ** @X@X@X@@X@@@@@@X@X@@@@@@@@@X@@@X@@@X@@@@X@@@@X@ ** @@@X@@@@X@@@@@X@@@@X@@X@@@@@@@@@@@@@X@@@ ** @@@X@@X@X@@X@@ ** ",
"=,+ @X@@@@@ ** @X@X@@@@X@@@@@@@@X@@@@@@@@@X@@@X@@@X@@@@X@@@@X@ ** @@@X@@@@X@@@@@X@@@@@@@X@@@@@@@@@@@@@X@@@ ** @@@X@@X@@@@@X@ ** ",
"++* @@@@@@@ ** @X@X@@@@X@@@X@@@@X@@@@@@@@@X@@@X@@@@@@@@X@@@@X@ ** @@@X@@@@X@@@@@X@@@@X@@X@@@@@@@@X@@@@X@@@ ** @@@X@@X@@@@@X@ ** ",
" ** @@@@@@@  * @X@X@@@@X@@@@X@@@X@@@@@@@@@@@@@X@@@@@@@@X@@@@X@  * @@@@@@@@X@@@@@@@@@@X@@X@@@@X@@@X@@@@X@@@  * @@@X@@X@@X@@@X ** ",
" ** @@@X@@@  * @@@X@X@@@@@@@X@@@X@@@@@@@@X@@@@X@@@@@@@X@@@@@X@  * @@@@@@@@X@@@@@@@@@@X@@X@@@@X@@@@X@@@X@@@  * @@@X@@X@@@@@@@ ** ",
" ** @@@X@@@  * @@@X@X@@@@@@@@@@@X@@@@X@@@X@@@@X@@@@@@@X@@@@@X@  * @@@@@@@@X@@@@@@@@@@@@@X@@@@X@@@@X@@@X@@@  * @@@X@@X@@@@@@@ ** ",
" ** @@@X@@@ ** @@@X@@X@@@@@@@@@@X@@@@X@@@@@@@@X@@@@@@@X@@@@@X@ ** @@@@@@@@X@@@@@@X@@@@@@X@@@@X@@@@@@@@X@@@ ** @@X@@@X@@@@@@@ ** ",
" ** @@@@@@@ ** @@@X@@@@@@X@@X@@@X@@@@X@@@@X@@@X@@@@@@@X@@@@@X@ ** @@X@@@@@X@@@@@@X@@@@@@X@@@@X@@@@@@@@X@@@ ** @@X@@@X@@@@X@@ ** ",
" ** @@@@@@@ ** @@XXX@@@@@X@@@@@XXX@@@X@@@@@@@XXX@@@@@@X@@@@XXX ** @@X@@@@XXX@@@@@X@@@@@XXX@@@X@@@@@@@XXX@@ ** @@X@@XXX@@@X@@ ** ",
" ** @@@@@@@ ** @XXXXX@@@@X@@@@XXXXX@@X@@X@@@XXXXX@@@@@X@@@XXXX ** @@X@@@XXXXX@@@@X@@@@XXXXX@@X@@@@@@XXXXX@ ** @X@@XXXXX@@X@@ ** ",
" **         **                                                 **                X                         **                ** ",
" ********** ** *********************************************** ** **************************************** ** ***************** ",
" ********* **** ********************************************* **** ************************************** **** **************** ",
"                                                                                                                                "
};
