/* XPM */
static char *_9cca81fa0884926a5cf35a149e0a502zxSLY8fL778lIVvN[] = {
/* columns rows colors chars-per-pixel */
"128 128 8 1 ",
"  c #1D1D1D",
". c #232222",
"X c gray18",
"o c gray21",
"O c #373737",
"+ c #393939",
"@ c #3A3A3A",
"# c #3E3E3E",
/* pixels */
"oooooo oooooooooooooooooooooooo.oooooooooo+oooooooooo+++++++++++++ ooooooo++++++++++++++++++++++++++.ooooooooooooooooooooooooooo",
"o+XXoo oo+++++++oo+++++++++Xooo.oo+++XXXo+++++++oo++++++++++++++++ ooo+++++++X++++++++++++++++++++++.oo+++++++++oo++++++++X++++o",
"ooXXXo  o+XXXXoX+++++++++X++Xoo.o+o++oXXXoX+++++X+X++++X++++XX++X+ o++oXXXXoo++o+XXooXXXXoXoXX++++++.o++oXXX++oo+++X+++ooo++XX+o",
"XXoXX+  +X+XXoooXo++++++oo+++Xo.o+Xo+XoXoX+Xo+oX++oooXXXX++XXXX+++ o++XXoooXXX++XooooXXXXXXooXXXoo++.oXXXXoooo+XX+XoX+o+XXXoo+XX",
"oX+XXX  X+o+++XoXoX+X+XXXXX+o+X.oX+o++XoXXX+o+XoX+XXX...XX++XoXXX+ ++XXXXXX+ooX+XoX+XoXXXXXX+++XXXo+.oXooXXXX+o++ooo+X+++++XXoXo",
"Xo+XXo  ++++++XoXooo+++++XoX+o+.oo+X+X+XXXoXXX+++XXX..  ...+XoXXX+ +XXX+oXXX+oo++XXX+XoooXX++o+oXXX+.oXXXooXXX+XXoXX+X+X+oX+XX+X",
"o+oXXo  +++++ooXXXXXXooo++XX+oX.ooX+XXX+oooooXXXXXXXoX..        .+ +Xo+XoX+XX+XX+XXoX+XXXX++XXXXoXX+.oXXoXXooXX++XXXo+++o+X+++Xo",
"+XoXo+  ++o++XXXXoX++ooo++o++oo.o+++oo++++XXXoXXo+oXXoooooXX+X.. . +X+XXX++XXXoXXoXXX+ooX++XooXXX+++.oXXXoXXXXoX++XXX++X+++XXXX+",
"o+++++  ++++X+XXoX+++XXXX+o+XX+.ooo+o+Xo+X++XXXoXXooooX+X++XXoXX.  XXXooo+X+oXXXoooX+XXXXXXXXXXo++++.o+XXXooXXoXX++XXX+++ooXoXoo",
"X+++++  +++++ooXo+++++++XXXo+++.++++X+o+oooo++XoX++++X++++XXXXX+++ ++XXX++++++++XXXX++++X+XooX++X+++.+X+XooXXXXXXX++++XXX+X++XoX",
"++++++ ++X++++X+++++++++XXoXo+o.+X+++++++++++++o++++X+++++Xo+X+X+o #++++X+++++++XX++++##+X++++X+++++.#+X++XXXXXX+++++++XX+++++++",
"+++++o o+++++#+++++#####++++oo+.+oooooooo####+++++oooooooooooooooo ##+++++++###++++######++++++++++#.##++++++++++++####+++++++++",
"#ooooo oooooooooooooooooooooooo.ooooooooooooooooooooooooooooooooo# #################################.###########################",
"                                                                                                                                ",
"    .ooooo.oooooooooooooooooooooooooo+++++++++++++o+  ooooooooooooooooooooooooooooooooooo.....ooooooooooooooooooooooooooooo.    ",
"   .+++++o.ooX+++++++++oooooooooo+++++XX+++++++++ooo  oooo++++++++XXXXooooooooooooooXXX+oo...ooo+++++++oX+++++Xooooo++++++++..  ",
"  .+ooX++o.oo+XXXXXoXXX+ooo++++++XXXooooXXXX++++X+oo  ooo++++++XoX+XXoXooooooooooooXX++X+o..ooo++++++++++oooX++Xo+XXXXXXXXooo+..",
"++.XXXXo++.o++XoooXXXXoo+++++XXXXXXXXXXXXoooX+++++oo  ooX+++++++XXX+++XXooooooooX++o+XX+Xo.oo+++Xo++++XXX++++X+XXXXXXXXoooXXXX++",
"XX..oXXoX+.+XXXXXXoXXXXX++oXXXXXoooXXXXXXXXoX++++Xo.  oo+++++++XXoXXo++XXoXooX. ..X+Xoo+Xo.ooX+Xo+++XXXXXooXXXX+XXXXoXXXXXoXXoXX",
"XXX..XooXX.XXoXoXXXXXXXXXXXXXXXXXXoXXXXoXXXXXX++ooo.  oX++o+++XooXXX+XX++++.   .X++X+X+XXo.o+X+XXXXXXoXooXXXXXXXXXXXXoXXooXXXoXX",
"Xoo+.+ooXX.XXXXXXXXXooXXXXXXXXXXXXXoXXXXoXXXoX+Xooo   o+++++++XXXXo+XXXXoX. .X+++oo+++o+Xo.oo+XXoXXXoXXXXXXXXXXoXXXXXoXXXXXXXoXX",
"XX++.XXXXX.XXXXXXXXoX+XXXXXoooXXXXXXXooXXXXXoXXoooo   o+o++++ooXX++X+XX+.  .++X++X++XX+XoX.oX++oXXoXXXXXXXoXXXoXXXoXXoXXXXXXXoXX",
"oo++XXXoX+.XoXXXXXXXX++ooXXXXXXXXXoXXXXoXXXoXXXXooo   o+Xo+XXXXX++++++.  ..++++XX+++++++oX.o+XoXXoXXXXXXXoXXX++XXXXoXXXXXXXXXXXo",
"X+oXXXXXX+.XXXooooX+o++XXXXXXXXXXXXXXXXoXXXoXXXXXoo.  o+X++XXX++X++++++X+++XXXXXXXXXXX+oXX.o+oXXXXXXXXXXXXXXoXX++XXXXXXXoooXXXXX",
"++XXXXoX++.XXoXXX++X+++XXXXXXXoXXXXXXoXoXXX+XXoXXXo.  Xo++++XXX++Xo+++++XXXXoXXXXXXoo+X++X.oX+XooXXXXXXoXXXXXoXXX++++XXXXXXXXoo+",
"XooXXXXX++.+XXoXXXX+X++XXXoXXXXoXXXXoXXXXX++XXXXoXoo  ooX+++++XX++XX++++ooXXXoXXXXoX+X+X++.oXX+XXXXoXXXXooXXXo+++++++++XoXoXXXXX",
"XXXXooX+++.++XXooo+X+++++XXXXXXXXXXoXXXXX++++oXooooo  +++++X++++X+X+XX+XXX++XXXXXXX+oo+++X.++XX++++++XXXXXX++++++++X++++ooXXXoXX",
"XoXXXo++++.++XXXX++++++++++++XoXXXoXXXXX++++++XXXXoo  oX++X++X+++o+++++Xo+XX+XXoXX+XX+++X+.+X+X++++XXoXX++++X++++X+++o+++++++X+X",
"++++++++X+.#++XXXo+++X+X+++X+XXoXXoXXo+++++++oXXXooo  #oX++X+++++X++++++XXX+XoXX+XX++++X++.++X++X+XXXXo+Xoo++++++X++++++++++++++",
"+++++++X+#.##++++++++++++##+X++XoXXXX+++++++oooooooo  #ooXXX+XXXX++X++++++XX++++X+++++++++.#++X++XXXX++XX+X+++XXX+XX++++X+++X+++",
"+####+++##.###+++++++#######+++#+++++++++oooo######o  ##ooooooo+++++######+++++++++++++++#.##++++++++++++++####+++++####+++++##+",
"##########.#########################################  ####################################.#####################################",
"                                                                                                                                ",
"ooooooooooooooo  ooooooooooo ooooooooooooooooooooooooooooooooooooooooooo.oooooooooo....oooX+Xooooooo++X++oooooo.oooo++++++++oooo",
"o++ooooo+X+++o. ooXXXXXXoooo ooXXXXXXXXXXXXXooXX+XXXX+++++XXXXXXXXXooooo.ooX+XXXoooo..ooXXXo+ooooooXX++++++X+oo.ooXX+o+XX++++Xoo",
"o++++++++++Xo. o+XXXoXoooooo oXXooXXXXXoXXXXooX+++++oo++++++++++++XXXXXo.oo+X+++XXoo..oXXXXoX+Xoo+XX+XX+++++X+o.ooX+X+XXXXX++ooo",
"+++++++o++Xo. oo++XoX+XXXXXo oXXXXXXXXX++++XXooooo++++++oXXXoXX++oXXXXX+.oX++ooo+XXo..oXXoooX++X++++++++XXXX+Xo.oX+XXoooXXXXo+X+",
"XXooX++++Xoo  oX+X+X+X+X+oXX ++++XX++++.  .oXX+++++++++X++++oX+XXX++XXXX.oo+++X+XXXXo.oXXXXXX+++++++o+XXXoXoX+o.o+X#XXXooXXXXo+X",
"XXXoXXX+XXo  oX+oX++X+o+X+XX +..+++...  ..oXXoooX++X+++++++++++++++XXXoX.oX+XX+XXoXXo.oXXXX+++o++++X+XXXXXXoX++.oX#.#++XXXoooo+X",
"ooXXoXXXXo  .o++X++X+X+X+oXX .   .    .ooX++XXXXooo+++o++++++XX+X+++ooXX.o+X+++XXXXXXo.XXoo+X+++oXXX+oXXXXXXXX+.oX##.#++oooXXX+o",
"XXXXXXXXXo  o++X++X+X+X+XXXX   .oo..oooXX+X++XXX++++XX+++++++++++++X+XXX.X+X+++XXXXXXXXX++XX+++oXXXoXXXoXXXXXXX.oXX#.#X++XXoXX+X",
"+++XXXoXXo .++X++++X+XX+oXX+  .ooXooXXXX++++oX++++++++++++++++++++++XXXX.+X++o+XXooXXXX++++X++ooXXXXXXXXooXXXXX.ooX#..#X+++ooo++",
"XX++oXXXXo.XX++X++++XX++XX++ .oooXXXX++++++X++++o++X++++++++++++++X+XXoX.+X+XoXXoooooooooo++X+XXXXXXXXXXXoXXXXX.ooX#...##+++Xo+X",
"++XX+ooXXXXo+oXX++XX+++o+X++ ooXX+++++++++oX++X+++++++++X++++++++++XXXXX.X+XXXoXoooXXXooooo+++XXXXXXXoXXXXoXXoX.ooXX##  .#X++X++",
"X++XX+XoXXXoX+++X++++++++X++ oXX+++++++XXoXXX++++++++++X+oX++++++oXoXXXX.XXXXXXoooXXXoXooooo++++oXXXoXXXXXXooXX.oooXX#. .##X+++X",
"+X+XXX++++X++X+X+++++++++++X XX++++++++oXXXoXX++XXXX+++++X++X++XXXXXXXXX.oXXXooooooXXXXXXoooooXXXXXoXXooooXXXXX.oXXXXo#. .##X+++",
"++X++++++++X++XXX+++++++++X+ +XXX+++++++XXXXXXXXXXXXXX++X+XX+XX++XXXXXXX.ooXXooooXXXXXXXXooooXXXXXooXXXXXXXXXXo.oooooo##. ###X++",
"++++++XX++++X+X+XXX+++++XX+# #+XXX+++++X+++XXXX+++++XXXXXXX++++++++++XX+.ooooooXoooooXXXoXXXXoXXXXXXXXXXXXXXooo.#ooooo###. .##X+",
"+####+++#########+++++++++## ##+++++++++###++++++++++++++++#########+++ooooooooooooooooooooXXXXXX#######ooooooo.#oooo#####. .##+",
"############################ ###########################################.oooooooooooooooooooooooooooooooooooooo.###########. .##",
"                                                                                                                                ",
"++++++++ooooo.ooooooXX++++ooooooooooo...oooooo+...ooo++++++++++++++++++++++oooo.            .o++++++++++++ooooooooo.oooXX+++++++",
"++++++XXXoooo.ooooX+XXXXXXXoooX+XXoo...ooXX+ooo..oooX++++++++++X+++++++++++X++ooo...  ....ooooXXXXX+XXXXXXXXXXXoooo.ooXXXXXX+XX+",
"+XoX+XXXXXXoo.ooXX+X++++XXXXX++X+X+++++XX+XXXoo.ooXX+++++++++++++++++++++X++++X+o...ooooooooXX+++++++oX+++XXXX+++oo.oXXXoXXXXXX+",
"X+++++++XXXXo.oXXX+++++++XXX+XXX++++++++++oXXoo.oX+++++++++++++++++X+++++++++++Xoo.ooooXXoXXX+++++++XX+++++o+++++Xo.oXXXXXXoXXXX",
"XX+X+++++XXXX.oXX++++++++++++XX++++++++++++XXXo+++++++++++X+++++++++X++++X++++++Xo.oXXXoo+X++++++++XoXX+++X++++++Xo.+++++XXXoooX",
"XXX+X++X+XXXX.XX+++++++++++X++++++++++++++X+XXo.oX++XX+++X++X++XXX++++++++X+o++X+o.oXX+++++++++o+++XXoooXX++++++++X.+......XXXXX",
"XXXX++X++XXXX.XX++++++++++++++X+++++++++++++XXX.o+++++X++++X++++..++++++o++X+X++++.oX++++++++XXXo++++XXXoo+++XX++XX....++++XXXXX",
"XXoX++++++XXX.XX+++++++++X++++Xo+++++++++++++XX.oo++++X+++X++++X+ .+++++++++X+++X+.XX+++++++++XXX+++++X+++++++oooXX..++XXXXoXXXX",
"XXXXX+X+X++oX.X+X+++++++++++XXXX+++++++++++++XX.o+X+o+++++++++++++  .+++++++XX++++.XX+++++++++ooXX+++++++++++XX+XXX.+XXXoXXXXXXX",
"XXXXXX+oX++++.XX++++o++++++XX+++X+++++++++++X+X.o++++X+++++++++++++  .+++++++X++XX.X+++++++++X+XoooX+++++++++++++XX.XXXXoXXXooXX",
"XXXXX+XXo++++.X+X+X+++++++X++X++++++X+++XX++++X.X++X++++++o++++++++.  .++++++X++XX.XX++++++++++++XXo++X+++++++++XXX.XXXXoXXXXXoX",
"XXXXXXXXoXX++.+X+X+XX+++X+++++++++++o++X+XX+++X.+++++++++++o++++++++.. .++++++++++.X++++++++++++++X++++++++++X+++o+.XXXXoXXXXoXX",
"++oXXXXXXX+X+.XX++o++++++Xoo+++++X++oXX++++X+X+.X+++++++++++o++X++++++. .+++++++oo.oo+X++++++++o+++X+XX+++++++++++o.XXXXXXooXoX+",
"++X+XXXX++X+X.oXX++XX++++++++X+XX+XoX+X+XX+++X+.+X+++++++++++X+++XXX+++. .+++++ooo.ooXXX+++X++XX++++Xooooooo+++++Xo.+XXXXXXXXXX+",
"+X+X+++++++XX.oXXX++++++XXXX+++++ooooXXXXXX+X++.++X+++++XXXX+++XXX++++X++.+++X+oo+.ooXXXXoXoXXXXX+XXooooooooooXXX+o.+X+XXXXXXXX+",
"++X+++++++X+#.ooXXXX++++++XXXXXXXXXXXX#XoooX++o.oo+ooooooooXXXXX+####++X+.X+++ooo+.ooo++XXXXXXX++++ooo.....oooooo+o.++X++XXX+X++",
"#++#####+++##.oooooo+++++++++++++++++##ooooo+oo.ooooooooooooooooooooooooooooooooo+.oooooooooooooooo...     ..oooooo.#+++++++++##",
"#############.++ooooooooooooooooooooooooooooooo.ooooooooooooooooooooooooooooooooo#.oooooooooooooo..           ..ooo.############",
"                                                                                                                                ",
"ooooooooooooooooooo+++ooooo.XXXXooooooooooooo+++++ooooXXXXXXXXX.oooooooo++++++oooooo+++oooooooXXX.              .ooooooooooooooo",
"ooXXX+XXX+++++++++++++++Xoo.XXXoXXXXoooooo+++XXX++X++XXXXXooXoX.ooooX++++X+++++oooo++X+XooooooooX...           .ooX++o++++o+Xooo",
"oX+X+++XX++++++++++++++++Xo.Xoo++++oXoooX++++++XXX++++++++XXXXX.ooXX+++++++++++++++++++++XooooooXXX  .        ..oo+++++++++++Xoo",
"X++++++++++++++++++++X++++o.Xo++++++oXoo++++++++X++++++++++XoXX.oXX+++++++++++++++++++++++XXXXXooX  X..      ...oX++++++++++++XX",
"+++++++++++++++++++++XX+++X.X+++++++++X++++++++++o++++++++++XXX.oX++++++++++++++++++++++++++++++oX XXX.    ....oo+++++++++++++++",
"X++++++++++++++++++++oX+++X.++++++X++++++++++XX++++++XXXX+++XXo.o+++++++XXo+X++++X++++++++++++++XX XoX.  ...o..ooX+++++++++++++X",
"X+++++++++++++++++++++X+++X.o++++++X+++++++++++++++XX++++++++XX.o+++++++X++++X+XXXX+++++++++++++X  XoX...oo+oo.oXXX++++++++++++X",
"++++++++++++++++++++++++++X.o+++++++++++++++++++++++++++++++++X.++++++++++++++XXXX+X+X++++++++++X XXoX..oo+++Xo.oXXX++++++++++++",
"X+++++++++++++++++++o+X+++X.o+++X++++++++++++++++++++++++++X+++.++++++++++++++XXXXXX++++++++++++XXX+Xo.oooX+++XoXX+++++++++++++X",
"++++XX++++++++X+++++++++++X.XX+X+++++++++++++++++++++++++++X+++.+++++++++++++++XXXX+++++XX+++++++X++X+.ooXo+++++++++++++++++++++",
"X++++o+++++++++o++++++++++X.XoooX++++++++++++++++++++++XX++++++.+++++++++++++++XXXX+++++++X++++++++XXX.oo+++oo+++++++++++++++++X",
"XX++++X+++++++++++++++++++X.XXXX..++++++++++++++++++++++X+++++X.+++++++++++++++XXX++X++++X++++o+++oXXX.o+++oX+++++++++++++++++XX",
"XXX++++++++++++++X+++++++XX.XXXXX  +..++++++++++++++++++++++++X.+++++++++++++X++X++++++++++++X++++XXXX.o++oX+++X++++++++++++++XX",
"X+.+++++++++++++++++++++XXX.XXXXXX    ..o+++++++++++++++++++++X.++++++++++++++++++X++++++++XX++++XXXoX.o+o++++++++++++++++++++XX",
"X+++++++++++++++++++++++XXX.XXooXXX      oX+X++++++++++++++++++.+++o++++++++XX+++oooX+++++XX++++oXXoXX.oXo+++X+++++++++++++++++X",
"XX++++++++++++++++++++++XXX.XXXoooXXXXXXX.ooXX+++X++++++X+++++X.++++++++++X++++XXXXX++++oooX+++XXXo+Xo.ooo++XXX++++++++++++++++X",
"+X+.++++++++++XXX++++++XXXX.oXXXXXoXXXXXXX..oXX++o+ooo++++++++X.X+++++++++X+++++++Xoo++++XX+++++++++oo.ooooXXXXX++++X+++++++X+++",
"++++XXXXXXXXXXX++##+++XXXXX.ooXXXXXXXXXXXXXXXXoooooooo+o+++++X#.XX++++X++XX+++o+++++++++XX+++++++++ooo.Xooo++X++XXXXX+oXX+++XX+X",
"X+++++++++++++#####XXXXXXXX.ooo#XXXXX#ooooXXooooooooooooooooo##.XXXo####XXXX+ooo+++++++XX+o+++oooooooo.XXX++#+##++ooooXXXXo+++XX",
"XXXXXXXX##########XXXXXXXXX.ooooooooooooooooooooooooooooooooooo.XXXXXooXXXXXXooooooooooooooooooooooooo.XXXXXXX#XXX##XXXXXXXXXXXX",
".................................................................................                                               ",
"XXXXXXXXXXXXXXXX+++XXXXXXXXXXXXXXXXXX.ooooo++oooooooooooooooooo+++ooo+ooooooooooo XXXXXooX+++XXXXoooo   ..ooooooooooo oooooooooo",
"XXXXXXoooXXXXXXXXXX+++++XXXXoo+++XXXX.oooooooooooooooo+oooo+ooooooooooooooooooooo XoXoXXXX++++++XXXXoo .oooX++XXXXooo oooXXXXXoo",
"oX+++o+++++XXX++++++++XXX++Xo+++XX+XX.o+oooo++++++ooooooooooooooooooo+++++++++++o XXX+X+X+XXXX+++XXX+ .ooXX++++oXXXoo oooX++ooXo",
"XoX++++++++++++++++++++XXX+++++XX++XX.+oo++++XXX+++++++oooooooooo++++++++X++++++o XX+X+X+XX+X+++++Xoo oXXX+++++++XXXo ooX++++X+o",
"o+++++++++++++++++++XXXXX++++++++++XX++o++++XXXXX+++++++++oX++++++++++++X+Xoo+++o XXXXX+XXXXXXXX+oXo oXXo++++++++++Xo oX+++++++o",
"X++++++++++++++++++XX.XX+++++++o+++XX.oX++XXXXXXXX++++++++XXXXX+++X++++X++++X+++X X+X+XXXX+XXXX++oXo oXX++++++++++++X o++++++++X",
"++++++++++++++++++XX..X+++++++X++++XX.+++X+XXXXXXXX+XX+++++XXXXXXXXX++XX+++++++XX X++XXXXXX++++++XXo oX++++++++++++++ X+++++++++",
"X+++++++++++++++XXX..X++++X+++X++++XX.XX++X+XXXXXXXXXXX+++++XXXX+XXXXXX+XX+++++XX XX++XXX+X+++++++XooX+++++++++++++++ X++++++++X",
"++++++XXXXXX+++XXX. X+++++XX+X++++++X.XX++++++XXXXXXXXXXXXX+++XXXXXX+X++++++++++X +XX.++XXXX++++++++o++++++++++++++++ X+++++++++",
"X+++XXX..XXXXXXX.  X++++++X+X+++++++X.X++++++XXXXXXXXXXXXXXXXX+++XXX++++++++XX+++.   ...++XXX+++++++++++++++++++++++X X++++++++X",
"++++++XXX...XXX. XX++++++XXXX+++++++X.+X++++++++++XXXXXXXXXXXXXXXX++X+++++++oX+++       .++++XX++++++++++++++++++++++ X+++++++++",
"X+++++++XXXX.   XX+++++++XXX+++++++XX.+X++++++++XXXXX+XXXXXXXXX+++++++++++++XX+++ X+++++....+++X++++++++++++++++++++o XX+++++++X",
"XX+++++++++XX.   XX++++XXXXX++++++oXX.+XX++++++++X+++XXXXXXXX++++++X+++++++XXX+++ X+++++++++.+++X+++++X++++++++++++o. XXX++++++X",
"XXX++X++++XXXXXX. .XXXX++XXXoooXoXXX+.+XXX+++++++++++XXXXX+++++++XX+++X+++oo++++# X++++XXXooo+XX+++X+XoX++++++++X+ooX X+XX+++++X",
"XX+##+XXX++++XX+XXXX+XXXXXXXX++++++X#.++X+++++XX+++++++++X++++++++++++XX+++++++##.XX+XXXooooo+++++++++++++X++XX+XooX. X#+X+X++++",
"XXXXXXXXXXXXX++++++###XXXXX##X##XXXXX.#+++####+++#++++++++++++++++++###+++++++###.XX+++oXXXXoooooooooooo++ooo+XXXXXX. XXX+#+#++X",
"XXXXXXXXXXXXXXXXXXXXXXXXXXXXXXXXXXXX#.#########################++++#######++#####.XXXXXXX...XXXXXXXXXXXXXXXXXXXXXXX.. XXXXXXXXXX",
"                                                                                                                                ",
"oooooooooooooooo.      ..ooooooo++++++++++XXXXXXooooo..           oooo++++++++++++ooooo.......ooooo.XXXXXXoooooooooooooooooooooo",
"ooooooXXo++XXXXXoo    .ooXXX++++++++++++++++++++XXXooo.         ...ooXXXX+++XXXXXXXXoooooooooo++ooo.XXXX+++XXXo+ooooooooo+ooo+oo",
"o++++++++++++++XXoo. .oX+XX++XX+++++++++++++++++++XXooo.       .o...oXXX++++++++XXXXXXXXXoooXX+X++o.XXo+++++XX+++XX++XXXXXXX+++o",
"++++++++++++++++XXo..oX+++++++XX++++++++XXX++++++++XXXo..     .oXo.....+++++++++++++++++++++++++X+o.XX++++++++++++++++++++++++++",
"X++++++++++++++++Xo..oX++++++++XXXXX+XXXXX++++++++++XXoo.    .oXX+ooo.o++++++++++++++++++++++++++X+.X++++XX++++++++++++++++++++X",
"X+++++++++++++++XXX..oX+++++++++XXXXXXXXX++++++++++++Xoo.. ....o+++XXo.o+++++++++++++++++++++++++X+.oX++++++++++++++++++++++++XX",
"oo+++++++++++X+++XX..o+++++XX++++XXXXXXXX+++++++++++++Xo..++oo.+++++Xo.o++++++++++++++++++++++++++X.ooX+++++++++++++++XX++++++X+",
"XXX+++++++++++++++X.o++++++++++++++XXXXX+++++++++++++++o.++++Xo++++++o.oX+++++X+++++++++++++++++++X.o+Xoo+++++++++++++++++++++XX",
"XXXX++++++++++++++X.oo++++++++++++++++++++++++++++++++oo.o++++Xo+++++o.X+++++++ooXXX+++++++++++++++.o++XXX++++++++++++++++X+++XX",
"XXXX+++X++++++++++X.o+++++++++X+++ooo+++o+++++++++++++XX.oo++++oo++++XX+++++++++ooXXXX+++++++++++++.o+++XXX+++X+++++++++++++++XX",
"Xo+++++++++++++++++.XX++++++Xoooo.    ...o++++++++++++XX.oXX++++Xo+++X+++++++++++++XX++++++++++X+++.oX+++X+++ooXX+++X+++o++++++X",
"++++++++++++++++++X.X++++++++...      oooXX+++++++++++XX.ooX++++++++++++++++++++++++++++++++++XX+++.oXX+++++XXXX+++X++++++++++++",
"+++++++++++++++++XX.XX+++++++oooooo+++++XXXX+++++++++XXX.o+++++++++++++++++++++++++++++++++++++++++.ooXX+++X++++++++++++++++++++",
"++XXXX+++++++++++XX.+XXX+++++++++++++++++X+++++++++++XXX.#+++++++++++++++++++X++++++++++++++++++++X.X#oXX++++++++++++++++++XX+++",
"+XXXXXX+++++++++XXX.#+XXX+++++++++++++++++####+++++++XXX.X++++++++++++++++++XXX+XXXXXXX++XXXX++++oX.X##oXX++++++XXX++++XXXXXo#++",
"#+++++X+XX++XXXXXXX.##+++++XX++++++++++#######XX+XXXXXXX.X###XXX++++X+++++XX++++++++++++XXXXXXoXXXX.XX##oXX+XXXXXooo#ooooooo#XXX",
".#####++++#XXXXXXXX.#######++++++++######XXXXXXXXXXXXXXX.XXXXXXXXXXX++++++++++..+++++++++++XXXXXXXX.X#XX##ooooooXXX#XXXX#XXXXX..",
".....#####XXXXXXXXX.##############XXXXXXXXXXXXXXXXXXXXXX.XXXXXXXXXXXXXX#####.......XXXXXXXXXXXXXXXX.XXXXXXXXXXXXXXXXXXXXXX......",
"                                                                                                                                "
};
