/* XPM */
static char *_e1ca86610004f0ada38f3390be06a19MJXey0pEFrLfSmaw[] = {
/* columns rows colors chars-per-pixel */
"128 128 200 2 ",
"   c #1D1D1D",
".  c #002702",
"X  c #022D04",
"o  c #082F03",
"O  c #06260C",
"+  c #09270E",
"@  c #042D0C",
"#  c #082D0D",
"$  c #023403",
"%  c #033B04",
"&  c #0A3C06",
"*  c #04340C",
"=  c #0A350D",
"-  c #043B0B",
";  c #0A3C0C",
":  c #052E11",
">  c #0C2C13",
",  c #0C2014",
"<  c #102715",
"1  c #112D17",
"2  c #142E1A",
"3  c #053412",
"4  c #0B3413",
"5  c #053B11",
"6  c #0B3B13",
"7  c #0D311A",
"8  c #0D3B1A",
"9  c #113315",
"0  c #123A15",
"q  c #13341B",
"w  c #19351D",
"e  c #133B1B",
"r  c #1C3C1E",
"t  c #1B3222",
"y  c #1C3B22",
"u  c #232222",
"i  c gray18",
"p  c #223C26",
"a  c #2A3C2C",
"s  c #373737",
"d  c #3A3A3A",
"f  c #054304",
"g  c #0B4305",
"h  c #06420C",
"j  c #0B430C",
"k  c #0C490C",
"l  c #0C4906",
"z  c #11430A",
"x  c #0A5206",
"c  c #13520B",
"v  c #054311",
"b  c #0C4312",
"n  c #0F4813",
"m  c #0E471C",
"M  c #134313",
"N  c #1A4316",
"B  c #144A15",
"V  c #1A4A15",
"C  c #14431B",
"Z  c #1B431D",
"A  c #1C4D1C",
"S  c #155111",
"D  c #1A5518",
"F  c #204D16",
"G  c #22491A",
"H  c #22501F",
"J  c #1B4322",
"K  c #1C4B22",
"L  c #224124",
"P  c #284227",
"I  c #224D24",
"U  c #28472B",
"Y  c #245323",
"T  c #285426",
"R  c #235C22",
"E  c #285824",
"W  c #2D542C",
"Q  c #275928",
"!  c #2C5A2B",
"~  c #325E2E",
"^  c #2E4A31",
"/  c #364B3A",
"(  c #314A34",
")  c #2F5C32",
"_  c #335235",
"`  c #335D32",
"'  c #3E5E37",
"]  c #34503A",
"[  c #3B533C",
"{  c #395435",
"}  c #2B6228",
"|  c #34612F",
" . c #34692D",
".. c #3B6C2D",
"X. c #3A742A",
"o. c #356334",
"O. c #3A6535",
"+. c #366933",
"@. c #3C6B35",
"#. c #356438",
"$. c #3B653A",
"%. c #3D6B3A",
"&. c #3D713B",
"*. c #3D7534",
"=. c #435C3F",
"-. c #416C37",
";. c #406738",
":. c #426C3B",
">. c #427236",
",. c #427B32",
"<. c #44743D",
"1. c #49713C",
"2. c #467B3C",
"3. c #497B3C",
"4. c #3D6040",
"5. c #3D6C40",
"6. c #454942",
"7. c #485F45",
"8. c #425748",
"9. c #445C49",
"0. c #485E49",
"q. c #476D46",
"w. c #447443",
"e. c #497541",
"r. c #467B42",
"t. c #4B7C45",
"y. c #477548",
"u. c #4B774B",
"i. c #4D7C4B",
"p. c #507C47",
"a. c #517E4A",
"s. c #4D6657",
"d. c #55635D",
"f. c #5B7758",
"g. c #4C823C",
"h. c #50833E",
"j. c #50883F",
"k. c #56903C",
"l. c #4D8442",
"z. c #4F834C",
"x. c #518344",
"c. c #528A44",
"v. c #598D45",
"b. c #52814B",
"n. c #59854E",
"m. c #558B4B",
"M. c #5A8C4C",
"N. c #569244",
"B. c #5A9345",
"V. c #5A9945",
"C. c #5C934C",
"Z. c #5E994A",
"A. c #51934C",
"S. c #558352",
"D. c #578A51",
"F. c #5A8C54",
"G. c #598E58",
"H. c #579451",
"J. c #5D9353",
"K. c #5F9B54",
"L. c #5D9558",
"P. c #62964D",
"I. c #639B4D",
"U. c #618F51",
"Y. c #629552",
"T. c #659C53",
"R. c #689C54",
"E. c #629259",
"W. c #659D59",
"Q. c #699655",
"!. c #66A04D",
"~. c #64A152",
"^. c #6BA453",
"/. c #66AA57",
"(. c #6DAD56",
"). c #6FA05C",
"_. c #6CA15D",
"`. c #6FA05C",
"'. c #6CAA5B",
"]. c #74AF55",
"[. c #73AA5C",
"{. c #74B15C",
"}. c #78B95F",
"|. c #7ABA5A",
" X c #689E60",
".X c #678B67",
"XX c #6CA563",
"oX c #6DA962",
"OX c #75AE64",
"+X c #77B363",
"@X c #7BBB64",
"#X c #76B269",
"$X c #7CBA69",
"%X c #7FB371",
"&X c #7DBD71",
"*X c #81B864",
"=X c #80BE6B",
"-X c #84B973",
";X c #89CA78",
":X c #87C37B",
/* pixels */
"s s s s s s   s s s s s s % ~.b.C s s $ 2.C.C.- % O.O.5 - M.b.% * 5 h 5 b.b.b.% - 6 8.e F.C.M.n.f./ * @X-X6 e.:.C.Y.j 4 d d d d d A C.O.; d.d.J s.s d d d d d d d d d d d d d d d d d d d d d d d d d d u s s s s s s s s s s s s s s s s s s s s s s s s s s s ",
"s d i i s s   s s d d d d d - - s s d d h C.= d - O.= i s s h - J.M.b.^.g b.% x.b.& 6 v G.C.V.=Xv j J.% *X[.}.}.T.; d d d d 6.6.d C 2.6 s s d d d d d d d i d d d d d d d d d d d d d d d d d d d d d d u s s d d d d d d d d d s s d d d d d d d d i d d d d s ",
"s s i i i s     s d i i i i s i d d d d d - d d d * I d i s s 5 b.b.b.Z.C.h b.b.b.; L.c.& % XX; :.@.C.$ {.{.Z.Z.I.3 d d i i d d i d b s d d s i i i i s s d d s d i i s s i i i i s i s i i d d d d d d u s d d s i i i d d s s d d d i d d d s s s d d i i d s ",
"i i s i i d     d i d i i s s s i s d d d d d d s s 6 d d i s u b b.b.B.% 5 b.b.$ $.@.b.% f b.; %.:.@.c.b.N.b.b.$ ` e e J i i d d d   s d d i i s s s i i i d d i s s s s i i i i i i 8 s i i i s s d d u s i i i i s s s s d i i d i s i d s d i i i s s d i i ",
"s i d i i i     i d s d d d i s i s i d i d i i i i i d s d i u b b.b.- d C b.b.$ %.@.:._./.% $.$.%.%.&.& b.l.- 3 O.c.m.m.q i i i d   d d i i i i i i d s s i d i s i d i s i i i i ^ K d d d i i i s d u s i s s i i i i d s d d s s s d i d d d d d i i s i s ",
"i s d i i s     d d d d d d i s i s s s d d d d d i s i d s d u C b.g i d Z b.% <.:.- %.@...J.& b.:.;.@.- b.).- %.@.@.= - s i i i d   d i i i d s i i i d s s d d i i i d i s s s i 4 d d s d s i i i d u s i i i s s i i i d i i s i i d i d i d s i d i i d i ",
"s d s i i s     d d d d d s s i i i i i i s s s d d i i d s i u s ; i d i 0 b.b.b.B &.- - - % v.W.- - - h ).).v - C.b           u d   d i s d i s i d i i d i i d i i s i d i i i i 4 d i i i i s i i d u s i i s i i s s i i d d i i i s d d d s d i d d d i s ",
"d i s i s d     d d s d d i i i i s i d d s s s d d s d d s s u s d d d s s 6 b.; b b.b.b.Y./.).g b.b.b.b.% $ O.$.= i i d i u u   u   d i d i i i d d i i i s i i s i i i d s s i d * i s s i i i d d d u s i i i s i i i i s i d d i i i d d i d d d i i i i d ",
"s d d d d d     d d d d i d i i s i d d d i i i i d s d i i d u s s s d s d i M d 8 b.b.).).'.$ P.~.b.b.b.- %.; O.#.4 e q 9 p i u     i i i s s s d i d d i i i s s s i d i i i i i = i i i i s d d d d u s d i i i s s i i s i i d d i i i d d d s s i d i s s ",
"i d d d w d     d d d d d s s i s d d d d d d d i i i s d d d u d d d d i d s d s s = b.).).% x.b.b.P.b.b.- = - X @.6 b.b.b.b.q d d   d d i i i d d d d d d d d i i i i d d d d i d 6 q 9 > d d i d d d u d i d i s s i i i i i i i d d d d i i i d i d d i s i ",
"d d d d @ /   d d i d d d d i d d d d d d d d d i i s i s d s u d i d d d d d d d d y b.$ % & m.l c ).).).5.* #.$.- - b.b.).).= d s   d d d d d i d d d d d d d i i d d d d d d d i d d 6 3 4 4 4 4 d d u d d i d d i i i i i i d d d d d d d i i d d d d d d d ",
"d d d d d 7 e s d d d d d d d d d d d d d d d d d d d d s s d u d s s s s s s s s d d N $ 0 d 0 d d $ ).% %.* $.O.B b.b.).).% s w w   d d d d d d d d d d d d d d d d d d w 9 9 d d d d d 8.] d - H.9 1 > 1 d d d d d d d d d d d d d d d d d d d d d d d d d d ",
"d s s s s w b s s s s s s s s s s s s s s s s s s s s s s s s u s s s s s s s s s s s s 1 t s a s s - ).- :.* O.@.S b.I.).& - s 8 ;   d d d d d d d d d d d d d d d d d d g g ; d d d d d d d d v A.$ - - h d d d d d d d d d d d d d d d d d d d d d d d d d d ",
"            1                                                                                       = b.4 %.A - @.b.:.XX#XoX- g 4 c.$                               % g l ).).+Xz               Y - D.- w.O.z                                                   ",
"        u s s * s s u s s s s s s s s s s s s s s s s s s s s s s s s s s d d d d d d d d d d d d d s t   4 K e $.o.%.% & = ; m.O.m.m.g s s s s s s s s s s s s s 8  .R.T.Z.I.).).7 u u u u s s * $.` - 5 e.).% s s s s s s s s s s s s s s s s s s s u         ",
"      u d d d 9 b s u s s i d d d d d d d d d s s s s s s s s s s d d d d d i i d d d d d d d d d s s s     w s 4 %.1.- #...:.= b.Z.M.m.9 i s s s s s s s s s s s s h C.V.).XXe p s u u u s s s 2 ) ` = 6 z.W.- i d d d d d i s s s s s d d d d d d d d u u     ",
"    u d s s i d d = u s s d i i i i i s i i i d s s s d d d d d d i i i s s s s i i i i d d d d i d s s     s s s 6 <.7 e C.%.:.5 Y.g - i s i s s s s s s s s s s s - % ).&Xg i d s u u s s s d d q ` o.e 0 b b d s 0 z .Xd d i s d i i i i i i i i s s s d u u ",
"d d u i i i i s d = u s d d i s s s i i i i s s d d d d d i i i i i i i i i i i i s s s i d d d d d s s     s s i d 7 d d d $.$.- - @.* d d i i s s s s s s s s i d - & ;Xf J.$ i s u s s d d d i s m 8 d d 7 9 4 - R ).$ i d i i i i i i i i s s s i i i i d d ",
"i i u u s i i s i 7 u d i i i i i i s i i i i i d d s i i i i i s s s i i i i i i i i s i d d d d i s u     s s d d d d d d b h O.%.O.O.- d d i i s i s s i 9.6 5 - %.%.f |.N.).= s u s s i d i s d 9 d i i i i e = ).).$ b 6 0 i i i i s i i i i i s i i s i i ",
"i i i u u i s s w i u i i s i s i i i i i i i i i i i i i i i i i i s i i i i s i i i i i i d d s s s u     s i d d s d d 4 O.O.O.$.$.O.- i i d d d d u   0.$.O.L.$ O.| OX).).).C s u s d i d i i i i i i s i s w 6 :X).$ o.O.o.4 i i i i s i i s s i i i s i i ",
"i s s d u d s s e i u i i i i i i i i i s s i i i i i i i i i i i i i s i i i i s i i i s i d i s s s       s d d d d d d d ; ; - * - %.- i i i s i u   u 7.:.:.>.t.$ o.$ g.).).r s u s s d i i s i i i s i i i i e y.$X$ $.@.@.&.4 i i i s i i i i i i i s i i ",
"i i d d u i i i r i u i i i i i i i i s i d i i i i i s s s i i i i i i i s s i i i i i s i i s s s s       s d s d d d d s b.- - c.$ I - i i d u     u d > - $ 3.b.= = t.c.).).s i u s i d d s i i s i i i i i i i q ! - +.t.r.- - - 0 i s i i i i i i i s i i ",
"s s d d i i i s q 4 u i s i i i i i i i i d d s s i i i i i i i i i s i i i i s i i i s i i i i s s s       s d i s d i i & b.b.b.$ l.; - d b k   u u 9 ; @.&.6 * m.>.; @.l.).; s i u s d i s i i s i i i i i i i s i w 8 5 - % B.).).#X9 i i i i i i i i i i s ",
"i d s i i i i i i > 6 i i i s s s s i d s d d i i i i i i i i i i i i i i i i s i i i s i i i i i s s u     s d i d d i ; b.b.T.b.b.h S.Y.= L.K.- d 9 %.>.>.%.e i * x.r.- % ).6 i i u s d s i i i i i i i i i i i i i i s t $.>.).).).).e i i i s s s i i i i i ",
"d d i i i i s i d d u t t s i i i d d i d d d i i i i i i i s i i i i i i s i s i i i d i i s i i i s u     i s d d d d 5 b.T.).).).b.; - T.'.f 2.% %.@.-.Y.K.4 i i j b.4 d w d d i u s i d i s s i i i i i i s i i i i i s w 6 n M o.e d i i i i i i i i s s d ",
"i s s i i i i i d d u d i i s i i i i d i d d i i i s i i i i s i i i i s i i i i i d d i i i i s i s s     s s i d d 6 - h b.).@X$Xf :.- $X& M 2.- - t.M.v.c.{ i i s.C d i d i d d u s i i d i i i i s i i i i s s i i i d d ] % @.O.O.3 d d i s i s i i i i i ",
"i i i i s s i d d d u d d i i d s s d i d d d d d i i i i i i i i i i s i i i i i d d d d s i s s s s s     d d d d = b.b.j b.j h ; t.:.e.; h <.3.* d q = S.m.o.J i i d s s d d d i u d d i i d d d d d d i i i i i i d d d d d d $ M.@.e.4 d d s s i i i d i i ",
"i s i i i d d d d d u d d i i i i d d d d d d d d d d 6 d i s i i i s i i i i i d d d d d d i i i i s s     s i d g b.Q.Y.{.- 6 b x.@.$.- :.%.%.O.O.b i d 2 M O.L i d i i d d d i d u d i d i d d d d i i s i i d d d d i d d d d i $ m.C d d d d d d d d i d i ",
"d d d d d d d d i d u d d d i i i s d d d i d i d d d 4 d i i s i i s i i s d d d d d d d s i i i s s s     d s ; b.b.).).C.(.@ O.x.~.@ $.% :.M.v.@.; d i s i r d i i d d d d i d d u d d i d d i d i i i i s d i s s d d d d d d i d w d d d d d d d d d d d d ",
"d d d d d d d i d d u d d d d d d d d d d d d d d d d * i d d i d i i i i d d d d d d d s s s s s s s s     d s n S b.b.).C.~.T.* t.I.= o.3.- - O.a.= i d d d d i d d d d d d d d d u d d d i d d i i i i d d i i d i d d d i i i d i i d d d d i d d d i d d d ",
"d d d d d d d d d d u d d d d d d d d d d d d d d d * * d d d d d d d d d d d d d s s s s d d d d d d s     d d s s 0 b.b.P.^.j T % ^.; $.$ :.e.; ; K d d d d d d d d d d d d d d d u d d d d d d d d d d d d d d d d d d d d d d d d d d d d d d d d d d d d d ",
"d d d d d d d d d d u d d d d d d d d d d d d d d d d * _ d d d d d d d d d d d d d d d d d d d d d d d     d d d d d j b.N.- $.#.c.f M 6 b.- - z.t.V d d d d d d d d d d d d d d d u d d d d d d d d d d d d d d d d d d d d d d d d d d d d d d d d d d d d d ",
"                                                        5                                                             B b.j ~ x.v.%.l.$ b.b.b.b.j n                                                                                                             ",
"s s s s s s s s s s s s s s s     s s s s s s s s s s 6 - s s s s s s s s s s s s s s s s s s s s s s s s s s s s s s s = = ` 3.:.1.c.* W.Y.).b.b.& s s s s s s s s s u u u u s s s i d i s s s s s s s d d i d d s s s s s s u s s s s d d d d d d d d s s s s ",
"s d d s s s s s d i d d d s u   s s i i i i i i s s 6 ~ 6 s s i i i i i i i i i i i i i s s i i d i i i i d d d d d i i i i = l.c.j - ).!.).V.b.X.b.; i d i i i s s s s u u s s i i i s d s s s s s s i i d d d d d d i d s s u s s i i d s d i i d d d d i s s ",
"s d d d d d d d d d d i s u   s d i i i s i s s s s s - A @ i i s s i i i i i s i i i i s s i d d d d d s s d d d d d d d d * e.- >.* ).~.).Z.b.b.j b d i d d d i i s s u u s i i i i s i d i s s d i i d i i d d d d d i d s u s s i d i d i i i i i d d s s s ",
"d d d d d d d s d d i s u   s s d d i s i d i i i i i s * 3 i i i i i i i i i d d d d i i s s s s s d d d d d d s i i i s i i ; ).= 6 - T.k j Y.b.j i d d s s s d i i s u u s i i s s s i d d i d d d d d d d d i i i i d i s u s i d i i s s s i i i i s d i d ",
"i i s s i d d d d i s s     s i d i d i d i d i d s i i   * d d d i i d d d d u     u s i i d d d d d d d d d i d d d d s i d ; b.).l.- j C.c.; & ; s d d d i d i i i i s u s i i i i i i d d d d d d d s d i i i s i s i d s u s d i d i i i s s i i i i s d i ",
"i i i s i i i d i i s     s i d s i d d i d s d i d i i   d 4 e d d d u u u     u u s i i s s s i d d i d d d d d d d d d d e ).).c.C.J.- M.l.; oX; i d i i d i i s i i s u s i i i i d d d s d d d d i d i i i i i i s i d d u s i d u d d d i i i s s s s d i ",
"s s i i s i i i i s     u s d d i d d i d i d i d s i i   u   * U u         u s s i d d i i i i s s s d d d s d d d d d d i 4 ).N.).N.c.$ c.f `.(.& d i d d d i i i i i i s u i i s s d i d d d s i i i d s i i i i i i i i d u s i d d u d d d s s s i i i d s ",
"i i i i i i i i i s     s d d i d d i d i d i d i i i i       u * ' u u s s s i i d i d d i i i d d d d i i d d d d d d d d d % ).T.).`.= * ).`.).[.M i d d d i i i i i i i i i d d i i d d d s i i i s i i i s i i i i i i i u s i i d u d i d d i i s i i d i ",
"d d d i i i s i i s   u d d i d d d d i d i i d s i i d     u s * o.s s i i i i d d d d s i d d d d d d d d d d d d d d d d d _ g ).% g x.6 f ).g g n d d s d i i s s i i i i d d d d i d d s s i i i i i i i i s s i i i i i u s s i d u u d i d d d d s s d d ",
"i i d d s i i i i s u i i d d i d d d d i i d d i i d d   u s s ( * L i i d d d d d d i d d d d s d d i d d d d d d d d d d d d d $ i.n.$ -  X$ h d i d i s i i s s s s s s s s s s d d i d i i i i i i i i i i i s i i i i i u s s i d u u u d d d d d i s d i ",
"d d i i d s s i i i i s d s i i d d i i d d d s d i d d   s s i i * T O d d d d d d s i d d i d d d d d d d d d i d d d d d d d d [ = x.J.h C.z.- i d i i i s i s s s i i i s s s s s d d d i i i i i i i s i i i i s i i s i u s d i i d d     u d i d d i d d ",
"i d d i i d i s i i i s i d d d i d d d d d d d d i d d   s i i y 5.= A > [ d i i s i i i d d d d d d d d d d i d s i d d d d d d s i % Z.<.$ % _ i i i i i i s s s i i i s i s s s s s d d d d s i i i s i i i i i i s s i i u s d d i i d u   u d d i d d d i ",
"d i d i i i d d d d i d d i d i d d d d d d d d d d d i   i i d B @.$ D ; ! d s i i i s i i d d i i i i d d d d d i d d i d d i i i i - C.@.& - u s i i i s s s s s s i i i i i i s s s s s i i i i i s i i s s s s i i i i i u s i i i i s d u   u d d i d d d ",
"d d i d d d d d d d d i d d i i i d d d d d d d d d i d   d i Z o.<.r.$ ~ . d d i i i i i i i i i i i i i i d d i d i i d i i d d i i w z...3.- u s s i i s s s s i i i i i i i i s s s s i i i i i s s i i i i i i i i i i s u s s d d s s d d u   d d d i d d ",
"d d d d d d i i d d d d i d i d i i i d d d d d i i d d   d d P Z y. .&.X T d i d d d i i i i d d d d d i i i i i i i d d d d d d d d d = M.3.= u s s s s s s i s s s s s i i i s i i i i s i i i i i i i i i i i i i i s s s u d s s s s s d d d u   u d d i d ",
"d d d d d d d d d d d d d d d d d d d d d d d d d d d d   d d d 2 > I @ O.* d d d d d d d d d d d d d d d d d d d d d d d d d d d d d d d 0 J s s s s s s s s s s s s s s s s s s s s i i i i i i d d d d d d d s s s s s s s u d s s s s d d d d d u   u d d d ",
"d d d d d d d d d d d d d d d d d d d d d d d d d d d d   d d d d d 1 * &.4 I d d d d d d d d d d d d d d d d d d d d d d d d d d d d d 0 4 d d u s s s s s s s s s s s s s s s s s s s s s s s s s s s s s s s s s s s s s s u d d d d d d d d d d d u   u d d ",
"                                                                      > 4   > 4                                                       * -                                                                                                                       ",
"d d d d d d d d s s s s s u s s s s s s i i d d d d s s s s s s s s s s s u > 6 s s s s s s d u u u s s s d d d d d d d d d d d d d d > = d d d d d d s s s s u                         u s d d d d d d d d d d d d s s s s s s s s s u s d d i i d d d d d d d ",
"d d d d d d i i i s s s s u s s s s i d i i i i i i i s s s i d i i s s u u 4 ; s i i d s s s u u s s s i d d d d d d d d d d i d d d d T 6 d d d d d i d d s s s u u u     u u u u s s s s i i i i i d i i i i i i i i i i i s s s s u s s i i i i i i d i i d ",
"d i s i d i i i i i i s s u s d i i d i d d s d i i i i i d d i d i d d d @ | j i d i i i s s u s s i i d d d d d d d d d d d d d d d d E @ d d d i d d d d i d s u u u s s s s s s s s i i d d d d d d d s i d d d i i i i d d d s s u s i i i s i i i i i i d ",
"i d d d d d d d i i i i s u s i i i d d d d d d d i i i d i i i d d d d d > O.&.@ d d i i s s u s i d d d d d d d d d d d d d d d d d 4 - d d d d d d d d d d i s s u s s s s i i s i i i d d d d d d d i i d d d d d s d d d d d i s u s i i i i i i s i i i i ",
"i i d i d d d d d i i i i u s i i d d d d d d d d d d d d i i d d d d d d d > %.* * d i i i s d d d d d d d d d d d i d d d d d d d d 8 - d d d d i d d d d d d i s u s i i i s s d i d d d d d d d d i s i i d d d i d d d d d d i s u d d d d d i i i s s s i ",
"i i i d i d d i d i i i i u i i d d d d d d d d d d d i d d d d d d d d d d d > * 3 i d i i s u s i d d i i d d d i d d i d d i i i d d 5 d d d d d i d s d d i d s u s i i d d d d d d d d d s d d d i i s s s i i d d d d d d d d i u d u u u u u u i i i i i ",
"i i i i d d i d d i i i i u i i d d d d d d d d d d d d d d i d d d d d d d d d > 4 d d i i i u s d d d d d i d d d d i d d d d u u d d 6 d d d s d d i d i d d d d u s i d d d d d d d d i i i s d d d d i i i s s d d d i i d d i i u u u u d d d d i i i i i ",
"i i s i d d d d d d i i i u i i d d d d d d d d d i d d d d i s d d d d d d d d > 4 d d d i i u s s d d d d i d d d i d d d d i d   u 4 d d d d d d d d i d d d i d u i i d d d d d d d d d i i i d d d d d i d d d d d d d s s s i i u u d d i i i i s i i i i ",
"i i i i i d i d i d d s i u i d i d d d d d d d d d d d i i i i d d d d d d d @ ! 6 d d d i i u s d i d s d d d d d d d d d d d d d Z = u d d d d d d d i i d d d d u i i d d d d d d d d d s s i i d d d d d d d d d d d i i d i i i u d i i i s i i i i i i i ",
"i i i i i i d s i d d d d u i i d d d d s d d d d d d i i d d d i d d d d d d 4 E d d d i d i u s d d d d i d d d d d d d d d d d d @     u d d d d d d d i d d i i u i d d d d d d s d d i d i s s s i d d d d d d d d d d d d d i i u i i i i s i i i s s i i ",
"i i i i i d i i s d d d d u i d i d i d d 3 d d d d i d d i d d d d d d i d d > T i d d d d i u i d d i d d d d d d s d d d d d d d @ u     u d d d d d d i d d i i u i i d d d d d d d d d d d d i i s d d i d d d d d d d d d i i i u i i i i s i i i i i s i ",
"i i i i i i i i s i i d d u d i d i d i i 3 d d i d d d d d d d d d d d s d d i 7 ~ @ d d d i u d d d d d d d d d d d s d d d d d 8 Y d u u   u d d d d d d d d d d u i d d d d d d d d d d d d d d i d d d d d d d d d d i d d d s d u i i i i s i i i i s i i ",
"d d s i i i i i i i d i d u i i d d s d d * N T d i s s d d d d d i d d s i i d d > W = d i d u i d d d d d d d d d d d s d b i d 4 4 d d d u   u d d d d d d d s s u s s d i d d d d d d d d s d d d i d i i d s s d d d d d d d d s u i i i i i i s s i s i d ",
"d d i d i i i i d d i d i u s i i d d i i * V 3 d d d d d i d i i d i s i d i d i 1 * * d i d u d i d d d d d d d d d d d * m.e e Y @ i d d d u   u d d d d d s s s u s s i i i d d d i d d i i d d d d i s s s s s s s d d d d d i s u d i i i i i i i i i i d ",
"d i d i d d d d d d d i i u s i i i d d C * &.3 i i i i d d d d d s s s s i i i 4 5 i d i d d u d d i d d d d d i i i i - ).j.- ; 5 d d d d i d d u d d d i d s s d u s s i i i i s i s i i i i i d i i s s s s s s s s s s i i i d s u d i d i i i i i i i i d ",
"d d i d d d d d d d i d d u s s i i i 4 N * * d d d i i i i i i i i i i i i d i 3 s s i d d s u s s d s s s s s s s s i * ,.).).).*.n d d d d i d u i d d d s s s d u s s s d d i i i i i i i d d d d s s s u u u u u s s s s s s d s u d d i d d i i i d i d d ",
"d d d d d d d d d d d d d u s s s s @ ! 4 d d d d d d d d d d d d d d d d d d s s s s s d s s u s s s s s s s s s 6 s s s - ).,.v.= s s s s s s s s s s s s s s s d u s s s s s s s s s s s s s s s s u u u           u u s s s s s s u d d d d d d d d d d d d ",
"d d d d d d d d d d d d d u s s 0 W M @ s s s s s s s s s s s s s s s s s s s s s s s s s s s u s s s s s s s s ; T.* 6 3 M ,.h ; s s s s s s s s s s s s s s s s d u s s s s s s s s s s s s s s u u                       u u s s s u d d d d d d d d d d d d ",
"                                M F %.>                                                                       ; ,.,.R.R.x.G -                                                                                                                             6 3   ",
"s s s s s s s s s s s s s s s s s * @ y.> d s s s s s u i i i i s s s s s s s s s s s s s d d d d d s s s s i i % ,.c.,.h.; i u s s s s s s s s d d d d d d s s s s s s d d d s s s s s s s i i i u                             u s s s s s s s s s s s > O.h s ",
"s s i i i d i i i d d d d d d d d d * r.@ d d d i s s u i i i s i i i i s s s s s s d d d i i i d d i d d i i i i % ,.c.* s i u s s s s i d d d d i d d d d d s s s s d d i d i s s s s s s s s i u u u                       u s s i d d s d d d d s 4 $.X 5 s ",
"s i d i d d d i i d d d d d d d d d % Q : d d d d i s u i s s d d d d s i s s s i d d d d d d i i i d d d d d d d d % ; i i i u s s i i d d d d d d d d d d d d d d d d d d d d d i s s s s s s i i i     u                 u u s s d d d d d d d d d h @.* s s ",
"i d d d d d d d d d d d d d d d d d d T : i d d d d s u i s d d d d d d s i s s d d d d d d d d i d d d d d d d d d d 6 s i i u s i i d d d d d d d d d d d d d d d d d d d d d d d i i i i i s s i     i u u             u u u s i d d d d d d d d d d - +.3 i ",
"d d d d d d d d d d d d d d d d d d r @ d i i d d d i u i d d d d d d d d d i d d d d d d d d d d s d d d d d d d d d d i i i u s i d d d d d d d d d d d d d d d d d d d w d d q d d d d d d d s i   i i i u         u u u u s s d d d d d d d d d d d * - - d ",
"i d d d d d d d d d d d d d d d d 4 4 d d s i d d d i u d d d d d d i d d d d d d d d d d i i d d d d d d i i i i d d d i i s u s d d d d d d d i i s d i d d d d i d d d b e 4 b.9 d d d w q d i i   i s i u     u u u s u u s s i d d d d d d d d 1 > ` * d i ",
"i d d d d d d d d d d d d d d d d * 3 d d d i d d d i u s d d d d d s i d d d d d d d d d d d d d d d i i d d d d d d d d i i u s d d d d d d d i d d d d i d i i i i d = b.b.b.b.6 d d 6 b.b.4 i     i s i u u u s s d s s u s i i i d d d d d d = - @.+.* d i ",
"d d d d d d d d d d d d d d d d d @ d d d d d d d d i u s d d d d d d d d d d d d d d d d d d d d d d d d d d d d d d d d d i u d d d d d d d d d d d d d d i i i i d i h ).k.b.b.b d d f b.b.b.r   i i s i u u s s d d d i s u s i i i d d d d d - +.$ - d d d ",
"i d d d d d d d d d d d d d d d d > d d s d i d d d i u s d d d i d d d d d d d d d d d d d d d d d d d d d d d d d d i d d d u d d d d d d d d d d d d d d i i i i i i ; ).).).b.j d d h ).b.b.g i i d i s u s s s i d d d i s i i d d d d d d d - O.> q d d i ",
"d d d d i i d d d d d d d d i d d > d d d d d d d d i u i i d i d d d d d d d d d d d d d d d d d d d d d d d d d d d i d d d u d d d d d d d d d d d d d d d i i i i d d $ v.Y.b.k - d g N.).b.b.- d d i d u s s i s d d d d d d d d d d d d d = R * d d d d d ",
"i d d d d s d d d d d d d d d s d 9 d d d d d d d d i u i s s s i d d d d d d d d d d d d d d d d d d d d d d i i d d d d d d u d d d d d d d d d d d d d d d i i i i ; h ).).T.T.OX8 - ].).).).b.h d i i i u s s d d d s s d d d d d d d d d d $ ! * d d d d i ",
"i i d d d d i d d d d d d d d d d d d d d d d d d d i u i i i i u u d d d d d d d d d d d d d d d d d d d d d d i d d d d d i u d d d d d d d d d d d d d d d i i i e u.; - Z Y.E.e d h ).Y.r B.b.e s i i i u s d d d s i d d d d d d d d d d f.2.5 y d d d i i ",
"i i i d d d d d d d d d d d d d d i d d d d d d d i i u i i i i i     d u u d d d d d d d d d d d d d d d d d d d d d d d d i u d d d d d d d d d d d d d i d d i d d $ 3.4 d e e d d h #Xe d M.Z d i i i i u s d d s i d d d i d d d d d d $ $ &.9 d d d d i i ",
"i d u d d d d d d d d d d d d d d d d d d d d d i i i u i i i i i i         u u s d d d d d d d d d d d d d d d d d d d d d i u d d d d d d d d d d d d d d d d d d i %.+.4 d d d d d 8 0 d d 8 d i i i s i u s d s d d d d d d s d d d d * O.:.4 d d d d d i i ",
"i d d d d d d d d d d d d d d d d d d d d d d d i i i u i i s s i i i             s i d i d d d d d d d d d d d d d d d d d d u s d d s d d d d d d d d i i d d d s ; %.= e d d d d i i d d d d s i i s i i u s i s d d d i d d d d d d d - <.$ d d d d d d d i ",
"i i d d d d d d d d d d d d d d d d d d d d d d i i i u i i i s s s i i i i i i i u s s i i d d d i s d d d d d i d d d d d i u s d d d d d d d d d i d d d d i i i 5 e d d d d s s s i d d d i i i s d i s u s s s d d i i i d d d d d d 4 - &.- d d d d d d i ",
"d i d u d d d d d d d d d d i i i d d d d d d i i i i u s i i i i i s i i i i i i i u u s i i d d s s s s s d d d d d d d d i u i d d d d d d d d d i d d d d d d d 9 s s d d d d i i d d d d d d d d d s s u s s s s i i i i i d d d d i d * - 5 d d d i d d d ",
"d d d d i i i i i i i i i i i d d d d d d d i i i i i u s s i i i i i i i i i i i i i i i i s s s s s s s s s s d d d d d i d u i i d d d d i d d i i d d d s d d d d d d d d d i i d d d d d d d d d s s s u i s s s d d i d d i i i i i d * ! 5 d d d i i d i ",
"i d d d d d d d d d d d d d d d d d d i i i i i i i i u s s s d i i i i i d s s s s i i s s s s s s s s s s s s s s s s s d d u i i i s d d d d i i i i d s s s d d d d d d d i i d s d d d s s s s s s s s u i i i d d d d d d d d s s s s i * * i s d d d i i ",
"i i i i i i i i d d d d d d d d d d i i i i i i i i i u s s s s s s s s s s s s s s s s s s s s s s s s s s s s s s s s s s s u i i i i i s s i i i i i i s s s s s s s s s s s s s s s s s s s s s s s s s u i i i i i i i d i i i d d i i 3 > i i i i i i i i ",
"u u u u u u u u u u u u u u u u u u u u u u u u u u u u u u u u u u u u u u u u u u u u u u u u u u u u u u u u u u u u u u u u u u u u u u u u u u u u u u u u u                                               >                         - 7                   ",
"i i i i i i i i i i i i i i i i d d d i i i i i i i i i i i i i i i i i i u s s s s s d d s s s s s s s s s s s s s s s s s s d d d s s d d s s s s s s s s s s s   i i i i i s s i d d d i i i i s s s s     7 u u s s s s > v > s s s 3 * P s s s s s s s s s ",
"i i i i i i s s s i i i i i i i i i i d d d d d i i i i s s d d d i i i i u s s s s s s s s s s s s s s s s d s s s s d s s s s s s s s d d s s s s s s s s s s s   i s i s i i i i d d d d d d i i i i s s 8 6 s s s i d 4 _.!.W.- 5 @ >   s s s i i i i i s s ",
"s i d d d s d d d d d i i i d d d d d d d d i i i d d i s d d d i i d * i u s d s s s s d d d d d d s s s s s s s s s s s s s 6 s s s s s d d d d d d d d d d d s   i i i d i d i d i i i i d d d i i i d   3 s s i i d > XX).).P.J.> s s   s s s i d d s s i s ",
"i s i d d d d d d d d d d d d d d d d d d d d i i i d d d d d h - d h I.& h d s s d d d d i i i d d d d d d d s s s s s s s s 6 s d d d d d d d d i d d d d d d s   i i d i d i d i i d i d d d d d i s s * s i i i d d 2 5 D.x.B.).m.- 4   s s i d d d d i d s ",
"s d d d d d d d d d d d d d d d d d d d i i i i i d d d d d d 3 q.- b.I.).P.* - d d d d i i i i i d d d d d d d d d s i d d d C d d d d d d d d i d i s s d d d s   i i i i i d i i i i i i i i d s i s   * i i s d d d d 4 a.g.`.v.2.r.3   s i d d d d d d d s ",
"i d d d d d d d d d d d d d d d d d d i i u i i d d d d d d d s - q.q.b.,.,.).).M d i i i i i i i i d d d d d d d d i i i i i d 4 C i d d d d i d d d d i d d d i   i d i d i i i i d i i i i d d s i s - * i i d d d d d 9 ).).M.n.X 2.4   s d d d d d d d d i ",
"d d d d d d d d d d d d d d d d d d i i u u i d d d d d d d i d d q.q.q.g.b.b.x d i d i i i i i i i i d i i d d d d d i i i i i i * i i d d i i d d d d d d d i i   i d d i i i i i i d d d d d d i i = * * i d d d d d 1 z.% - - 4 L * 4   i d d d d d d d d d ",
"i d d d d d d d d d d d d d d d i i i u u i d d d d i d d d i d 5 6 - q.q.b.f i d d i d i i i i i i i i i i i d d d d d i i i i d i q > i i i d i i d d d d d i i   i i d d i i i d i d d d d d d d @ _ :.:.@ d d d d d 1 - d d d b d d d   i d d d d d d d d i ",
"d d d d d d i i i i i i d d d i i i u   i d d d d d i i d i d d d d 5 h h q.b.h 5 d d d d d i i i i i i i i i i i i i d d d i i i i _ @ d i d d d d d d d d d d i   d i i u d d i i i i d d d d d d 3 ) u.3.3 d d d d d d d d d d ; d d d : > d d d d d d d d d ",
"i d d d i i i u u i i i i i i i u     i d d d d d d i d i d d d d d * h i ; q.b.= d d d d i i i i i i i i i i i i i i i i i d d d i + I * d d d d d d d i i d d d u       u u u d d i i i d d d d d 3 w.X &.3 d d d d d d d d d d d 6 @ * M.c.7 d d d d d d d i ",
"d d d d d d i i i u u u i i i u   i i d d d d d d i i i i d d 6 = @ Y h i u 6 h d d d d d d d d d d i i i i i i i i i i i i i i i i d 4 * d d d d d d d s i d d d               u d d d d i i d d d 4 = * - d d d d d d d d d d d d $ 3.P.Z.6 d d d d d d d d d ",
"i d d d d d d d i i i i u       i i d d d d d d d i i i d d d 5 q.b.- R 6 u d i d d d d d d d d i i i i i d i i i i i i i i i d d d 4 b.* > d d d d d d i i d d d   i d d d d d u u u u d d d i d d d =.5 d d d d d d d d d d d d = c.).E.* i i d d d d d d d i ",
"i i d d d d d d d d d i i u       i i d d d d i i i i i d d d * q.b.b.f W.* d i i d d d d d d d d i d d d i i i i i i i i d d 3 : : y.:.i.u.4 d d d d i i i d d d   i d d d d d d d d d u d d d i d 4 * d d i d d d d d d d d d X g.T.!.).- i i i d d d d d d i ",
"i i i d d i d d d d i i i i i i u   u i i i i d d i i i s s s i & q.b.b.b.$ d i i i d d d d d d d d d d d i i i i i d d d d d * ).B 8 ).b.. i d d d s s d d d d d   i d d d d i i i s s s d i i d q d i d i s i d d d d d d d d $ l.& g v.).> d i i d d d d d i ",
"i i d d d d i i i d d d d i i d i i i i d i i i i i i i i d = 3 d - q.q.$ u d d i d d d d d i i d d d d d d d d d i d d d d d d * <.r.* n.* 3 i d d d d d d d d d u i i d i i i s s s s s > 4 d d 4 d d d d d d d d i d d i i d 5 4 s i $ T.4 d d i d i d d d d ",
"i i i i i i i i i i i i i d d d d d d d d d i i i i i d 4 8 b.$ i - % % i u d d d d d d d d d d d d d d d d d d d d d d d d d d > 3.* d * Y 5 d d , d d d d d d d u i i d d d s i i i i s E.E.@ 4 - s s s s s s d s s s s d i i i i i i u $ > i i d d d d d d i ",
"i i i i i i i i i i i i i i i i i i i i i i i i i i i i - q.q.b.4 - - i d u d d d d d d d d d d d d d d d d d d d d d d d d d d d - y.d d * J d > i.# d d d d d d u i i i i i i i u u u i ; T.).E.E.2 i i i i i i i i i i i i i i i i u u   : i i i i i i i i i ",
"                                                          % % q.b.-                                                                       : K @ u.M %.O                               > 9 - ).).P.I.*                                       3 <                 ",
"s s s s s s s s s s s s s s s s u             u u s s s s s * q.* d d d d d d d d d i i i i i i s s s s s u u                       s s s s * ` t.T <.$ d d d d d d s s s s s u u u u @ @ u f ).P.% s u i i i i i i s s s s s s s s s s s s s @ s s s s s s s s ",
"s s s s s s i i s d d i i i i i s s         u s s i i i d 9 d g @ d d d d d d d d d d d d d d d i i i s s s u                   u u u s s > #.X X a.:.S.= i i i i i i i s s s s s s s s s s - ).$ s s u i i i i d d d i i i s d s s s s s s O O s d s s s d s s ",
"s d d d d d d d d d d d d d d i i s s u   u s i d i i d d % i b X d d d d d d d d d d d d d d d d d i i s s s u               u s u u u s + w.- : i.w.t.= d d d i i i i i i i i i s s s i i 7 XX0 d s u i i s d d d d d i i d d d i i d d 9.X o i i i i d d d s ",
"d d d d d d d d d d d d d d d d i i s u u s i d d d d d & q.$ $ ).$ % d d d d d i i i d d d d d d d d i i i s u u           u s i s u u u $.> 9 d 2 = y.$ d d d d d d d d d d d d d d d d d d t i d s u i i d d d d d d d d d d d d d d d & 3.%X- d d d d d d d ",
"i d d d d d d d d d d d d d d d d i s u u s i d d d d ; q.b.).).).T.Y.- d i i i i i d d d d d d d d d d i i s s u         u s i i d s s 0 u s d d d w y.- d d d d d d d d d d d d d d d d d d d d i d u i d d d d i i d d d d d d d d d X c.z.y.5 d d d d d d i ",
"i d d d d d d d d d d d d d d d i i i u u s i d d d % q.q.b.b.).^.c.q q i i i i i d d d d d d d d d d d d i s s u u   u u u u s d d * * q.s * s d d d > d d d d d d d d d d d d d d d d d d d d d i d u s i d d d d d d d d d d d d d * w.y.e 7 @ d d d d d i i ",
"s s d d d d d d d d d d d i d d d i i u u s d d d d 4 q.q.b.b.b.).% i i i i i i i d d d d d d d d d d d d d i s u u d d s s u d d > u.p.= = * 4.d # 6 d d d d d d d d d d d d d d d d d d d d d d d i u s s i d d d d d d d d d d d d e e w i i X $ ; d d d i s ",
"i i i d d d d d d d d d d d d d d d i u s d d d d d d 6 q.q.b.b.b.% d i i i i i d d d d d d d d d d d d d d d s u d d d d i s d d d 3 b.~ q.e.@ @ $.:.* d d i d d d d d d d d d d d d d d d d d d d i u s d i s s d d d d d d d d d d d d d d * E ^.Y.4 d d i i ",
"i i i i d d d d d d d d d d d d d d i u s s d d d d d d - q.b.b.b.- d d d d d d d d d d d d d d d d d d d d s s u s d d d d i s d d > i.Y.@ b.; n.@.<.* d d d s s i i i d d d d d d d d d d d d d d d u s d d i i i d d d d d d d d d d d d d # Q (.U.7 d d i i ",
"i i i i d d d i d d d d d d d d d d i u s d d d d d d d C q.q.b.4 d s s s d d d s d d d d d d d d d d d d d i i u s s d d d d s s d d 1 F.4 n e.3.w.6 K 4 d d d s s i i i i d d d d d d d d d d d d d u s d d d i i i d d d i d d d d d d d d d 4 oX8 d d d i i ",
"i s d d d d d d d d d d d d d d d d d u i i d d d d d d i * q.- s u         u u u s d d d d d d d d d d d d i i u s i i d d d d i s d d : i 6 w.<.* d d d d d d d d s i i d d d d d d d d d d i d d d u s i d d d i d d d s s i i d d d i d d d s : d d d d d i ",
"d d d d d d d d d d d d d d d d d d i u i d d d d d d d d 3 } -             s s s i i d d d d d d d d d d d i i u s s i d d d d d d d d @ d 4 @ r.* d d d d d d d d d d d d d d d d d d d d i i d d d u s i i d d d d d i i i i d d d i d d d d d > 7 d d d d d ",
"d d d d d d d d d d d d d d d d d i i u i i d d d d d d d s - Y * s s d d d d d i i i i d d d d d d d d d i i i u s d d d d d d d d d d : 3 d > * d d d d d d d d d d d d d d d d d d d d d d d d d d u s s i i d d d i d d d d d d d d d d d d d d d d d d d d ",
"d d i i i i d d d d d d d d d d d i i u d i i i d d d d d d d 4 H 5 d d d d d d d i d d d d d d d d d d d i i i u d d d d d d d d d d d C @ d d > d d d d i d d d d d d d d d d d d d d d d d d d d i u i d s i i d d d d d d d d d d d d d d d d d d i i d d d ",
"d i i i i i i d d d d d d d d d i i i u d d i i i d d d d d d d - v d d d d d d d d d d d d d d d d d d d i i i u i d d d d d d d d d d d @ d d d d d d i i i d i i i i i i i d d i i i i d d d d s i u i d d s i i d d d d d d i i i d d d d i i i i i s d d d ",
"d d d d d d i d i i d d i i i i i i i u d d d d d d d i i d d d d - d d d d d d d d d d d d i i d i i i i i i i u i d d d i i i d d d d i A * d d d i i d d d d d d d d d d d d i i i i i i s i i i i u i i d d s i i d i i i i i s s s d s s s s s s s d i i i ",
"u d d d d d d d d d d i i i i i i i i u d d d d d d d d d d d d 5 - d d d d d d d i i i i i i i i i i i i i i i u i i i i i i i i i i i d A - d d d d d d d u u d d d d d d d d d d d i i i i i i i i u i d i i d d s s s s s s i i i d i i i i d i i i i i u u ",
"u u u u u d d d d d i i i i i i i i i u d d d d d d d d d d d d 3 d i i i i i i i i i i i i i i i i i i i i i i u i i i i i i i i i i i i : 3 d d d d d u u u u u u u i i i i i i i i i i i i i i i i u i i i i i i i i i i i i i i i i i i i i i i u u u u u u ",
"                                                                                                                                      U A X                                                                                                                     "
};
