/* XPM */
static char *_da073ea5398453fe254b0b4b11641534dIiwDdTZ1SZexff[] = {
/* columns rows colors chars-per-pixel */
"128 128 12 1 ",
"  c #1D1D1D",
". c #232222",
"X c gray18",
"o c gray21",
"O c #373737",
"+ c #393939",
"@ c #3A3A3A",
"# c #3E3E3E",
"$ c #4E0808",
"% c #530808",
"& c #5B0808",
"* c #700B0B",
/* pixels */
"oooooo oooooooooooooooooooooooo.oooooooooo+oooooooooo+++++++++++++ ooooooo++++++++++++++++++++++++++.ooooooooooooooooooooooooooo",
"o+XXoo oo+++++++oo+++++++++Xooo.oo+++XXXo+++++++oo++++++++++++++++ ooo+++++++X++++++++++++++++++++++.oo+++++++++oo++++++++X++++o",
"ooXXXo  o+XXXXoX+++++++++X++Xoo.o+o++oXXXoX+++++X+X++++X++++XX++X+ o++oXXXXoo++o+XXooXXXXoXoXX++++++.o++oXXX++oo+++X+++ooo++XX+o",
"XXoXX+  +X+XXoooXo++++++oo+++Xo.o+Xo+XoXoX+Xo+oX++oooXXXX++XXXX+++ o++XXoooXXX++XooooXXXXXXooXXXoo++.oXXXXoooo+XX+XoX+o+XXXoo+XX",
"oX+XXX  X+o+++XoXoX+X+XXXXX+o+X.oX+o++XoXXX+o+XoX+XXX...XX++XoXXX+ ++XXXXXX+ooX+XoX+XoXXXXXX+++XXXo+.oXooXXXX+o++ooo+X+++++XXoXo",
"Xo+XXo  ++++++XoXooo+++++XoX+o+.oo+X+X+XXXoXXX+++XXX..  ...+XoXXX+ +XXX+oXXX+oo++XXX+XoooXX++o+oXXX+.oXXXooXXX+XXoXX+X+X+oX+XX+X",
"o+oXXo  +++++ooXXXXXXooo++XX+oX.ooX+XXX+oooooXXXXXXXoX..        .+ +Xo+XoX+XX+XX+XXoX+XXXX++XXXXoXX+.oXXoXXooXX++XXXo+++o+X+++Xo",
"+XoXo+  ++o++XXXXoX++ooo++o++oo.o+++oo++++XXXoXXo+oXXoooooXX+X.. . +X+XXX++XXXoXXoXXX+ooX++XooXXX+++.oXXXoXXXXoX++XXX++X+++XXXX+",
"o+++++  ++++X+XXoX+++XXXX+o+XX+.ooo+o+Xo+X++XXXoXXooooX+X++XXoXX.  XXXooo+X+oXXXoooX+XXXXXXXXXXo++++.o+XXXooXXoXX++XXX+++ooXoXoo",
"X+++++  +++++ooXo+++++++XXXo+++.++++X+o+oooo++XoX++++X++++XXXXX+++ ++XXX++++++++XXXX++++X+XooX++X+++.+X+XooXXXXXXX++++XXX+X++XoX",
"++++++ ++X++++X+++++++++XXoXo+o.+X+++++++++++++o++++X+++++Xo+X+X+o #++++X+++++++XX++++##+X++++X+++++.#+X++XXXXXX+++++++XX+++++++",
"+++++o o+++++#+++++#####++++oo+.+oooooooo####+++++oooooooooooooooo ##+++++++###++++######++++++++++#.##++++++++++++####+++++++++",
"#ooooo oooooooooooooooooooooooo.ooooooooooooooooooooooooooooooooo# #################################.###########################",
"                                    &        &                                                                                  ",
"    .ooooo.oooooooooooooooooooooooooo++&++&+++++++o+  ooooooooooooooooooooooooooooooooooo.....ooooooooooooooooooooooooooooo.    ",
"   .+++++o.ooX+++++++++oooooooooo+&&++XX+++++++++ooo  oooo++++++++XXXXooooooooooooooXXX+oo...ooo+++++++oX+++++Xooooo++++++++..  ",
"  .+ooX++o.oo+XXXXXoXXX+ooo++++++XXXooooX&&X&+++X+oo  ooo++++++XoX+XXoXooooooooooooXX++X+o..ooo++++++++++oooX++Xo+XXXXXXXXooo+..",
"++.XXXXo++.o++XoooXXXXoo+++++XXXXX&XXX&XXoooX+&+&+oo  ooX+++++++XXX+++&XooooooooX++o+XX+Xo.oo+++Xo++++XXX++++X+XXXXXXXXoooXXXX++",
"XX..oXXoX+.+XXXXXXoXXXXX++oXXXXXoooXXXX&&&Xo&++++Xo& &oo+++&+++XXoXXo++XXoXooX. ..X+Xoo+Xo.ooX+Xo+++XXXXXooXXXX+XXXXoXXXXXoXXoXX",
"XXX..XooXX.XXoXoXXXXXXXXXXXXXXXX&&oXX&XoXX&&XX++&oo.  oX++*+++XooXXX+XX++++.   .X++X+X+XXo.o+X+XXXXXXoXooXXXXXXXXXXXXoXXooXXXoXX",
"Xoo+.+ooXX.XXXXXXXXXooXXXXXXXXXXXX&oXXXXoXXXo&*Xooo & o+++++++X&XXo+XXXXoX. &X+++oo+++o+Xo.oo+XXoXXXoXXXXXXXXXXoXXXXXoXXXXXXXoXX",
"XX++.XXXXX.XXXXXXXXoX+XXXXXoooXXXXXX&ooXXXXXo&&*&oo   o+&+&++ooX&++X+XX+.  .++X++X++XX+XoX.oX++oXXoXXXXXXXoXXXoXXXoXXoXXXXXXXoXX",
"oo++XXXoX+.XoXXXXXXXX++ooXXXXXXXX&&XX&Xo&X&o&XX*&oo & &+X&+XXXXX++++++.  ..++++XX+++++++oX.o+XoXXoXXXXXXXoXXX++XXXXoXXXXXXXXXXXo",
"X+oXXXXXX+.XXXooooX+o++XXXXXXXXXXXX&XX&oXX*o*X&XX&o.& &&X&+XXX&+X&+++++X+++XXXXXXXXXXX+oXX.o+oXXXXXXXXXXXXXXoXX++XXXXXXXoooXXXXX",
"++XXXXoX++.XXoXXX++X+++XXXXXXXoXXX&&&&Xo%&X+*&oX*Xo.&&Xo%+&+X*&++&o+++++X&XXoXXXXXXoo+X++X.oX+XooXXXXXXoXXXXXoXXX++++XXXXXXXXoo+",
"XooXXXXX++.+XXoXXXX&X++XXXoXX&Xo&&X&oX&X&&*+XX&&oX&&*&&*X*++++XX++XX++&+ooXXXoXXXXoX+X+X++.oXX+XXXXoXXXXooXXXo+++++++++XoXoXXXXX",
"XXXXooX+++.++XXooo+X+++++XXXXXXXX&XoXX&&&+&&+o&o&oo* &*+$*&X+++*X+&+XX+XXX++XXXXXXX+oo+++X.++XX++++++XXXXXX++++++++X++++ooXXXoXX",
"XoXXXo++++.++XXXX++++++++++++X&XXXo&&X&&&&&&$+%&X&o&&%oX++*&+X+++&++&++X&+XX+XXoXX+XX+++X+.+X+X++++XXoXX++++X++++X+++o+++++++X+X",
"++++++++X+.#++XXXo+++X+X&++X+XXoX&o*X&&&&&$+%o&XX&oo&**&X*+X*++++X+++&++&&X+XoXX+XX++++X++.++X++X+XXXXo+Xoo++++++X++++++++++++++",
"+++++++X+#.##++++++++++++##+X++XoXXX&&&&&&+&ooooo*&o  #o&X&X&XXXX++&++&++&&X+&++X+++++++++.#++X++XXXX++XX+X+++XXX+XX++++X+++X+++",
"+####+++##.###+++++++#######+&+&+++&+&&&&*&oo$#&&&#* $#&oo$oooo+&+++&&&#&#+++++++++++++++#.##++++++++++++++####+++++####+++++##+",
"##########.#######################&#&##$*&&&&&#*#*&**$##&&#&#*#&#&&&###&#########&#####&##.#####################################",
"                         &    &&  & %  $%$*&  &* & *$ &&%   & *&*&&& &           &                                              ",
"ooooooooooooooo  ooooooooo&o oooooooo&o&o$&*&*%&&&&o&*$oo*%*o$&$ooo&oooo&o&oooooooo....oooX+Xooooooo++X++oooooo.oooo++++++++oooo",
"o++ooooo+X+++o. ooXXXXXXoooo oo&X&&*&*&&&X*X%%*X***%X$*+*&&&&X&XX&X&oo&&&ooX+XX&oooo..ooXXXo+ooooooXX++++++X+oo.ooXX+o+XX++++Xoo",
"o++++++++++Xo. o+XXXoXoooooo o&Xoo&X**&oX*&X**&**$&**o%***$$%&&+++&X&&X&&o*+X&++X&oo..oXXXXoX+Xoo+XX+XX+++++X+o.ooX+X+XXXXX++ooo",
"+++++++o++Xo. oo++XoX+XXX&&o oXXXXX**XX&&$*********$&&%$&$&&&%&&*&*XXXX&&oX+&ooo+XXo.*oXXoooX++X++++++++XXXX+Xo.oX+XXoooXXXXo+X+",
"XXooX++++Xoo  &X+X+X+X+X+oXX +&+&XX+*&*. *.&*%*&$*$+&&+$&%&*%%&&&&&+&XXX&&o&&*X+XXXXo.oXXXXXX+++++++o+XXXoXoX+o.o+X#XXXooXXXXo+X",
"XXXoXXX+XXo  oX+oX++X+o+X+XX +&.+++&.&***&***o*&X+*$&&$*$&%%&&&&&&+&&XoX.o&&XX+XXoXXo.oXXXX+++o++++X+XXXXXXoX++.oX#.#++XXXoooo+X",
"ooXXoXXXXo  .o++X++X+X&X+oXX .   . $& &&&X+*&*$*$$$*&$o&&&&&&X&%&+&*oo&%&o+X&++XXXXXXo.XXoo+X&++oXXX+oXXXXXXXX+.oX##.#++oooXXX+o",
"XXXXXXXXXo  o++X+&X+X+X+XXXX   .oo..o&o$X+%+%%$$$$$&$X*$&+%&*++&&&&X+*$X.X&&&++XXXXXXXXX++XX+++oXXXoXXXoXXXXXXX.oXX#.#X++XXoXX+X",
"+++XXXoXXo .++X++++X+XX+oXX+  .ooXoo$$$$&+%$&$%*$$*$$*&$&$%*$%&&&+*+&XX&&+X++o+XXo&XXXX++++X++ooXXXXXXXXooXXXXX.ooX#..#X+++ooo++",
"XX++oXXXXo.XX++X++++XX++XX++ .oooXXX&+*++*+X*&**$*$$&*%++&$+&+&$++X+*XoX&&&+X&&X&&ooo*oooo++X+XXXXXXXXXXXoXXXXX.ooX#...##+++Xo+X",
"++XX+ooXXXXo+oXX++XX+++o+X&+ ooXX+++++**&&o**$*****$$&&$&&*&&+&+%&*&$XXX.&&X&*oXooo&XXooooo+++XXXXXXXoXXXXoXXoX.ooXX##  .#X++X++",
"X++XX+XoXXXoX+++X+++&++++X++ oXX+++++++&X&X*&&%$$$**%&&*$&&$$$+&+%XoX&X&&*X&XXX&ooXXXoXooooo++++oXXXoXXXXXXooXX.oooXX#. .##X+++X",
"+X+XXX++++X++X+X++&++&+++&+X XX++&+++++o%&**XX&*$&***%$$&X*$*++*XX%XXXXX&&&&X&&&ooo&XXXXXoooooXXXXXoXXooooXXXXX.oXXXXo#. .##X+++",
"++X++++++++X++XXX++++&++&+X& &XXX++&++++X*XX**X&X**&&&$%&%%$&XX*+X$XXX&*.o*X&&&ooXXXXXXXXo&ooXXXXXooXXXXXXXXXXo.oooooo##. ###X++",
"++++++XX++++X+X+XXX+++++XX+# #+XXX&++++*+*+&*$&&+&****&%%%*%&&+%&+&++%&+&%oo&oo&&ooooXXXoXXXXoXXXXXXXXXXXXXXooo.#ooooo###. .##X+",
"+####+++#########++&+&&&++## #&+++++++*+&##&&&*&%&$&$*$*+%+#&#%%&*%#++*ooo&oo&ooo&oooooooooXXXXXX#######ooooooo.#oooo#####. .##+",
"#################&######&##& &######%$&%###*$#&&$*&*%*%&##*&%#%$$#*%&##*.ooooooooooooo&ooo&oooooooooooooooooooo.###########. .##",
"               &  &                   * *& *%***%&*%&*&&$*&%$&       &$%          &&         &                                  ",
"++++++++ooooo.ooooooXX++&+oo&oooooooo...oo&&%&&&&.*%*&++&%$*%$&&+%**++*&+*+o&&o.  &     &   .o++++++++++++ooooooooo.oooXX+++++++",
"++++++XXXoooo.ooooX+XXXXXXXo*oX&&Xoo...*oXX+$o***oo&%+$+$&*$$*+X&$$+++*++++&+&ooo&&.  .&..&oooXXXXX+XXXXXXXXXXXoooo.ooXXXXXX+XX+",
"+XoX+XXXXXXoo.o&XX+X++o+XXX&X++X+X+++&+XX+X*&$&&&o&&$%*$&&$&$%++++$*+++&+%+++&&+o...oooo&oooXX+++++++oX+++XXXX+++oo.oXXXoXXXXXX+",
"X+++++++XXXXo.oXXX&++&+++XXX+XXX++++++&+++oXX&&&o*$*+&%*$+&$&+*+&+$X+*++*+++*+&Xoo.&oooXXoXXX+++++++XX+++++o+++++Xo.oXXXXXXoXXXX",
"XX+X+++++XXXX.oXX++++++++++++X&+++&++++++*+X%*o+*&%*+&*%$&%*%&$&++****$*&X&+&&++X&.oXXXoo+&++++++++XoXX+++X++++++Xo.+++++XXXoooX",
"XXX+X++X+XXXX.&X++++++&++++X+%&++&++&+++++X*X&o.oX$+X**&%X$&X&+XX&&+++$*+%&+o++X+o.oXX+&++++&++o+++XXoooXX++++++++X.+......XXXXX",
"XXXX++X++XXXX.X&&+++++&&&&+&++X&+++*++++*+*+*X&.&%&%+$&%*%%&%&%&*&+*++++o++%&X++++.&X++++++++&XXo++++XXXoo+++XX++XX....++++XXXXX",
"XXoX++++++X&X.XX++++&&&&+X&*++&o+&++*+++++++&%%*$%%$%%*&&&*&%++$%%%+&&*$+&&+X+&&X+.XX+++++++++XXX+++++&+++++++ooo&X..++XXXXoXXXX",
"XXXXX+X+X++oX&&+X&++++&+&&&&X&X&+&+&++*++++%+*%.&+$&%*%+*%$&*%*%&+%*.%&*+&&&*X++++.&&+++++++++ooX&+++++++++++XX+XXX.+XXXoXXXXXXX",
"XXXXXX+o&++++.XX++++o&+&&+&XX*&+X+++&&+++*&%X&&&%&+&%&%&$%%&%&&*+++*&%+%*+$++X&+X&&&+++&&+o++X+XoooX+++++++++++++XX.XXXXoXXXooXX",
"XXXXX+XX&++++&X+X+X+++%&++&+&&*&&&&+X&*+&&&&&%&.X&*%&%+&%+&$$&+*+&*&%*.%&+++&X+&&&.XX&+++++++++++XXo++X+++++++++XXX&XXXXoXXXXXoX",
"XXXXXXXX&&X++.&X+X+&X+&*X++&&*+%&++&*&&&&%X&&%&%%%&&%%&&&&%*&*&*+&++.% &++&&&*&+&&.X+++++&++++++++X++++++++++X+++o+.XXXXoXXXXoXX",
"++oXXXXXXX+X+.XX++o&++&&+X**&&+*+&+&o&&+%$*%$&%&%*$*$%&&**%&%$%&&%&%&&% .%&%&+++oo&oo+X++++++++o+++X+XX+++++++++++o.XXXXXXooXoX+",
"++X+XXXX++X+X&*XX++*&++&++*&&X+X&&&&&&&%&*&***+&&&%*&&+%&&$+&%+%$*X&&&&&$.+%*%+oo&.ooXXX+++X&+XX++&+Xooooooo+++++Xo.+XXXXXXXXXX+",
"+X+X+++++++XX.oXXX++&+++&XXX++&&&o&%&&%%%&&%%%&*%%&%+%*&&**$&$%*&%$&&&%+%.+++X+oo+.o&XXXXoXoXXXXX+XXooooooooooXXX+o.+X&XXXXXXXX+",
"++X+++++++X+&.ooXXXX+&&&++X*&&&X&&&&&%&%&o&$&&&&%%&*%*&%%*&$XX**&#%&#&+&+.X%++%%&%.ooo++XXXXXXX++++ooo...&.oooooo+o.++X++XXX+X++",
"#++#####+++##.oooooo+++++&&++*+&%&**&%&&**&%%&%*$$$%$$$$*%&o*%$*&o*%%%o%oooooo%%o+.ooooo%ooo&oooooo...     &.oooooo.#+++++++++##",
"#############.o&o&ooooooo*&&o&o%o&&&&&&%%$%$*$%&&%$*&%*$$$$*%*&&$$o%o%%%o*%%o%ooo#.ooooooooooo&oo.. &         ..ooo.############",
"            &        &  &&* *& &%%&%&$&%%%%$%&$**%%%$*%*%*%&%&%%&%% & %% &%   %  &                 &                            ",
"ooooooooooooooooooo++&ooooo&&%&%%&&*%&%&*%%*$%$$%%$$%%%%%%%%%%%%o&%%*%o%+%+%%+o&%ooo+++oooooo&X&X. &  &&  & &   .ooooooo&ooooooo",
"ooXXX+XXX++++++&++**+++&Xo*&X*&&&%%&%%*%%&%%*%$$%$$%%%%%*%%$*o&%%&&$%*+++X%+++%ooo&++X+Xooooo&ooX...      &    .ooX++o++++o+Xooo",
"oX+X+++XX++++++&+++++&++&*o%&&%&&&**%%%o*%$$%%$%%%$*%*%%%%%&**X%*&%%$++%+%++++%&&++++++++XooooooXXX  .        ..oo+++++++++++Xoo",
"X+++++++++&+++++++++&&&&++&.X&%&*%+&%%%%*%%*&%*%*%%*%%*$%**%%%%%%%X%%+%%++++++++++*+%+&+++XXXXXo&X &X..    & ...oX++++++++++++XX",
"++++++++++++++++&++++XX*&&X.&&&&&&%&*&$$%%%%%%%%%%%*$%*%*%%%%&X%%%%+*%%%%%+%%+&%++++++++++++++++oX XXX.    ....oo+++++++++++++++",
"X+++++++++++++++++++&&X&&+*.&+*%$&&&%%$%%%%%$%&$%%%%%%%$%*%%%%$%%%+%%%%+%%o+X+%%%X++++++++++++++XX XoX. &...o..ooX+++++++++++++X",
"X+++++++++++++++&+*++&&&+&&&*&&&&**%&%%$%*%%%%$*$%%%$%&%%%%%%%$&%%&%+%$%%%+%%&%*XXX+&+++++&+++++X  XoX&..oo+oo.oXXX+++++&++++++X",
"+++++++++++++++++++&&+&&&&&&*%&+&%&&%%*%%%*%$%%%*$%%%%%%$%%*%%X&$%%%%%%%%%&+%*&XX&+&+X++&+++++++X XXoX..oo+++Xo.oXXX&+++++++++++",
"X+++++++++&+++++*+++o+&&++%&&+&&%%$$*%**%%%%%$%%%$$%%*%%&%%$%%%&+%&**%%%*%%%%%XXXXX*++&++&++++++XXX+Xo.oooX++&XoXX+++++++++++++X",
"++++XX++++*+++X*&++++&++**X.%%%&*%&&%%%*%$%$$%%*%%*%%%$%%$%%%$%%*%%*+*%%+%%*%%%XX%%*&&++XX+++++++X&&X+.ooXo+++++++++++++++++++++",
"X++++o+++&+&+++&++&&+++++&*&&&%&&&%&&%$$*$*$$$$$%*%%%*$%*%%$$%&%%+**&%+%%%%%%&+&X&&+++%%+%X+++++&++XXX.oo+++oo+++++++++++++++++X",
"XX++++X+++++++++&++&&+&++&X&*&&*&%&&%*$*%$$$*%%%%%%%$%%%%$$%$%%%%%*%+&%%&+++%+%X%X+%&&+&*&++++o+&+oXXX.o&++oX+++++++++++++++++XX",
"XXX+++++&&++*++*+X+&&+&&+X&&&&&%&*%%&*$&%$%%$$$$$$%$$*%%$%%%$$%$$%%%%++%%&++%%++X&&++++%+++++X++++&XXX.o++oX+++X++++++++++++++XX",
"X+.++++++++&+++&+&++&&&&&X&&**%%&&*%**&&%%$%%*%$%***$$%%*%%%*%%%*+$%+%*%+%+%%%%+++X*%++%+++&X+%++&XXo&.o+o++++++++++++++++++++XX",
"X+++++++++++++&+++&+++++&X&.&X&&X&&$%%*%%$%%%*&%%%*$$$%%%%&%%$$%%&%*%&%+++%%XX+%+%ooX&%*++XX&+%&oXXoXX.oXo+++X++&++&+++++++++++X",
"XX+++++++*+++++*+++++++&X&X&X%&&&$%%%*%%%*$%&%%%%%$$$%*%%%%%*%%*$+&+%%*%+&X*%%%X&XXX*++&%ooX+&&X&Xo+Xo.ooo&+XXX++++++++++++++++X",
"+X+.+++&++&+&+XXX&+&&&&X&X&.&X*&&%%%%%%%*%$*$$*%%%$%%%%&%&%*&*%*%%%%%$&*+%X+%%%%%+Xoo++%+XX++*++++++&o.ooooXXXXX++++X+++++++X+++",
"++++XXXXXXXXX&&++##+&+X&*XX&&o&XX%$&&&$%**%$%***%$$%*%%%%%%$+%&*&%*&%%*+%X%%+%o%%%*+++++XX+++++++++ooo.Xooo++X++XXXXX+oXX+++XX+X",
"X+++++++++&+++#&&##&&&X&XXX.&&&&X%$&%%%$%%*&o*&%%%%$&%&%$%%%%%%$*%*&&%##XX%X+o%o%+%&%++XX+o+++oooooooo.XXX++#+##++ooooXXXXo+++XX",
"XXXXXXXX###&###*&&XX&X&&&&&*&&*o%&o*o%*$%o&&&&%%%*%$%&%%$%%%%&%*%%*&&%&X%X*X%%o%o%ooo%o&ooo&o&&ooooooo.XXXXXXX#XXX##XXXXXXXXXXXX",
".........&.&..&..*..&&&.&&.&&&&.&%.*%&%%%&&&&&**%%%$%%&%%$&%%%%$*&.&*&*...%%.*..*&  %  &   & &   &&                             ",
"XXXXXXXXXXXXX&XX+*+&&&&XXX&X&&&&&%&%&%&&&&&&&o&%$*%*%$*%%%*%%o%%&&%o*&**oooo**ooo X&X*&&oX&&&XX&&&&&o   ..ooooooooooo oooooooooo",
"XXXXXX&oo&XX&X&XXXX&+++&*&X&&&&&&&&&&%%%%&&&&%&%%%*%%$$$%%&%&*$%o&&&%*&&*%%&%oooo Xo&&%XXX&+++++XXX&oo .o&oX++XX&Xooo oooXXXXXoo",
"oX+++o++&++XXX&++++*&*X&&++Xo&&+X&&X&.&+o&o&&&%%%$%$&$$$%%%&&&o&%%%&&&+*%&++++++%&XXX+X+X+%&X%+&+XXX+ .ooXX++++oXXXoo oooX++ooXo",
"XoX++++++++++++&++&+&&&XXX+&&++&X&+&X.+oo&&&&%%&&%%%&&%**%&&&oooo%+%&%%+&%%+++++o%XX+&+X+&X+&&&&&&X&& oXXX+++++++XXXo ooX++++X+o",
"o++++++++++&+++++&++&XXXX&+&*+&+&*&*X++o+&&&&%&X%+%$%%%%%&&&%+%**++&+&+%X+X%o+++% XX&%X+X&&&&&&&+o*o&oXXo++++++++++Xo oX+++++++o",
"X++++++++++++++&+++&X.&X+++++++&&&&XX.oX+&&&&$&&$%%%%%&%%&&&XXX%*&X++%&&%&%+X+%+X %+%&X%XX+X*&&&+oX& oX&++++++++++++X o++++++++X",
"++++++++++*+++++++XX&&X++&+&&+X+&+&X&&&++&&&&%%&$&%&**$&&%&&XXX%%&X*&*XX+%+%+++%X X++X&X*XX*&+&++&Xo *X+&++++&+++++++ X+++++++++",
"X++++++++*++&&++X&X.&X&&&+X+&+X++&+X&&XX*&&&&X%$%XXX*&%&&&&+X*X%+&%X&XX+%%%+%+&XX X%%+X%X*X&&*+&+*X&oX++&++&+&+++++++ X++++++++X",
"++++++XXXXXX+++XXX. X+++++XX+&+&++++X.&X+&&&&+X&&&&&&&X&&&&%++XX%%%&+X++++%&++&+X%&%X.+&X&XX&++++++&o++++++&&&+++++++ X+++++++++",
"X+++XXX..XX&XXXX*  X+++++&X+X+++++++X.&&&&&+&&&&X&&&*&&&&&&XXX+++%%&+*+%++++X%++%.*  ...++X&*+++&&&++++&&&+&++++++++X X++++++++X",
"++++++XXX...XXX. XX+++&++XXXX+++++++X.+X&&&&&+&+&*X&$&X%&&&XXXXXXX+&X**+&++%o%+++ %&%&  .+&++XX&&+&+++&&+++++++++++++ X+++++++++",
"X+++++++XXXX.   XX+&++&++XX&+&+++&&XX&+X+&+&&+++X&&X&&&X&&&X*XX%+%%**++++++%XX+%& X++&&+..&.++&X&+&++++++++&&&+++&++o XX+++++++X",
"XX+++++++++XX.   XX++++XXXXX+&+++&o&X.+&X&&&+++&&&&&%&X&&X&XX++&+&+X&++++&+XXX+*+ X++&&++++&&+++X+++++X+++&++++++++o. XXX++++++X",
"XXX++X++++XXXXXX. .XX&X++XX&&ooXoXXX&.+XX&+&&++&+&+&+X&X&&&++++++X%+&&X+++oo&+++# X++&+XX&ooo+XX+++X+&oX++++++++X+o&X X+XX+++++X",
"XX+##+XXX++++XX+XXXX+XXXXXXXX++++++X&&+&&&+&+&XX+&+&++++&&++++++++++++X%&++++++##.XX+XXXooooo+++++++++&+++X++&X+XooX. X#+X+X++++",
"XXXXXXXXXXXXX++++++###XXXXX##X##XX&X&.#+&&#&##+++&&+++++&&++&%++++&+%&#+%%++++###.XX++*oXXXXooo*oooooooo+oooo+XXXXXX. XXX+#+#++X",
"XXXXXXXXXXXXXXXXXXXXXXXXXXXXXXXXXXX&#.&#&&&######&&&####&######&+++###&###%+#####*XXXXXXX...XXXXXXXXXXXXXXXXXXXXXXX.. &XXXXXXXXX",
"                                        &&&     &  &    &&           &      %                         &                         ",
"oooooooooooooooo.      ..oooooo&++++++++&&XXXX&Xooooo..  &    &   oooo++&++++++++&o&ooo.......ooooo.XXX&XXoooooooooooooooooooooo",
"ooooooXXo++XXXXXoo    &ooXXX+++++++&++++&+++++&+XXXooo.& &      .&.o%XXXX+&+X%XXXXXXo&oooooooo++ooo.XXXX+++XXXo+ooooooooo+ooo+oo",
"o++++++++++++++XXoo. .oX+XX+&XX+++++&&+&&+&+++++&+XX&oo.       .%...oXXX+&+&++++XX%XXX&XXooo*&+X++&.XXo+++++XX+++XX++XXXXXXX+++o",
"++++++++++++++++XXo..oX+++++++XX+++++++&&XX+++++&++XXXo..     .oXo.&&..++++++&++++++&+++++++&+++X+o.XX++++++++++++++++++++++++++",
"X++++++++++++++++Xo..oX++++++++XXXXX+XX&&X++++&+++++XXoo.   &.oXX+ooo.o&+++&%++++++++++++++++++++X+.X++++&X+++&++++++++++++++++X",
"X+++++++++++++++XXX..oX+++++++++XXXX&XX&X+&+++&++++++Xoo.& ....o+++XXo.o&++++++++++++++++++++++++X+.oX++++++++++++++++++++++++XX",
"oo+++++++++++X+++XX..o+++++XX++++XXXXX&&X++&&+++++&+++Xo.&++oo.+++++&o&o++++++++++++++++++++++++++X.ooX+++++++++++++++XX++++++X+",
"XXX+++++++++++++++X.o++++++++++++++XXX&&+++&+++++++++++o.++++Xo++&+++o.oX&++++X+++++++++++++++++++X.o+Xoo+++++++++++++++++++++XX",
"XXXX++++++++++++++X.oo++++++++++++++++&&&+&&++++++++++oo.o+&++Xo+++++o.X+++++++ooXXX+++++++++++++++.o++XXX++++++++++++++++X+++XX",
"XXXX+++X++++++++++X.o+++++++++X+++ooo&+&o&+&++++++++++&X.oo+&++oo++++XX+++++++++ooXXXX+++++++++++++.o+++XXX+++X+++++++++++++++XX",
"Xo+++++++++++++++++.XX++++++Xoooo.   &&..&&&++++&+++++XX.oXX&+++Xo+++X++&++&+++++++XX++++++++++X+++.oX+++X+++ooXX+++X+++o++++++X",
"++++++++++++++++++X.X++++++++...     &&oo&X&++++++++++XX.ooX&+++++++++++++++++++++++++++++++++XX+++.oXX+++++XXXX+++X++++++++++++",
"+++++++++++++++++XX.XX+++++++oooooo+&+++XX&&&++++++&+XXX.o++&++++++&+++++++++++&+++++++++++++++++++.ooXX+++X++++++++++++++++++++",
"++XXXX+++++++++++XX.+XXX+++++++++++&+++++X+&&++++++++XXX.#+++++++++++++++++++X++++++++++++++++++++X.X#oXX++++++++++++++++++XX+++",
"+XXXXXX+++++++++XXX.#+XXX+++++++++++++++++##&&+++++&+XXX.X++++++++++++++++++XXX+XXXXXXX++XXXX++++oX.X##oXX++++++XXX++++XXXXXo#++",
"#+++++X+XX++XXXXXXX.##+++++XX++++++++++####&&&&X+XXXXXXX.X###XXX&+++X+++++XX++++++++++++XXXXXXoXXXX.XX##oXX+XXXXXooo#ooooooo#XXX",
".#####++++#XXXXXXXX.#######++++++++######XXXX&XXXXXXXXXX.XXXXXXXXXXX++++++++++..+++++++++++XXXXXXXX.X#XX##ooooooXXX#XXXX#XXXXX..",
".....#####XXXXXXXXX.##############XXXXXXXXXXX&XXXXXXXXXX.XXXXXXXXXXXXXX&####&......XXXXXXXXXXXXXXXX.XXXXXXXXXXXXXXXXXXXXXX......",
"                                            &                        &         &                                                "
};
