/* XPM */
static char *dummy[]={
"128 128 17 1",
". c None",
"# c #1a1a1a",
"c c #262626",
"b c #333333",
"i c #340f00",
"d c #3b2300",
"a c #404040",
"f c #462f12",
"e c #563911",
"m c #5c1b01",
"h c #670000",
"g c #7f0000",
"j c #900000",
"k c #9d2f00",
"l c #e0aa7e",
"n c #fec28e",
"o c #ffd2ad",
"..............................................#.................................................................................",
"...............................................#....###.........................................................................",
"...............................................##.##............................................................................",
"...............................................#a##.............................................................................",
"...........................................#....#a#..#..........................................................................",
"...........................................#....#b#..##.........................................................................",
".......................................##..#.....##..#..................................................................#.......",
"........................................#..##....##..#......#..........................................................###......",
"........................................##.###...##..##...###..........................................................##.......",
".........................................#..##...##.#c#...##..............................................d............#........",
".............................#...........##.#c####c#bc#..###.............................................ddd...........#........",
"...........................##............##.#babcccccc###c#.......................................#......ded...........#........",
"..........................##..............##ababbbbbbbcccc#........................................#.....dfddd.........##.......",
".........................##...............#acbbbbbbbbbbbcc##.......................................#.....ddffdd........##.......",
"..................##...###................#accacbbbacacbccc#.................#.....................########defd.#.....#c#.......",
"...................####bb#................#abcacacbacbcbcbc#................#.......................#aabbccdffd######.#c#.......",
"....................##ab##................#abbbbbcbbbbbbbbc#................#..................#...#ccbbbccdefdccccc##cc##......",
"......................#b#.................#aacbbbbbbbbbcccc#................#..................####cbbccc#defffd############....",
".......................###................#aaacccbbbacccbcc#................##.................#accb######dffffd...........##...",
".......................#b#.................#acgggbbbagggcc##........#.......##.................#ac###.....dffffd.............#..",
"........................##.................#ahacccbacccbhb#.........#.......##.........#.......#cc#.......defffd................",
"........................##..................#haacbbaacbbhb#.........##.....###.........#.......#c##.......defffd................",
"........................##..................#ghcbbbbabcbgh#..........###..###..........#.......#b#........deffed................",
"........................###.................#bhbababbbbbbh#...........######..........##.......#b#........deffed................",
"........................#c#.................#ahcababbabbbc#...........#cbc#...........####.....#c#........deffed................",
"........................#c#.................#ahcacabcabcbc#............#b##...........##b###...#c#........defffdd...............",
"........................#a##................#agcacaccaccbc#............###..............#####.#cc##......ddeffedd...............",
"........................#ac#................#bbcbcbccaccbc#.........#..##..................###bcb##......ddfffedd...............",
".........................#c#...............#ccccbccccbccbc##........###c##..................#bbcbc#......deffffdd...............",
".........................#b##..............#bcicciccicccccc#.........#bcc#...................#cccc#......defefffd...............",
"......................##.#bc#.........#....#acicciiciicichc#..........#b#.....................#bcc#......defefffd...............",
"....................######ab#####..#####...#aciccicciccicgh#...........##.....................#ccc#......defefffd...............",
"...................##...####abbbc##cccc##..#bbcciiiciccicch#...........##....................#bc####.....dffefffd...............",
"...................#.......#########babc#...#bcciicciccicch#...........###...................#bc#..#.....defefffd...............",
"...........................#........#cab##..#ghccicciccicch............#c#..................#bb##..#.....defffffd...............",
".....................................#cac#...hccccchcccicch............#bc.#...............#ab##........ddfeffffdd..............",
"......................................#cb##..hhcacghhccca#h...###......#cc#................#bc#.........ddfefffffd..............",
".......................................#ac##.#hcacjghahcc#..##cc##..####c##...............#bc##.........defefffffd..............",
".......................................#ccc##.hcbagbbahbc###ccbcc#.#bccc##...............#bb##..........defefffffd..............",
".......................................#cbcc##gbccghbbbccb#bcabcac##cc###................#bc#...........defefefffd..............",
".......................................#aabccbjhbccgbccccbbbbcbcabbbbc#.................#b##............defefefffd..............",
"........................................#abbcbgbbbabcbbcabcbbcccccbbbc##...............#b##.............ddfffefffd..............",
".........................................#ccbghabbabcabcabccbcc###bccac##.............#bc#..............ddeffefffd..............",
"...............................#........#cbcbhbabbabccacaabcbbc#..##ccbc##...........#bc##...............deffffffd..............",
"...............................##.......#cabbhbabbcbbcabcabbbbc##...#ccbb##.........#bcc#...............ddfffffffed.............",
"..............................#c###....#caabhbbccbcbbcabccbccccb##...#ccbb##.......#bcc##...............dffffffffed.............",
"..............................######...#caabh###cbccbccbbcccccccb##...##cbb##....##bccb#................dffefffffed.............",
"..............................##..###..#acbch#.#cbbcbbcbcccbbccccb##....#bbc###.#aacccb##..............deffefedddddd............",
".............................#c....#######bc#h.#cbbcbbccabbbckcccbb#.....#cbbc##cbccbbc#...............defdddddddldd............",
".............................#c.....#c##.#ac#hh#ccaccbcaabcckkmcccb##.....#cbcbbbcc###c#...............ddlllllllllldd...........",
".............................#.......##..#bc#..#bcabcbcabcimkgimcccb#......#cccbcc##..##..............ddlnnnnnllllldd...........",
"............................##.......##..#cb#..#bcaabcbbciimkkmmmccb##......#ccbc##...##..............dlnn##nnn##llld...........",
"...........................##........#...#ab##..#ccabcacmmmmkgkkmcccb#.......#bc##....##..............dlo#llnnnll#lld...........",
"..........................................#bc#..#bcbbcacmmgmkggkmmccb#........#b#.....##..............llonnnnnnnlllll...........",
"..........................................#bc#..#bccbcacmmgmkkkggmccb##........##.....##..............lnnn##nnn##llll...........",
"..........................................#bc#...#bcbcabcmgmkkkggmccbb#........#......###.............lnnnllnnnnllnll...........",
"..........................................#bc#...#bcccbbcmgggkkggmcccb##..............#.#.............llnnnnonnnnnnll...........",
"..........................................#ab##..##bccbbcmggggmmgmccccb#.............#.................lnnnnlllnnnll............",
"..........................................#abc#....#bbcbcmmmmmmggmccbcc##............#.................lonnnnnnnnnll............",
"...........................................#bc#....#aabbbcmmggmgmmghbbcb#..............................lonnn###nnlll............",
"...........................................#bc#.....#abcabcmmggmmccggbcc#...............................lon#jjj#nll.............",
"...........................................#ab#.....#aacbabcmmmmcccjjggb##..............................loojj###lll.............",
"...........................................#ab##.....#bbcbbbchmccccbcjjggh...............................lojnnllll..............",
"..........................................#ccbc#......#bcccbbghhccbaccjjjhh..............................lnjllllll..............",
"..........................................#acbc#......#bccbccjjghccabcbbbgh..............................lonnnnlll..............",
"........................................##caaab#.......#bbbbbbjggbcaabcbbchh............................hlonnnnnll..............",
"......................................#######cb##.......#bccaccggbccabccbcc#............................hjnjgnnngh..............",
"....................................####....#abc#.......#bbcaacjgaaccabcbbc##............................hhhhhhhhh..............",
"..................................####.......#bb#........#bccabjgcaacaabcbbc#...................................................",
"..................................#..........#bc#.........#bccbjgccabcbbccbc##..................................................",
".............................................#bc#..........#bcbjgbcaaccbbbbcc##.................................................",
"............................................#cac#...........#bcjggbccbcbbbbccc##................................................",
"............................................#cbc##...........#ccggbbcbbbcbbbccc###..............................................",
"............................................#abbc#...........#bbjggbcbbbcccbbccbcc##............................................",
"...........................................#ca####............#bjjgbcbccbbccbbccbcc##...........................................",
"..........................................#bc##.###..........#bcbjgbcbbcbabcaabccbcc##..........................................",
".........................................#cac#...##..........#ccbjggccbccabbcabbccbcc##.........................................",
".........................................#cc##....##.........#cbbjjgbcbbcaabcaabbcbbcc##........................................",
"........................................#cc##.....##.........#ccbbjgbcaaccabbcabbccbbcc##.......................................",
".......................................#cab#.......##........#bcbbbggccabcbabbcbbbcbbccc#.......................................",
"......................................#cab##.......##.........#cacbjgbcbbccabbccbbccbbcc##......................................",
"......................................#ab##........###........#cabcjggccbbcabbbcbabbaabcc#......................................",
".....................................#cb##..........###.......#cabcbjggcabbaabbbbaabbabbc##.....................................",
".................................##.###b#...........#.........##cbcbjjgcabcbaabbbcbbbabbcc#.....................................",
"................................#########..........#...........#cbcbjjgcabcbaabbbbcbbcbbbc##....................................",
"................................#ccccc##.......................#cbabbjgcabbbaabbbbcbbbcbbcc##...................................",
"...............................#ccccbcc#.......................##cabbjgcaabbaabcbbcbbbcbbbcb##..................................",
"..............................#ccccbccc##.......................#cabbjggaabbbbcccbbcbbbcbbbcb##.................................",
".............................#ccccbccccc##.....................##cabjjggbabbcbcccbbcbabccabccb##................................",
"............................#cbccbbccccbb#....................#acbbbjjgggbbbcbcccbbccabbcbabccb##...............................",
"...........................#ccccbbcccc####..................##acbcbbjgggggbbcbccccbbcabbbcabbccb##..............................",
".........................##cbcccbcccbc#....................#bacbccbjjgggggbbccccccbbcaabbcabbcbcb##.............................",
".......................##cbbcccbcccbbc#...................#bbcbbcbbjggbbgggbbcccccbbbcabbcbbbccccc##............................",
"......................#cbbbcccbbccccbc##.................#accabccbbjgbbbbgggbccccccbbcabbcbbbbcbccc##...........................",
"....................##cbbbccccbcccccbcc#................#bccabccbbbjgbcbbbggbccccccbacabbbcbbbccccbc##..........................",
"...................#ccbbbcccbbcccbbcccc###.#...........#accbbccbbbcggbcabbbggbcccccbabcabbcbbcccbcccc##.........................",
"..................#ccabccccbbccc####ccccc###..........#bccabccbbbccggcaabbbggcccccccabcabbcccccccbccbc##........................",
".................#ccaaccccbbccc##...##ccbcc#.........#bccbbccbbbcccgbcabbbbghc#ccccbaaccbbcccccccbbcbcc##.......................",
"................#ccabccccbbccc##......#cbbc#........#accbbccbbbcccggbcbccbcchh.....#babcbbccc###ccbccbcc#.......................",
"...............#ccaabcccbbccc##.......#cab##.......#accbbccbbbccccghcabcbbcch.......#abcbbcc##..#cbaccbc##......................",
"...............#ccabccabbccc##.......hgaac#.......#bcaaccbbbccccc#hbcabcbbc#........#bbccbc##....#babccbc#......................",
"...............#cabcccabbccc#........haab##......#bcaaccbbbccccc#.hbcbcbbcc#.........#bbcbc#......#babcbc##.....................",
"..............#ccacccabbccc##.......hgbb##......#bcabccbbbcc####..hcabcbcc#..........#cbcbc#.......#abccbc#.....................",
"..............#ccbcccabbccc#........hbbc#......#bcabccbbb####.....#cabcbcc#..........#cacbc#........#bbcbc##....................",
"..............#cbbccbabcccc#.......hgb###.....#acabcbbb###........#cabcbcc...........#caccb##.......#bbcbcc#....................",
"..............#cbcc##bbccb##......hjg##......#abaabcb###..........#cacbbc#............#abcbc#........aaccbc##...................",
"..............#cbcc#.#bccb#.......hghh......#abcbbcc##............#abcbc#.............#abcbb#.........#bcbcc#...................",
"..............#cbc##.#bbcb#......hghh......#bccabc###.............#abcbc#..............#bccb#.........#bccbc##..................",
"..............#cab#..#bbbg#.....hghh......#bcaabc##...............#cbcac#..............#bbcb#..........#acbcc#..................",
"..............#ca##...hbbjh....hhhh......#cccabc##................#cbbbc#..............#cbcb#...........#cbbb#..................",
"..............#ca#....hgbbh....h.........#bcabc##.................#bbcb#...............#cbcb##..........#ccbc##.................",
"..............#cah.....hgbhh............#bcabb##..................#bbcb#................#bbbc#...........#cccc#.................",
"...............hbh.....hjgbh...........#ccaab##...................#bccb#.................#bcc##..........#cccc#.................",
"...............hghh.....hjghh..........#caab##....................#bccb#.................#bccc#...........#ccc#.................",
"...............hghh.....hjghh.........#bcab##......................#ccb#..................#bcc#............#cc##................",
"................hh.......hjh..........#caa##.......................#cc#...................#bcc##...........#ccc##...............",
"................hh.......hjh..........#cb##........................#cc#....................#ccc#............#ccc#...............",
"................hhh.......hh.........#bcb#.........................#ac#....................#bcc#.............#ccc#..............",
".................hh.......hhh........#bc##.........................#ab#.....................#cc##............#ccc#..............",
".................hh........hh........#c##..........................#ab#.....................#ccc#.............#cc##.............",
"..................hh.......hh........#c#...........................#cb#......................#ccc#.............#cc#.............",
"............................h........###............................#b#......................#ccc##.............#c##............",
"............................h........##.............................#b##......................#bcc##............#####...........",
"....................................................................#bb#.......................#ccc##.............###...........",
".....................................................................#c#........................#ccc##..........................",
".....................................................................#b##.........................####..........................",
"......................................................................###.......................................................",
"................................................................................................................................"};
