/* XPM */
static char *_4d29aa251554ba3a59c749a3f381fe83cenkSUPfMFIRxti[] = {
/* columns rows colors chars-per-pixel */
"600 399 256 2 ",
"   c None",
".  c #020101",
"X  c #0B0302",
"o  c #0B0906",
"O  c #0C0C0C",
"+  c #060708",
"@  c #140201",
"#  c #1B0201",
"$  c #140B05",
"%  c #1B0C05",
"&  c #120D0B",
"*  c #1B0D0A",
"=  c #0F100F",
"-  c #12110E",
";  c #1C120A",
":  c #0F1111",
">  c #131413",
",  c #1A1614",
"<  c #191916",
"1  c #1C1C1B",
"2  c #171817",
"3  c #0F0F10",
"4  c #230301",
"5  c #2B0402",
"6  c #2C0905",
"7  c #250C08",
"8  c #330402",
"9  c #3B0402",
"0  c #330A05",
"q  c #3C0A05",
"w  c #370D09",
"e  c #23140B",
"r  c #2C1B0B",
"t  c #281507",
"y  c #361908",
"u  c #211E1C",
"i  c #281914",
"p  c #361915",
"a  c #1F201D",
"s  c #3C230B",
"d  c #38220A",
"f  c #21211E",
"g  c #2B231B",
"h  c #372617",
"j  c #342814",
"k  c #242422",
"l  c #292623",
"z  c #2A2926",
"x  c #2D2D2A",
"c  c #262826",
"v  c #312E2B",
"b  c #372924",
"n  c #2F302D",
"m  c #32322E",
"M  c #3B342B",
"N  c #343432",
"B  c #393733",
"V  c #3A3A35",
"C  c #3D3C3A",
"Z  c #363835",
"A  c #2D3131",
"S  c #1E2021",
"D  c #450A05",
"F  c #47150A",
"G  c #57140B",
"H  c #481915",
"J  c #581B14",
"K  c #550B06",
"L  c #661C14",
"P  c #6B180E",
"I  c #4B2B0C",
"U  c #452609",
"Y  c #552B07",
"T  c #59330B",
"R  c #472915",
"E  c #57251A",
"W  c #4B3417",
"Q  c #583714",
"!  c #4D310D",
"~  c #67390A",
"^  c #66251A",
"/  c #653C14",
"(  c #72320D",
")  c #462A25",
"_  c #582925",
"`  c #46352B",
"'  c #413F3B",
"]  c #463A35",
"[  c #573A35",
"{  c #57352A",
"}  c #662B25",
"|  c #683936",
" . c #72342C",
".. c #4F1F20",
"X. c #3F403C",
"o. c #78450A",
"O. c #6A4417",
"+. c #774916",
"@. c #764D16",
"#. c #42423D",
"$. c #4A443B",
"%. c #574631",
"&. c #6F4E30",
"*. c #6A5329",
"=. c #454442",
"-. c #494643",
";. c #4A4A45",
":. c #4D4C4A",
">. c #474845",
",. c #514F4B",
"<. c #564A44",
"1. c #53524D",
"2. c #5A544B",
"3. c #555552",
"4. c #595752",
"5. c #5B5A55",
"6. c #5D5D5A",
"7. c #575955",
"8. c #4E504D",
"9. c #684A44",
"0. c #764A47",
"q. c #615E5A",
"w. c #665B54",
"e. c #785955",
"r. c #6E544C",
"t. c #5E605B",
"y. c #63625D",
"u. c #6A645C",
"i. c #766655",
"p. c #656561",
"a. c #696662",
"s. c #6B6A64",
"d. c #6D6D69",
"f. c #666965",
"g. c #716F69",
"h. c #756C65",
"j. c #74736C",
"k. c #79756D",
"l. c #767671",
"z. c #797671",
"x. c #7C7B74",
"c. c #7E7E79",
"v. c #767973",
"b. c #6F716C",
"n. c #5F6161",
"m. c #3F4041",
"M. c #892E18",
"N. c #8B3428",
"B. c #9F3326",
"V. c #854B09",
"C. c #965909",
"Z. c #885618",
"A. c #945B16",
"S. c #88500E",
"D. c #996419",
"F. c #98630E",
"G. c #A56A17",
"H. c #B77818",
"J. c #AD6E0F",
"K. c #8A552A",
"L. c #986826",
"P. c #916B31",
"I. c #A97628",
"U. c #AD772C",
"Y. c #A65120",
"T. c #C37B1A",
"R. c #885751",
"E. c #8D6C52",
"W. c #886965",
"Q. c #817E79",
"!. c #847C75",
"~. c #977975",
"^. c #927069",
"/. c #A57770",
"(. c #AC6A4B",
"). c #C86350",
"_. c #7E817A",
"`. c #B78532",
"'. c #BB831A",
"]. c #CC8C19",
"[. c #C68927",
"{. c #C99538",
"}. c #D1962F",
"|. c #D9A535",
" X c #EAAE34",
".X c #E5A021",
"XX c #B18D4D",
"oX c #84837C",
"OX c #89857D",
"+X c #988776",
"@X c #AC9072",
"#X c #A99762",
"$X c #C89849",
"%X c #D4A94F",
"&X c #E9B74D",
"*X c #D2B36D",
"=X c #E1B46C",
"-X c #F5C953",
";X c #F0CE71",
":X c #F1D975",
">X c #FAC439",
",X c #898781",
"<X c #8B8A84",
"1X c #898984",
"2X c #938D87",
"3X c #93938C",
"4X c #99948D",
"5X c #9C9B94",
"6X c #999893",
"7X c #8E918B",
"8X c #A49D97",
"9X c #AD928D",
"0X c #A3A39C",
"qX c #A9A59C",
"wX c #B6A796",
"eX c #ABABA4",
"rX c #A9A9A4",
"tX c #B4ACA7",
"yX c #B3B2AC",
"uX c #B9B4AD",
"iX c #BCBBB4",
"pX c #B9B9B4",
"aX c #AEB1AB",
"sX c #9DA19A",
"dX c #CBB78C",
"fX c #C5BCB7",
"gX c #C6B0AB",
"hX c #C19C93",
"jX c #BDC1BA",
"kX c #D8C78F",
"lX c #EED58D",
"zX c #FBE991",
"xX c #C3C2BC",
"cX c #C9C4BC",
"vX c #D6CAB2",
"bX c #E9D9AA",
"nX c #FDF7B8",
"mX c #F8EBAD",
"MX c #CBCAC4",
"NX c #C9C8C3",
"BX c #D5D3CD",
"VX c #DAD9D4",
"CX c #D3CCC8",
"ZX c #E4DAD5",
"AX c #FDF9C8",
"SX c #E4E3DD",
"DX c #FDFAD7",
"FX c #F1EAC9",
"GX c #EAE9E5",
"HX c #FAF9E9",
"JX c #FDFDFD",
"KX c #F8F8F4",
"LX c #F0EFEB",
"PX c #DEE1DC",
"IX c #CEBFC2",
"UX c #7F8782",
/* pixels */
"                                                                                                                                                                                                                                                                                                                                                                                                                                                                                                                                                                                                                                                                                                                                                                                                                                                                                                                                                                                                                                                                                                                                                                                                                                                ",
"                                                                                                                                                                                                                                                                                                                                                                                                                                                                                                                                                                                                                                                                                                                                                                                                                                                                                                                                                                                                                                                                                                                                                                                                                                                ",
"                                                                                                                                                                                                                                                                                                                                                                                                                                                                                                                                                                                                                                                                                                                                                                                                                                                                                                                                                                                                                                                                                                                                                                                                                                                ",
"                                                                                                                                                                                                                                                                                                                                                                                                                                                                                                                                                                                                                                                                                                                                                                                                                                                                                                                                                                                                                                                                                                                                                                                                                                                ",
"                                                                                                                                                                                                                                                                                                                                                                                                                                                                                                                                                                                                                                                                                                                                                                                                                                                                                                                                                                                                                                                                                                                                                                                                                                                ",
"                                                                                                                                                                                                                                                                                                                                                                                                                                                                                                                                                                                                                                                                                                                                                                                                                                                                                                                                                                                                                                                                                                                                                                                                                                                ",
"                                                                                                                                                                                                                                                                                                                                                                                                                                                                                                                                                                                                                                                                                                                                                                                                                                                                                                                                                                                                                                                                                                                                                                                                                                                ",
"                                                                                                                                                                                                                                                                                                                                                                                                                                                                                                                                                                                                                                                                                                                                                                                                                                                                                                                                                                                                                                                                                                                                                                                                                                                ",
"                                                                                                                                                                                                                                                                                                                                                                                                                                                                                                                                                                                                                                                                                                                                                                                                                                                                                                                                                                                                                                                                                                                                                                                                                                                ",
"                                                                                                                                                                                                                                                                                                                                                                                                                                                                                                                                                                                                                                                                                                                                                                                                                                                                                                                                                                                                                                                                                                                                                                                                                                                ",
"                                                                                                                                                                                                                                                                                                                                                                                                                                                                                                                                                                                                                                                                                                                                                                                                                                                                                                                                                                                                                                                                                                                                                                                                                                                ",
"                                                                                                                                                                                                                                                                                                                                                                                                                                                                                                                                                                                                                                                                                                                                                                                                                                                                                                                                                                                                                                                                                                                                                                                                                                                ",
"                                                                                                                                                                                                                                                                                                                                                                                                                                                                                                                                                                                                                                                                                                                                                                                                                                                                                                                                                                                                                                                                                                                                                                                                                                                ",
"                                                                                                                                                                                                                                                                                                                                                                                                                                                                                                                                                                                                                                                                                                                                                                                                                                                                                                                                                                                                                                                                                                                                                                                                                                                ",
"                                                                                                                                                                                                                                                                                                                                                                                                                                                                                                                                                                                                                                                                                                                                                                                                                                                                                                                                                                                                                                                                                                                                                                                                                                                ",
"                                                                                                                                                                                                                                                                                                                                                                                                                                                                                                                                                                                                                                                                                                                                                                                                                                                                                                                                                                                                                                                                                                                                                                                                                                                ",
"                                                                                                                                                                                                                                                                                                                                                                                                                                                                                                                                                                                                                                                                                                                                                                                                                                                                                                                                                                                                                                                                                                                                                                                                                                                ",
"                                                                                                                                                                                                                                                                                                                                                                                                                                                                                                                                                                                                                                                                                                                                                                                                                                                                                                                                                                                                                                                                                                                                                                                                                                                ",
"                                                                                                                                                                                                                                                                                                                                                                                                                                                                                                                                                                                                                                                                                                                                                                                                                                                                                                                                                                                                                                                                                                                                                                                                                                                ",
"                                                                                                                                                                                                                                                                                                                                                                                                                                                                                                                                                                                                                                                                                                                                                                                                                                                                                                                                                                                                                                                                                                                                                                                                                                                ",
"                                                                                                                                                                                                                                                                                                                                                                                                                                                                                                                                                                                                                                                                                                                                                                                                                                                                                                                                                                                                                                                                                                                                                                                                                                                ",
"                                                                                                                                                                                                                                                                                                                                                                                                                                                                                                                                                                                                                                                                                                                                                                                                                                                                                                                                                                                                                                                                                                                                                                                                                                                ",
"                                                                                                                                                                                                                                                                                                                                                                                                                                                                                                                                                                                                                                                                                                                                                                                                                                                                                                                                                                                                                                                                                                                                                                                                                                                ",
"                                                                                                                                                                                                                                                                                                                                                                                                                                                                                                                                                                                                                                                                                                                                                                                                                                                                                                                                                                                                                                                                                                                                                                                                                                                ",
"                                                                                                                                                                                                                                                                                                                                                                                                                                                                                                                                                                                                                                                                                                                                                                                                                                                                                                                                                                                                                                                                                                                                                                                                                                                ",
"                                                                                                                                                                                                                                                                                                                                                                                                                                                                                                                                                                                                                                                                                                                                                                                                                                                                                                                                                                                                                                                                                                                                                                                                                                                ",
"                                                                                                                                                                                                                                                                                                                                                                                                                                                                                                                                                                                                                                                                                                                                                                                                                                                                                                                                                                                                                                                                                                                                                                                                                                                ",
"                                                                                                                                                                                                                                                                                                                                                                                                                                                                                                                                                                                                                                                                                                                                                                                                                                                                                                                                                                                                                                                                                                                                                                                                                                                ",
"                                                                                                                                                                                                                                                                                                                                                                                                                                                                                                                                                                                                      . O O . + 2 . . . 1                                                                                                                                                                                                                                                                                                                                                                                                                                                                                                                                                                                                                       ",
"                                                                                                                                                                                                                                                                                                                                                                                                                                                                                                                                                                                                    . . . . . . . . . . 2                                                                                                                                                                                                                                                                                                                                                                                                                                                                                                                                                                                                                       ",
"                                                                                                                                                                                                                                                                                                                                                                                                                                                                                                                                                                                                  n . X . . . . . . . . 2                                                                                                                                                                                                                                                                                                                                                                                                                                                                                                                                                                                                                       ",
"                                                                                                                                                                                                                                                                                                                                                                                                                                                                                                                                                                                          N k z k O . . x =.C #.x . . . + V z 1 1                                                                                                                                                                                                                                                                                                                                                                                                                                                                                                                                                                                                               ",
"                                                                                                                                                                                                                                                                                                                                                                                                                                                                                                                                                                                          > . . . . . z p.p.p.d.y.> . . . . . . . .                                                                                                                                                                                                                                                                                                                                                                                                                                                                                                                                                                                                             ",
"                                                                                                                                                                                                                                                                                                                                                                                                                                                                                                                                                                                          u . . . + > p.7.3.s.1.-.x . + . . . . . 2                                                                                                                                                                                                                                                                                                                                                                                                                                                                                                                                                                                                             ",
"                                                                                                                                                                                                                                                                                                                                                                                                                                                                                                                                                                                      f.V + . + C 3.-.6.7.;.#.V B V z V m O k z + +                                                                                                                                                                                                                                                                                                                                                                                                                                                                                                                                                                                                             ",
"                                                                                                                                                                                                                                                                                                                                                                                                                                                                                                                                                                                    C . . . . V oXc.d.6.6.f z =.C V #.#.=.C V C z O . . . . 2                                                                                                                                                                                                                                                                                                                                                                                                                                                                                                                                                                                                   ",
"                                                                                                                                                                                                                                                                                                                                                                                                                                                                                                                                                                                  =.. . . . . x d.6.s.p.N . O N =.N m V V C #.V 1 + . . . . k                                                                                                                                                                                                                                                                                                                                                                                                                                                                                                                                                                                                   ",
"                                                                                                                                                                                                                                                                                                                                                                                                                                                                                                                                                                                  . . . 1 Z z V p.p.>.k 2 > > l N m C C B ,.s.3.k c x > . . Z                                                                                                                                                                                                                                                                                                                                                                                                                                                                                                                                                                                                   ",
"                                                                                                                                                                                                                                                                                                                                                                                                                                                                                                                                                                                  . . . p.7X,Xl.y.:.1 O 2 > N ' N C -.#.;.y.p.s.3.;.3.x . . -.                                                                                                                                                                                                                                                                                                                                                                                                                                                                                                                                                                                                  ",
"                                                                                                                                                                                                                                                                                                                                                                                                                                                                                                                                                                                3.. . . l.OXc.j.;.N m 2 > 2 v C B C -.=.=.6.p.p.;.#.=.k . . k p.1 2                                                                                                                                                                                                                                                                                                                                                                                                                                                                                                                                                                                             ",
"                                                                                                                                                                                                                                                                                                                                                                                                                                                                                                                                                                            > . . . & > 6.z.z.;.2 N z = > > k C N V ;.>.=.7.a.7.C C #.1 X . . . . .                                                                                                                                                                                                                                                                                                                                                                                                                                                                                                                                                                                             ",
"                                                                                                                                                                                                                                                                                                                                                                                                                                                                                                                                                                          6.. . . C 1Xx.C V ;.< . > > O > > m =.C =.:.:.:.y.p.y.;.V #.V 1 f 2 . . >                                                                                                                                                                                                                                   O . o . x 7.C       Z                                                                                                                                                                                                                                                                                                                                     ",
"                                                                                                                                                                                                                                                                                                                                                                                                                                                                                                                                                                          6.. . f 6X8X2X;.v C x + + O 3 O = V =.C -.1.1.3.y.y.p.:.V =.C u k 1 . . O                                                                                                                                                                                                                   . . . . . . . . . . . . + . . . . . .                                                                                                                                                                                                                                                                                                                                     ",
"                                                                                                                                                                                                                                                                                                                                                                                                                                                                                                                                                                          j.. . k 6X7X1X3.C :.x + O > O O o x #.V #.1.3.3.p.p.p.1.C #.m < f 1 . . O                                                                                                                                                                                                                   + . . . . . . . . z #.O . . . . . . .                                                                                                                                                                                                                                                                                                                                     ",
"                                                                                                                                                                                                                                                                                                                                                                                                                                                                                                                                                                      f.  z . . ' 7X3Xz.a a x O + O & O - > m =.C =.6.6.6.p.p.p.6.:.:.B 1 k 1 . . >                                                                                                                                                                                                                 =.. . + z c k 2 k 3.v.oXl.Z + N 4.k . . k                                                                                                                                                                                                                                                                                                                                   ",
"                                                                                                                                                                                                                                                                                                                                                                                                                                                                                                                                                                    k . . . # 4 <.1X,Xl.> . . O O + O > 1 1 N =.C >.p.p.6.s.p.f.6.4.6.;.f k 1 . . >                                                                                                                                                                                                         k . . . . . . O Z Z x N l.7Xv.,X3X,X4.f.v.:.. + . . . . :.                                                                                                                                                                                                                                                                                                                          ",
"                                                                                                                                                                                                                                                                                                                                                                                                                                                                                                                                                                    N . . X 5 4 b 7X7X1Xk . O O + o + 1 1 < N =.#.:.q.6.6.p.f.f.6.3.7.=.f k 1 . . O                                                                                                                                                                                                         N . . . . . . . k m k z z =.d.,X1X,X6.:.y.=.. . . . . . p.                                                                                                                                                                                                                                                                                                                          ",
"                                                                                                                                                                                                                                                                                                                                                                                                                                                                                                                                                                    k . . u [ ) <.v.j.3.2 O O O O O > k k f N =.' :.p.p.6.p.f.p.4.1.7.#.f z k . . O                                                                                                                                                                                                         2 . . . 1 k k 2 k k k f 1 u 3.x.Q.p.N =.3.C z x ' 1 + + -.                                                                                                                                                                                                                                                                                                                          ",
"                                                                                                                                                                                                                                                                                                                                                                                                                                                                                                                                                              C 1 V 2 . . g.rX8Xk.k Z k O O + > 1 > 1 n x x C =.=.=.y.g.s.a.a.a.6.1.7.;.z x k . . O                                                                                                                                                                                             c > > > > + . . . =.l.j.d.6.z 1 k k C :.p.d.f.f.:.=.=.7.l.z.Q.8.Z ;.x O O 1                                                                                                                                                                                                                                                                                                                     ",
"                                                                                                                                                                                                                                                                                                                                                                                                                                                                                                                                                              . . O + . . 5.8X5XoXm V C 2 O O 2 1 > 1 x x x V =.X.X.6.s.f.a.a.a.3.;.3.=.z x k . . O                                                                                                                                                                                             1 . . . . . . . k y.q.p.:.-.k 1 f x =.>.6.d.s.d.3.>.:.:.p.d.v.3.V ;.x . . >                                                                                                                                                                                                                                                                                                                     ",
"                                                                                                                                                                                                                                                                                                                                                                                                                                                                                                                                                              > . . . . . C 4X8X1.1 C m = O O > 1 2 1 x m m N C C C 7.s.f.a.a.a.1.;.3.#.z x k . . O                                                                                                                                                                                             1 . X . . o . > 6.t.-.x a C x 1 1 k C Z #.p.s.6.>.:.8.:.:.6.b.:.C ;.x . . >                                                                                                                                                                                                                                                                                                                     ",
"                                                                                                                                                                                                                                                                                                                                                                                                                                                                                                                                                              1 . . + 2 2 V y.s.k . 2 = O O O > k f f N #.V Z ' V =.f.a.a.s.s.a.,.;.1.:.;.;.m . . O                                                                                                                                                                                       C =.v X X O > N 1.V :.7.6.#.> 1 k x x l V :.C =.6.6.4.3.6.6.:.:.8.3.3.6.p.:.z z 1 x Z                                                                                                                                                                                                                                                                                                                 ",
"                                                                                                                                                                                                                                                                                                                                                                                                                                                                                                                                                              a . X 1 x f B 1.1.=.. . + + O > 1 k f k C #.C C C Z =.a.a.a.s.s.s.1.;.:.:.:.3.V . . O                                                                                                                                                                                     . . . . X o + 1 6.y.3.3.:.y.>.> 1 1 x Z x =.:.#.:.6.6.6.n.p.f.7.3.3.3.6.a.d.6.m m k . . .                                                                                                                                                                                                                                                                                                               ",
"                                                                                                                                                                                                                                                                                                                                                                                                                                                                                                                                                              k . + 1 f + z 4.y.:.+ . + . - < 1 f 1 k C C C C V N C y.s.s.s.a.s.7.;.-.;.;.,.N . . O                                                                                                                                                                                     N . . . + O . O :.1.3.7.3.c 2 2 2 1 x N z Z :.=.:.6.6.6.7.n.p.3.:.8.3.3.p.d.1.f z 1 . . .                                                                                                                                                                                                                                                                                                               ",
"                                                                                                                                                                                                                                                                                                                                                                                                                                                                                                                                                              > . . =.5.1.N k C k . + . - 1 < k m x x C C C C =.' #.6.y.p.a.s.s.6.1.1.:.=.;.N . . =                                                                                                                                                                                     k . . O k x > 1 #.C C C z + + > 2 1 m Z N =.3.:.:.6.6.6.3.6.6.:.:.:.:.:.:.3.:.#.1.>.+ . .                                                                                                                                                                                                                                                                                                               ",
"                                                                                                                                                                                                                                                                                                                                                                                                                                                                                                                                                        . . . o X + s.OXoXC O 2 O + + + < 1 1 m V N V C V V #.:.:.1.6.y.y.s.s.f.y.y.a.1.V =.V . . O                                                                                                                                                                               . . . . > > u C =.V m Z C N > O 2 2 1 a k V =.=.3.7.6.6.6.6.6.6.6.6.8.:.:.:.=.C V :.a.a.p.2 . .                                                                                                                                                                                                                                                                                                               ",
"                                                                                                                                                                                                                                                                                                                                                                                                                                                                                                                                                        > . . . . . 6.x.l.Z O 1 2 . . + < < 1 m V m N V C Z C :.:.1.t.y.y.a.a.p.y.y.s.1.C ;.C . . =                                                                                                                                                                             x . . . . O + 1 C N z N N Z k 2 1 2 < f 1 1 Z C C :.6.6.y.6.6.6.6.3.3.:.>.:.3.=.C V =.7.y.7.O . .                                                                                                                                                                                                                                                                                                               ",
"                                                                                                                                                                                                                                                                                                                                                                                                                                                                                                                                                        2 . X > 1 > 7.v.l.N . = > . . O 1 1 1 z V V N Z V Z C ,.:.:.6.y.y.p.s.p.y.y.f.1.C :.Z . . O                                                                                                                                                                           2 . . . . O k 1 1 m > > Z x k > 1 k 1 1 k k k Z =.V =.6.7.6.6.6.q.3.:.:.-.-.:.:.C B C B V t.7.O . .                                                                                                                                                                                                                                                                                                               ",
"                                                                                                                                                                                                                                                                                                                                                                                                                                                                                                                                                        O . > oX6XQ.p.d.l.V . . + + + + k z k m #.#.C V N V :.1.;.1.y.y.y.s.j.s.p.y.y.3.=.1.N . . O                                                                                                                                                                           . . + X . V :.;.N . + O > 2 > 2 k k k z x z x =.:.>.>.:.:.:.3.n.p.6.3.:.3.3.:.>.Z Z Z C 3.p.f.< . .                                                                                                                                                                                                                                                                                                               ",
"                                                                                                                                                                                                                                                                                                                                                                                                                                                                                                                                                      p.. . z 5X3XoXs.j.z.N . + O + + O k z k V =.#.X.Z N Z :.1.;.3.a.a.a.s.s.j.a.t.y.y.:.1.C . . O                                                                                                                                                                           . + . . 1 1.=.;.N . O O 3 > > 1 k k k x x z z >.:.;.:.:.:.>.4.q.6.p.6.:.3.7.:.:.C Z Z :.d.f.d.1 . .                                                                                                                                                                                                                                                                                                               ",
"                                                                                                                                                                                                                                                                                                                                                                                                                                                                                                                                                  6.+ . . . O Q.7XoXk.s.l.x . O O + + O k z f V #.#.C z z A -.:.-.3.a.a.f.s.s.s.y.6.y.y.:.,.Z . . O                                                                                                                                                                         + . . . 1 =.:.;.:.k + O = = - - > k k k k N x z =.:.#.=.:.>.>.3.5.q.6.:.>.:.7.1.>.C C C 3.s.f.d.1 . .                                                                                                                                                                                                                                                                                                               ",
"                                                                                                                                                                                                                                                                                                                                                                                                                                                                                                                                                  . . . f k k v.3X,XV 2 k > + O O > > 2 k k 1 x C V N N N Z ;.,.1.y.p.p.6.a.s.s.y.y.s.5.C =.n . . O                                                                                                                                                                   :.3.V X . o :.p.y.#.k k > O > > 1 f 1 1 k l k V :.>.=.V V N C :.>.-.>.>.:.:.>.:.-.=.>.=.V N x ;.d.j.6.+ . .                                                                                                                                                                                                                                                                                                               ",
"                                                                                                                                                                                                                                                                                                                                                                                                                                                                                                                                                  . . O N N #.v.7XoX2 . o O O O O > 2 < f a 1 z N m N C C V #.;.5.y.y.y.p.s.s.a.y.y.s.3.V #.x . . O                                                                                                                                                                 > . . . O + 2 d.d.t.z . O 2 2 2 > k k f k k l x :.8.:.:.V N N V :.>.:.:.>.=.:.:.:.:.' =.:.Z k k V s.j.3.. . .                                                                                                                                                                                                                                                                                                               ",
"                                                                                                                                                                                                                                                                                                                                                                                                                                                                                                                                                  . . . z z m v.5X5Xk . > O O O O > > > < 1 1 z N m N C V V V =.1.y.a.y.y.a.s.a.f.a.j.6.' =.m . . O                                                                                                                                                                 >.. . . . + O y.d.6.k . > > > 2 2 f k 1 1 k k z Z :.:.>.V V N C 3.:.:.:.:.>.:.1.1.:.=.;.:.Z k k V j.l.s.O . .                                                                                                                                                                                                                                                                                                               ",
"                                                                                                                                                                                                                                                                                                                                                                                                                                                                                                                                                :.. . 2 3.3.#.=.p.v.1 + > O O O O 2 1 - 2 k k x N N N =.=.#.#.:.4.y.j.a.y.s.j.d.7.4.y.5.N N c . . O                                                                                                                                                                 Z . . + z C x =.3.=.> O 2 > 2 k S k x l 1 x x k A =.>.=.V V Z C >.>.:.:.:.,.:.;.:.C N Z V x k x #.:.>.V + . .                                                                                                                                                                                                                                                                                                               ",
"                                                                                                                                                                                                                                                                                                                                                                                                                                                                                                                                          N . . . + . x 3X6Xy.1 k 1 + O O O O + O 1 f 1 z N m v v x Z :.:.;.1.5.6.a.j.j.s.s.k.j.=.C #.m f k a . . O                                                                                                                                                           1 . . . . . 1 f.d.f.A S S > 2 2 2 z m x B >.C N V B m V :.;.;.V Z V V Z Z C :.:.3.>.C C v k k k k k V #.. . . . . .                                                                                                                                                                                                                                                                                                               ",
"                                                                                                                                                                                                                                                                                                                                                                                                                                                                                                                                          V . . . . . k ,X3XoXN k v 1 + O O O + = 1 < 1 m N m x x x N ;.:.:.,.,.3.y.g.j.g.j.c.z.;.X.#.x f z f . . O                                                                                                                                                           k . . . . . 1 p.f.f.Z x x a > > 2 k z x C =.C C Z N Z =.:.=.=.V Z V V V Z V -.>.>.>.=.>.Z k k k k f C #.. . X O                                                                                                                                                                                                                                                                                                                   ",
"                                                                                                                                                                                                                                                                                                                                                                                                                                                                                                                                          C . . . 1 O 1 c.<Xl.1 1 z > + O O O + - 2 1 1 m N m x x v N ;.:.-.1.7.1.7.s.s.s.j.j.s.;.C C x 1 f O . . =                                                                                                                                                           1 . . . > 1 > 3.6.=.c x c 1 1 2 > z m x C =.C V Z N N N V V C Z Z V V V Z V >.>.>.=.m.=.N k k k 2 1 C z . . O                                                                                                                                                                                                                                                                                                                     ",
"                                                                                                                                                                                                                                                                                                                                                                                                                                                                                                                                    Z k > O . . >.6XOXp.;.5.C . . + + O + O 2 > > k x x N N m Z =.=.=.6.7.:.5.y.6.y.s.g.a.5.5.5.#.N N x k k + . . =                                                                                                                                                     z 2 > + . . f n.p.:.x k k 1 2 > k m z x =.=.C C C V Z C =.Z z Z Z N =.:.:.=.Z V m.>.>.>.Z N N z < 2 2 < k N 1 . . >                                                                                                                                                                                                                                                                                                                     ",
"                                                                                                                                                                                                                                                                                                                                                                                                                                                                                                                                    1 . . o . . 6.5X3XOX:.1.#.. . + O O O > 1 2 1 x z x N N N #.:.;.:.6.7.4.5.y.y.a.j.g.a.1.1.5.C N m x z x k . . >                                                                                                                                                     . . . . o . V d.p.p.k 1 c 1 2 2 z m x #.>.#.C C C V C >.;.-.C C C m.>.:.8.-.V Z m.>.>.>.N N Z x < > 2 z m m f . . >                                                                                                                                                                                                                                                                                                                     ",
"                                                                                                                                                                                                                                                                                                                                                                                                                                                                                                                                    k . . . . . =.5X3Xx.7.y.3.O . O O O = > < 2 < f k z m N m C -.=.;.4.4.4.7.5.6.p.j.g.a.1.1.1.N m m x k z k . . .                                                                                                                                                     O . . . . . z f.s.6.1 k c 2 > > k m v V =.#.C B C C C :.,.8.>.V C C =.:.8.:.V Z C >.=.=.N N V z 1 1 < N m B z . . >                                                                                                                                                                                                                                                                                                                     ",
"                                                                                                                                                                                                                                                                                                                                                                                                                                                                                                                                    > . . z #.N :.<XOX=.m 3.N O O O > > > > 1 1 2 k B z N #.N C ,.:.1.s.s.3.7.p.7.6.j.j.a.5.5.4.m n N k > 1 k V C C                                                                                                                                                     . . . 1 1 - N 8.7.k + 1 k 1 1 1 k #.-.' #.=.N x V V Z -.3.,.=.V V C =.:.:.=.C V Z V Z Z A N x 2 2 1 k m x x < . . >                                                                                                                                                                                                                                                                                                                     ",
"                                                                                                                                                                                                                                                                                                                                                                                                                                                                                                                            >.2 2 + . . o p.oXv.j.y.y.-.O O O O O > 2 2 > f k k k C #.#.:.:.=.1.y.q.y.k.k.p.a.l.d.a.j.g.a.y.t.y.=.N C z . . x                                                                                                                                                           . . . :.y.:.N n Z a > > 2 x x z ' 3.1.:.=.C Z N Z N N :.3.-.=.:.:.:.-.:.:.=.m.=.Z k k z k a k 2 - c N 1 . . . . . >                                                                                                                                                                                                                                                                                                                     ",
"                                                                                                                                                                                                                                                                                                                                                                                                                                                                                                                            =.. . . . . . 6.z.d.j.s.s.1.O . O O O O 2 2 > k c k x #.C #.;.;.=.1.y.5.q.s.j.s.j.j.j.g.s.s.a.y.y.y.=.N #.x . . z                                                                                                                                                         1 . . . >.6.3.C N C Z < > 2 k z x =.:.:.:.>.=.C N Z N =.s.p.:.m.3.3.,.:.>.:.>.V V N k x x k 1 k 1 f m N u . . . . . O                                                                                                                                                                                                                                                                                                                     ",
"                                                                                                                                                                                                                                                                                                                                                                                                                                                                                                                              . . . 2 2 < 5.k.j.=.C q.#.O O O + + O > > > > k x z V C C >.;.=.3.y.q.q.a.s.7.y.j.s.u.a.s.u.y.y.y.C V =.k . . c                                                                                                                                                   >.. . . . . > =.3.3.>.z V N 2 > - 1 x z Z :.;.-.:.>.-.C N Z 6.g.d.q.:.:.:.:.:.-.:.=.V Z n z x x a 1 k k z z m 1 . . . 2 2 k                                                                                                                                                                                                                                                                                                                     ",
"                                                                                                                                                                                                                                                                                                                                                                                                                                                                                                                              . . m 0X5X3Xy.y.g.c . f x 1 1 < O > > O > > < B C x N C #.3.5.y.y.6.6.y.a.a.a.y.a.p.4.a.g.s.y.y.5.C C ;.m X . k                                                                                                                                                   x . o . . > 3.3.>.6.m . O > 2 > > m V m C 6.3.1.t.6.y.q.:.6.d.d.d.g.p.:.:.:.-.>.>.:.;.V x c x A 2 2 < k v k f O . . =.                                                                                                                                                                                                                                                                                                                          ",
"                                                                                                                                                                                                                                                                                                                                                                                                                                                                                                                              . . V yXqX0Xs.4.s.;.k N m 1 < 1 > O > < f 1 m V V V C C #.3.7.a.a.7.5.y.s.s.s.a.y.a.y.s.g.s.y.5.y.,.C :.C X . k                                                                                                                                                   x . + + O O k :.3.3.2 . + O > O 1 V N C 6.p.y.6.q.6.6.q.p.f.d.s.f.s.6.=.:.3.:.>.>.:.C V Z x x N f > > k m N l . . . 6.                                                                                                                                                                                                                                                                                                                          ",
"                                                                                                                                                                                                                                                                                                                                                                                                                                                                                                                            Z . . l 5X0X<Xy.5.l.y.' :.x > 2 > O O > f k f x Z Z N V B V :.5.a.y.5.y.a.j.s.s.a.y.a.s.g.s.g.a.y.y.1.B :.x . . k                                                                                                                                                   3 . . + > + . X.d.p.z . O O > > 1 V V :.s.p.y.7.6.y.7.3.6.6.6.p.p.y.3.Z >.3.:.>.:.C N C m.N x N k - 2 v V x > . . . :.                                                                                                                                                                                                                                                                                                                          ",
"                                                                                                                                                                                                                                                                                                                                                                                                                                                                                                                      k > 2 v 1X,.:.0X5X7.a k >.N 1 N a > 2 > > > 3 1 x k z X.C N -.;.#.-.:.1.:.:.:.3.a.j.g.y.y.s.s.s.j.a.,.7.5.z f n < . . c                                                                                                                                             > O + . + + O a k O z >.V f O + O > O O v C V :.p.y.6.y.p.q.p.d.f.q.y.y.y.1.=.3.3.>.=.>.N m C N 1 1 1 > O 2 k f + .                                                                                                                                                                                                                                                                                                                                   ",
"                                                                                                                                                                                                                                                                                                                                                                                                                                                                                                                > . . . . . 1XcXuXyX<XoXd.1 O O + O - > > 2 2 1 1 > z Z N #.>.#.-.1.:.:.;.=.#.#.>.;.,.s.j.s.y.a.g.j.s.g.p.=.:.=.f f f < . . z                                                                                                                                             . . . + > > 2 1 k 2 > 2 > > > + O O O + x C m =.p.6.y.f.p.p.d.d.d.d.p.y.q.5.6.q.p.3.>.:.#.m N x < 2 > O O > O . . .                                                                                                                                                                                                                                                                                                                                   ",
"                                                                                                                                                                                                                                                                                                                                                                                                                                                                                                                2 . . . . . z.tX0X5Xz.oX3XC > 1 > > < > > < < < 2 1 Z Z V -.=.#.=.:.;.;.-.#.1.:.=.=.3.k.j.s.s.g.g.j.j.k.j.3.1.1.N f > . . . k                                                                                                                                           6.. . . + = O & 2 > > > 2 1 2 O + + O O O z V V 7.l.y.6.f.p.t.p.f.d.p.6.y.y.3.3.p.6.3.:.:.C m N x 1 < < - O 2 = . . .                                                                                                                                                                                                                                                                                                                                   ",
"                                                                                                                                                                                                                                                                                                                                                                                                                                                                                                                2 . . u l O ,.8X3Xs.1.s.v.x > 2 O 1 f > O 2 2 2 > 1 x N m C =.#.#.;.:.:.=.:.u.1.#.1.7.g.j.s.s.g.j.s.a.j.p.:.1.:.m - . . + . k                                                                                                                                       O . . . . . > 2 k m > O > O 2 1 > 2 < O + O > > l N N 3.q.1.4.6.4.6.f.p.7.6.y.y.,.:.6.3.m.:.>.x c x k 2 < 2 > > O . 1                                                                                                                                                                                                                                                                                                                                       ",
"                                                                                                                                                                                                                                                                                                                                                                                                                                                                                                                2 . O w.i.%.2.Q.3X1.k V Z > > O 1 z k 1 + + O > 2 > 1 x k m -.#.#.;.;.;.5.g.s.2.1.s.u.s.g.g.a.p.s.y.1.5.1.C #.C O . . =.3.. N                                                                                                                                       . . . 1 c x C 2 Z #.+ O > 1 x z k x x 1 3 2 1 > > > + . 2 #.:.;.3.y.y.y.y.y.y.q.y.6.4.7.=.C C z 1 f > O - - O + . +                                                                                                                                                                                                                                                                                                                                         ",
"                                                                                                                                                                                                                                                                                                                                                                                                                                                                                                                2 . + %.r.%.h.5X8X,XN x N 2 O O 1 x z 1 O O & > > > 1 z z ' -.' =.:.:.,.1.j.j.y.y.y.a.s.s.s.s.p.y.q.1.1.3.#.V V > . . k 1 .                                                                                                                                         . . O m A N f . O > O O > z m z x z l f > > 2 = O O = . . #.1.;.:.y.p.f.y.:.5.y.y.q.6.q.;.V C N f u < O O > . . . .                                                                                                                                                                                                                                                                                                                                         ",
"                                                                                                                                                                                                                                                                                                                                                                                                                                                                                                                2 . . ` 9.` h.5X5X3Xx k x > + O > k k > > > > > - O 1 z z ' -.#.C -.,.-.C 5.s.y.y.y.p.p.s.j.a.y.y.6.:.1.3.X.B #.1 . . . 1                                                                                                                                           . . + v N k + + + + - > 2 z x k x z z f - > < O + > > + O #.,.=.C 5.p.s.3.C =.6.3.7.y.3.B V C x f k f > = > = 1 1                                                                                                                                                                                                                                                                                                                                           ",
"                                                                                                                                                                                                                                                                                                                                                                                                                                                                                                                k . + Q.5X<Xy.y.j.#.. + O + O O > 1 1 2 > > O 1 k f > 2 2 f x k f N V B #.-.#.#.y.u.y.5.s.k.5.:.1.;.#.;.N x V C > . . C                                                                                                                                           1 k f 1 8.6.8.1 . O > f c k N N N N m x B #.#.;.x z x > O + 1 Z N m N C :.;.#.C #.V C =.C k k x 1 < 1 1 O + . =.                                                                                                                                                                                                                                                                                                                                              ",
"                                                                                                                                                                                                                                                                                                                                                                                                                                                                                                                1 . - 8XyXeXj.1.q.k . . + + O O > 1 1 1 > > 3 k N z = O O 2 1 > 1 m x N >.=.V =.y.y.y.a.s.j.a.1.1.:.#.#.z z B V O . . f.                                                                                                                                    . . . 2 Z x A p.l.7.1 . 3 2 k z x V N B N m x -.4.1.4.X.Z V 2 O . O N Z N x C C V C C C C N N m k 1 k 1 > 1 2 + + . Z                                                                                                                                                                                                                                                                                                                                               ",
"                                                                                                                                                                                                                                                                                                                                                                                                                                                                                                                1 . + Q.0X0Xk.x 3.:.+ + O + + + O > 1 < O O > 1 N x O + + 2 k 1 k B N N =.=.#.-.5.y.y.a.g.k.y.1.4.5.:.V V V B #.2 . . 6.                                                                                                                                    k . . > z k z 6.:.> + O O 2 f u f v N N N B m N ,.4.:.m z N 1 O + 2 V V N V ;.#.V V #.=.B N N m k k k 1 2 1 1 + + . 1                                                                                                                                                                                                                                                                                                                                               ",
"                                                                                                                                                                                                                                                                                                                                                                                                                                                                                                          k 2 2 . . > OX0X8X=.1 n Z > + O O O O + > f k u 2 - > 1 1 f f f 1 1 1 1 l m m V ;.-.C C 1.5.5.s.s.-.=.1.1.C m N z k x & . . n.                                                                                                                                    k . . > :.m.k z S 1 1 > - 1 k x f m #.N N :.-.' p.k.1.1.p.1.x x N k z x 1 1 x v k u m m z z x c - < 1 1 > > O . . O                                                                                                                                                                                                                                                                                                                                                 ",
"                                                                                                                                                                                                                                                                                                                                                                                                                                                                                                        f . . . . . #.0X6X0X1.k x k & + + O > = 3 1 k k x x 2 O . . m C C f O 1 2 > k B =.:.#.#.' =.4.1.5.5.-.#.#.V N C N 1 < 1 . . . p.                                                                                                                              . . . . O + Z l.d.3.2 1 a 1 2 2 u m ' ' =.;.=.;.,.;.5.c.v.k.k.x.c.1.C #.x 2 2 > O O + + 1 1 k x z z f & O > > . . . . . 1                                                                                                                 . . . . . . . . + + + O O O + .                                                                                                                                                                                                 ",
"                                                                                                                                                                                                                                                                                                                                                                                                                                                                                                        m . + . . X u 7X5XqXj.f x 1 + + O > > > O 1 f u z x - + . + x N V < + > > a k N 1.;.=.-.C C 5.5.5.q.1.C #.V V #.V k f 2 . . . 6.                                                                                                                              . . . . . . C b.d.>.1 1 1 1 1 > 2 V C V -.-.;.;.;.;.:.s.z.l.j.j.j.' x N l 2 > - O O + O f k k x N m x < = < + . . . + . >                                                                                                               + . . . . . . . + + . + + + + . . .                                                                                                                                                                                               ",
"                                                                                                                                                                                                                                                                                                                                                                                                                                                                                                        x . . o ) { b d.7X<Xx + 2 O + O O > > O > 1 1 f x m 1 + + + z N B x x m f < < k =.;.;.C k f N 1.1.1.B z N B m m m k > . . . . 3.                                                                                                                              . . + V C C :.=.Z > 1 k 1 x 6.-.l V C C =.-.;.;.1.1.V ,.c.j.g.j.k.1.z #.1.z x z > O O & 1 k k f z z f > > - + . . N                                                                                                                   >.. . X . . . + . . . . . . . . . . . . z                                                                                                                                                                                           ",
"                                                                                                                                                                                                                                                                                                                                                                                                                                                                                                        x . . u e.9.9.5.p.y.O . O 3 O O > > > O 2 1 1 k x m x O + + k Z V =.,.4.V > 2 k C #.V c k k a x k x k k k k 1 f k O . . O                                                                                                                                 2 + + . o p.c.v.3.+ O 2 1 1 k 4.a.y.,.V C C ' =.=.1.s.y.;.y.OXc.j.k.k.k.y.p.a.-.#.#.1 O > > > 1 1 1 f 1 > > + . . . .                                                                                                                 x . . . . . . x :.3.:.7.3.3.3.7.3.>.,.1.+ . .                                                                                                                                                                                           ",
"                                                                                                                                                                                                                                                                                                                                                                                                                                                                                                        N . . f r.{ ` q.y.k.V . 3 O O O > > > O > 1 1 1 z x f O + O z m #.;.;.1.C < a x C C n k k k k z x z k k z f < k k . . .                                                                                                                                 V . . . . . :.l.v.3.= > 2 < 1 x 1.q.5.;.C C V ' #.#.:.s.s.s.c.c.c.v.z.l.d.a.s.y.1.V V 1 + O O 2 > 2 a u 1 1 O . . . . .                                                                                                               O . . . . . . v 7X,Xv.v.v.v.v.c.c.c.v.tXcXk . .                                                                                                                                                                                           ",
"                                                                                                                                                                                                                                                                                                                                                                                                                                                                                                        a . . x z.w.<.1.;.3.k . + O 3 O > 2 1 2 2 1 1 1 x x O + O & k m V :.3.6.3.-.1.:.' V m k 1 1 > k z k k k k f 1 2 > . . .                                                                                                                               3.. . . 1 Z 1 :.c.3.V 2 2 > > x N =.y.y.,.C C ;.6.4.:.1.y.y.6.k.x.z.l.z.z.g.a.s.y.6.3.#.f 1 k 1 > > 2 1 > 2 > . . .                                                                                                                   1 . . . . x z & j.<Xj.l.v.l.v.v.l.l.l.c.5XuX;.. . C                                                                                                                                                                                         ",
"                                                                                                                                                                                                                                                                                                                                                                                                                                                                                                        . . . z v.v.v.f + 1 . . . + 3 O O 1 k k k a 1 k m m 1 + O > Z X.V 3.j.j.l.k.x.k.=.V #.z + O > 2 2 < z z z x - . . . . .                                                                                                                           6.k . . . k 1X7XoX,Xs.. - 1 1 < x Z N 7.s.s.5.C ' q.a.y.6.5.7.4.1.3.g.c.s.s.j.j.j.k.j.d.k.j.-.V #.Z 2 > > + . + + . + .                                                                                                               x . . + + . + 4.y.:.p.oXv.c.f.s.d.6.6.6.6.s.y.1.N 2 O . . .                                                                                                                                                                                     ",
"                                                                                                                                                                                                                                                                                                                                                                                                                                                                                                      k . . . z z.k.l.k O k > . . . O O O 1 k 1 1 a 1 f m m k + O > V #.C 1.y.j.j.s.s.j.' x N 2 . o - 1 1 1 m V V B + . . . . .                                                                                                                           2 . . . . N 6X,X3Xv.a O 1 1 1 1 x x m 3.a.a.3.C N ,.y.7.1.1.,.:.1.1.6.g.s.p.p.d.l.k.j.s.d.z.1.m C B 2 O > O . o O . . .                                                                                                             u . . . . . . > 7.6.1.N 6.,XoX>.C =.C C C C N x N V k 2 + . . 2                                                                                                                                                                                   ",
"                                                                                                                                                                                                                                                                                                                                                                                                                                                                                                    2 O + . . z x.c.j.a > k 1 . . + O O O 2 k 1 2 f 1 k B N k O = > x #.V ' 3.s.s.s.s.g.;.V #.f O > < 1 1 1 x N B l X . . 1 k 1                                                                                                                           S . . 1 2 k j.v.c.Z O 1 1 k z 1 k C V 1.s.s.4.V 1.s.a.5.1.1.a.y.1.3.p.j.c.j.y.j.z.k.s.y.a.a.C z V z O 2 1 > o + +                                                                                                                   N . . . . . > N 3.3.N k N p.d.=.m.m.m.C =.V V >.=.N N :.k > < O                                                                                                                                                                                   ",
"                                                                                                                                                                                                                                                                                                                                                                                                                                                                                                  > . . $ $ . 1 v.7X7.. + > O O O > > > O > k k f k m =.=.-.k O > > V :.C :.a.s.s.j.g.s.a.s.j.-.z m x 2 < < + x ;.1 . . 1                                                                                                                               k . . :.c.v.8.k C x O 1 1 z =.#.m 1.a.5.a.g.j.y.a.OXOXz.l.s.d.OXOXs.p.c.oXoXQ.k.l.v.c.y.=.;.#.k x N n 1 f k > . . c                                                                                                               + 1 O . . 1 C z 1.4.B N z V >.>.:.>.=.m.>.3.:.C 3.s.6.4.1XsXx.1.5.1 . O O                                                                                                                                                                             ",
"                                                                                                                                                                                                                                                                                                                                                                                                                                                                                                  . . + % 4 @ x 1X1Xc.1 . O O O O = > > O 1 k f k x N C ;.:.N O O z 1.1.1.y.s.s.j.k.j.g.s.s.g.,.x m x > > > k =.1.v . . 1                                                                                                                         . . . . . O d.c.c.f.N Z k > 1 1 N >.C =.a.y.q.s.s.a.k.OXoXc.z.z.z.c.x.x.c.z.c.c.c.c.c.j.s.s.5.#.#.#.x x m B z f k > . . k                                                                                                             . . . . . > N =.=.;.1.V N N >.:.>.:.:.m.-.6.7.3.3.6.q.p.x.6X5XOX=.:.C . . .                                                                                                                                                                             ",
"                                                                                                                                                                                                                                                                                                                                                                                                                                                                                                  . . X & b i x 7X3X3XN . o . O O O O O + 2 1 1 k x z m ;.;.=.> < ;.:.:.:.5.a.a.s.j.j.j.s.s.j.1.x m x - O 2 #.2.2.f . . .                                                                                                                         . . . . . . 3.oXoXl.:.N - > 2 1 k C V V 1.5.5.u.p.y.s.x.c.c.z.z.z.v.x.c.j.j.k.v.c.v.v.s.6.y.q.=.#.-.N x m V k > O . . . 1                                                                                                           . . + O . . + m #.N c x Z V m V >.=.>.=.:.6.6.3.3.3.3.y.p.:.l.5Xd.N C ' O . .                                                                                                                                                                             ",
"                                                                                                                                                                                                                                                                                                                                                                                                                                                                                                  . . . 1.3Xg.:.x.oX:.+ . . . O O o O > O > z z 1 l m ;.:.;.>.< > N ;.1.:.3.y.p.a.s.j.j.s.a.g.-.m B x > > 1 z #.1 =.                                                                                                                              . . + V C 1 1.d.p.3.k 2 + + f k 1 =.1.V =.s.7.1.y.y.y.k.OXc.z.z.z.c.OXOXj.j.k.j.z.c.v.p.6.a.7.' #.=.x z N k > . . +                                                                                                               . . . + . - 1 1 m l 2 1 k x V v V :.>.>.=.3.6.3.7.f.6.3.6.y.=.>.3.-.6.s.7.+ . .                                                                                                                                                                             ",
"                                                                                                                                                                                                                                                                                                                                                                                                                                                                                                  . . . s.3X1X,X1.B 1 . + . + > > O 2 1 1 x N x m N =.3.:.1.m > O > 1.y.6.7.q.s.s.a.s.g.a.a.g.5.B V B a < 1 + . . d.                                                                                                                          z . . . :.rX0X1X1.z z 1 + & + 2 V C #.p.s.5.s.z.a.5.a.s.s.oX<X1Xz.k.k.oX<X1XOXc.OXOXz.x.c.y.6.a.:.x x x k f > . . . .                                                                                                               . . . . . + m =.V m k k z x N =.>.:.:.:.:.3.3.3.6.j.x.j.y.y.p.:.V N 1.,X<Xx.O . .                                                                                                                                                                             ",
"                                                                                                                                                                                                                                                                                                                                                                                                                                                                                                  . . . 1.<XQ.,X:.x x > . + - > O > 1 1 1 x N x m V C -.,.3.V 2 = > 1.6.6.7.4.s.s.a.a.s.s.a.g.y.C C C k < 1 . . .                                                                                                                           . . . . . >.3X<X1X=.k x k 2 & O m V V ;.y.p.j.z.g.s.g.g.s.k.1X1X<Xx.k.j.oX7X<X1XOX1X1Xv.l.z.y.y.f.3.m v v z f + . . . .                                                                                                               . . . . O k z v N z k c z k Z >.:.:.:.:.8.3.8.3.d.,Xx.v.p.p.p.,.C V 8.c.OXz.- . .                                                                                                                                                                             ",
"                                                                                                                                                                                                                                                                                                                                                                                                                                                                                                  . . . g h.z.1X3.k v 2 . + + O O O > < < 1 N m x N N C 3.5.;.1 > > :.y.5.1.-.4.f.y.u.a.a.u.s.y.V C C k f 1 . . .                                                                                                                         1 . . . . . k x.c.,Xm.k x c 2 > O k V N Z 1.p.a.j.g.s.s.j.s.k.OX1X1Xk.j.j.oX3X2X,XoXoXOXs.q.y.p.p.d.6.m N m z k & . . O                                                                                                                 . . . . > v 2 O k 1 1 k k k Z =.>.:.:.:.:.:.:.8.6.x.c.x.f.f.7.' =.C :.z.oXl.= . .                                                                                                                                                                             ",
"                                                                                                                                                                                                                                                                                                                                                                                                                                                                                              p.k . . . M h.!.a.2 2 1 O + + O > O + 1 k u z N m V -.-.=.#.#.m 1 2 > C 1.:.;.:.y.s.s.s.s.u.u.a.#.x V N < > + . . . 6.                                                                                                                    6.. . . >.v.3.=.3.6.1.2 > k 1 2 > O k V N V 7.p.y.p.g.s.k.x.k.z.OX1X1XOXOXOX<X4X7XoXQ.OXl.6.p.p.1.1.7.;.m m m 1 O . .                                                                                                                   1 . . > 1 1 1 2 2 1 1 k k x N =.>.>.3.3.:.:.3.y.6.3.n.d.p.6.4.>.V V Z =.z.oXl.& . .                                                                                                                                                                             ",
"                                                                                                                                                                                                                                                                                                                                                                                                                                                                                            . . . . . . u.OXOXy.+ O + . + + 2 1 2 1 x x x N V m =.5.5.1.k f k 1 > f =.=.=.,.y.j.k.g.k.k.u.y.y.C l N m + . . . . .                                                                                                                 . . . . . . . 5XiXeXj.>.8.x . O O O 2 2 2 V V m -.y.6.q.a.d.j.z.Q.z.oX<X1X1X<X7X7X4X3X3X1XOX1XoXp.d.j.-.C =.#.m x x + . . .                                                                                                     . . .     2 . . . 2 v x 2 O 1 k 1 f x f N =.=.:.4.y.6.3.4.p.p.p.6.6.6.6.3.:.:.=.Z x =.c.oXl.O . .                                                                                                                                                                             ",
"                                                                                                                                                                                                                                                                                                                                                                                                                                                                                          d.. + . . . . 4.OXOXy.+ + O + + O 2 f 1 f z z z N Z N =.3.3.:.k k k 1 < N ;.=.C 3.a.a.s.k.k.j.u.y.u.X.k m x + . .                                                                                                                         . . . . . . c.yXrX1X8.3.>.O . + O 1 2 2 B ' N C q.y.y.d.j.k.z.Q.x.c.1X1XOX1X1X1X3X3X3X7X3X3X7Xz.d.c.6.C ;.#.1 k k + . . .                                                                                                     2 . . + + . . . O u N 2 . + 1 k 1 1 k a x V =.=.3.6.6.6.6.p.p.p.6.4.q.6.:.3.3.>.C Z :.1X1Xv.> . .                                                                                                                                                                             ",
"                                                                                                                                                                                                                                                                                                                                                                                                                                                                                          d.. X + o X & 5.z.z.#.. O O O O O < k f 1 f z z k m v =.7.7.=.1 1 f f x B #.-.=.1.a.y.y.g.g.s.y.y.y.C f x f . . .                                                                                                                         . . . k x 1 y.6X7X7.c >.=.& o O 2 z z f x Z x z -.-.=.a.k.j.z.Q.oXx.c.OXoXOX1XOX1X3X3X<X<X7XoXa.d.c.:.m C N < O + . >                                                                                                         O . . . . > 1 u z z z O + O 1 k u S z x N C C =.,.6.6.6.6.q.p.p.3.,.7.:.=.:.3.=.Z B =.d.OXc.> . .                                                                                                                                                                             ",
"                                                                                                                                                                                                                                                                                                                                                                                                                                                                                          f.. . * H R l.c.3.y.1.+ + O O O - f k f f z z x l k z =.7.7.=.1 1 1 z C V #.3.4.7.y.y.y.g.k.j.5.1.5.B 1 k 1 . . .                                                                                                                       N . . z rX6XoXy.6.y.1 . O - > 2 < k C C C x k k k k 1 x 5.5.2.j.oXc.oX1X,XOXoXoXoXOX2X3X<XoXoXx.7.7.7.k 1 k 1 . . . O                                                                                                     . . . + . . O m #.=.#.-.x O > > 1 k k 1 x =.=.' C =.3.3.3.4.6.6.6.6.7.-.=.>.>.=.=.C Z Z Z B 1.a.1.+ . .                                                                                                                                                                             ",
"                                                                                                                                                                                                                                                                                                                                                                                                                                                                                          d.. . X p [ c.c.5.y.4.O + O O O O 1 k f k x z x k x V -.3.1.#.1 2 2 k B N ;.5.4.7.4.7.y.k.j.k.y.2.5.#.f l k . . .                                                                                                                       V . . z 6Xv.d.6.6.s.#.O O O > > 2 f N V V k u f 1 k f z 5.y.5.k.oXc.oX<X1X1XoXc.c.OX3X3X1Xc.oXoXy.6.6.x 1 z 2 . . . +                                                                                                     . . . X . . . f V C -.m > O > > 1 a 1 u z =.:.=.C :.4.3.3.4.6.6.6.3.3.:.>.>.>.C V Z N Z Z C 6.a.:.. . .                                                                                                                                                                             ",
"                                                                                                                                                                                                                                                                                                                                                                                                                                                                                          p.. . . 1 q.a.k.1.1.v . + O > > O 2 k k k z x x m #.#.C :.1.V k 2 > B C v :.p.7.1.1.5.q.g.k.k.y.5.y.:.k z k . . .                                                                                                                       >.. . > s.b.d.4.8.y.Z O > - 1 1 > 2 Z C V z k f 1 f f f ' 4.6.k.oXc.l.,X1XQ.c.oXoXOX3X3XoXj.c.,Xy.7.t.N 1 k > . . .                                                                                                       . . o . . > O > x ' Z O . O 2 < 2 1 u u l C #.=.=.=.:.4.3.:.6.q.8.:.:.:.;.;.=.N N N N Z Z X.5.y.#.. .                                                                                                                                                                               ",
"                                                                                                                                                                                                                                                                                                                                                                                                                                                                                        O > . . 1 l.oXk.1.V C = . + O > > > 1 k k f z z x C =.V #.1.4.-.x k z #.#.;.j.z.s.5.g.k.g.s.j.s.5.5.y.B 1 k 1 . . .                                                                                                                 =.k + 2 X . ;.c.v.z.x 2 k 1 2 > 1 #.=.v v =.-.=.;.;.;.#.z f 1 k x N 3.y.y.p.l.z.j.oX<X1Xc.j.Q.Q.s.z.k.=.C =.1 . . . . .                                                                                                       k X o . O ;.3.X.m N k O O O 2 k f 1 k x x N C V C >.=.=.:.>.m.:.3.:.:.1.:.Z B N N N N N N V x 2 > 2                                                                                                                                                                                   ",
"                                                                                                                                                                                                                                                                                                                                                                                                                                                                                      Z . . . . z 7X1X7X1.Z ' k . + O - > > f k k k z x x C #.N ;.7.5.:.z z N =.#.1.k.k.g.j.k.k.j.s.g.a.4.5.y.N 1 k 1 . . .                                                                                                                 . . . X o . 5.6X3Xj.> = > > 2 > f =.=.=.=.=.-.=.;.:.1.;.v x k z z k :.6.3.y.k.g.j.OX<X1Xc.s.d.z.s.j.z.=.N C 2 . . . . .                                                                                                     > . + . + 1.s.3.#.C n + + > > 1 k 1 1 z N n Z C C =.>.:.>.=.=.=.>.:.:.:.3.>.N N N N N N x m N k . . O                                                                                                                                                                                   ",
"                                                                                                                                                                                                                                                                                                                                                                                                                                                                                      + . . . . > oX3Xc.=.X.;.N + + + + O O > k k k z z x V V B =.5.;.n z z m -.;.;.g.j.s.g.j.j.s.a.s.a.5.5.y.V u l 1 > 2 O                                                                                                                 + . . . . k s.3X6XOXz - 2 > = > 2 C #.#.#.#.=.#.#.;.:.V c m m z z x :.7.1.6.z.k.k.,X3X,Xc.k.y.y.s.g.j.=.V =.2 . . . . +                                                                                                     - . . . o 3.q.3.:.N + + > > > > 1 u 1 k x x N V Z C :.>.>.>.=.=.>.>.>.:.=.Z V Z Z V Z 1 k x x k + . O                                                                                                                                                                                   ",
"                                                                                                                                                                                                                                                                                                                                                                                                                                                                                      O . O u > k l.v.1.1 x x 2 + + + - 2 > 1 k k k z z x V :.5.3.7.:.N z x N 1.3.;.5.g.s.s.z.Q.j.s.a.p.:.#.-.l & O f                                                                                                                       + . . N =.s.j.y.:.;.k > > > k z u #.1.5.1.C C C q.s.y.;.7.s.;.z Z N ' ;.#.-.s.j.g.z.OXc.k.a.y.y.1.;.#.f 1 1 O . . >.                                                                                                        . O x k m 1.7.1.V f > > > 2 > 2 k k u z N v N V Z V =.>.>.>.>.V C >.#.B Z N A N N l f 2 1 k N 1 . . O                                                                                                                                                                                   ",
"                                                                                                                                                                                                                                                                                                                                                                                                                                                                                      . . u x l N 3.7.5.u + O O O + + 2 2 2 f k k k k z l ;.y.q.6.5.y.1.x x B ,.,.-.4.j.j.z.oX1XoXs.a.y.V v B 1 . . 1                                                                                                                       + . . q.OXv.6.k k k 1 2 O k B N V 5.q.5.5.#.V =.s.j.j.k.Q.oXj.C N N m m x ' a.s.a.k._.c.j.5.y.5.z z m . . . + + .                                                                                                     . . . . k 7.7.6.3.p.=.1 1 u 1 < 2 2 k z k z Z Z Z N #.=.m.=.>.:.>.C V V C N x m x z x z 1 1 1 > v ;.x . . O                                                                                                                                                                                   ",
"                                                                                                                                                                                                                                                                                                                                                                                                                                                                                    > . . > f < z 1.7.6.x + = = - O O 2 2 O > k k k z k k ;.6.7.6.6.a.1.m N N #.;.:.s.z.k.oXOX1X,Xd.s.y.V m V f X . O                                                                                                                       O . . :.v.v.y.z x N k < > 1 m N N ;.7.3.1.' C #.7.s.g.j.z.z.j.B z x m m x ;.j.j.g.c.c.c.l.y.a.5.m m N + . + . . .                                                                                                     + . . . k 7.1.1.7.=.x k S 1 1 2 > 1 k k k x Z Z Z =.:.C C C >.:.>.V C C V v x N z z x z a 1 1 x :.;.N + . O                                                                                                                                                                                   ",
"                                                                                                                                                                                                                                                                                                                                                                                                                                                                                    . . . 2 N < k ;.;.1.1 + O O O - O > < > > f k > > k k C 1.1.5.a.a.5.V V V V #.:.s.l.j.j.c.<XoXs.p.7.N v N u . . +                                                                                                                       O . . ,.z.z.p.k z A k 1 2 1 #.#.x #.5.5.:.V C C 5.k.k.d.j.z.k.;.m x x m x C d.k.y.y.c.c.a.5.p.5.m m m + . . 1 2                                                                                                       . . . . 1 :.>.1.=.O > k S 1 1 2 1 k k l x N Z C C =.-.C C C =.>.C V V V V N x z 1 1 z z 1 1 1 V ;.:.N . . O                                                                                                                                                                                   ",
"                                                                                                                                                                                                                                                                                                                                                                                                                                                                                V . . . 1 7.6.3.Z 1 k f . O O O O - O 1 m x f < 1 + O k m :.1.-.p.1XoXa.V V V V V ' y.v.j.6.y.c.l.7.5.y.C z m > . . k                 z . . :.                                                                                        . O + . . . V 3.1.x + 3 2 k k 1 #.5.:.=.6.q.5.y.7.1.5.j.v.z.j.k.z.j.y.q.7.x f k x X.=.C 1.j.a.1.#.;.C 1 O + . . .                                                                                                     . + . . 1 C =.Z z x N 1 1 k u k z x k k k z V V Z V m.=.C C m.m.C V V V Z Z N N x k k 2 < 1 1 2 2 > N #.2 + . . O                                                                                                                                                                                   ",
"                                                                                                                                                                                                                                                                                                                                                                                                                                                                                k . . . k p.6.y.>.a k f O + O O - > 2 N V B m f > > k z N :.4.q.z.1XOX3.N Z V #.N V c.c.Q.j.s.c.v.t.6.6.V x N > . . k               C . . . +                                                                                         . . . . . . z :.x . . . > k k u B 1.;.8.q.q.6.y.d.a.y.j.z.l.k.k.k.j.6.5.5.m u k n #.C C f.a.y.5.;.;.#.+ . . . . .                                                                                                   k . . . . V :.=.V x N N 1 k 1 1 x N m z k k A C V Z C =.m.C C m.=.C V V V Z N N m k k z f < 1 1 2 > 1 V 1 . . . . +                                                                                                                                                                                   ",
"                                                                                                                                                                                                                                                                                                                                                                                                                                                                                m . . . O ,.6.3.:.k z x > . + O & + 1 V m N B 1 . . 1 m N m k 1.x.j.x 1 V V V Z > O s.<XOXz.5.l.l.y.y.3.x N m O . . 1               > . . . . .                                                                                       . . + & > + >.#.. . . + 2 1 u 2 z 1.;.#.4.y.6.y.a.s.q.s.z.k.k.j.j.g.5.5.5.x k l x #.#.N 1.a.a.1.;.:.#.O . . + 2                                                                                                     2 . X . + v =.#.V B =.V 1 f < 2 m N m z k f x C V Z V C C C B C =.C V V V N m N x k z z f < 1 1 > > c < . . +                                                                                                                                                                                         ",
"                                                                                                                                                                                                                                                                                                                                                                                                                                                  N N C                       k + . . O =.c.6.6.C . 1 a . . + + + . + m V z 3 . . . . f k + . + S > . . 1 C x + . . > OX<Xx O > m y.y.p.#.N N 3 . . 1           C x . & W o . .                                                                                     c . . 1 7.8.C >.:.k . . > > n V m 1.s.y.5.5.y.q.q.a.s.a.q.y.y.a.j.g.s.j.oXOX1.#.;.V k k 1 x :.=.1 N #.a . . 1                                                                                                       N . . + :.3.-.3.6.#.k z k k z k k m m m C V z N C C C C C C V N Z Z V V V V m m m z k k k 2 > 2 > O + > . . . 3.                                                                                                                                                                                        ",
"                                                                                                                                                                                                                                                                                                                                                                                                                                                  . . +                     . . . . 1 1 6.rX,X4.< . + . . . . X . . . + 2 K.Q . + . . . - X . *.#XX . . . = + . . . . 2 1 . . . 2 a.y.d.;.N C 1 . . 2         O . . . O.{.s . .                                                                                   + . . . 1 5.1.:.=.:.1.k > 2 2 Z #.C y.j.g.s.y.q.q.y.j.j.g.6.4.4.y.g.s.s.1X2X3Xj.;.3.C 1 1 1 z m z k z N x . . 1                                                                                                   . . . . . N l.d.p.y.5.m 1 1 1 z c c v v v N C m.V Z C C =.=.C C C Z Z Z V V V V x z z k k 1 1 2 O 3 O O O O . . .                                                                                                                                                                                           ",
"                                                                                                                                                                                                                                                                                                                                                                                                                                                  . . 1                     + . . . > X #.5X5X7.> o o o . . . . . . . X O..X Xy . . . h %XL.E.:X:X#Xo . . . - , . . . l , . . . S f.f.d.=.V =.1 . . k         . + . . Q I./ . .                                                                                 =.. . . . X C >.#.:.1.5.=.o < k m V B :.d.s.p.q.y.q.p.j.j.s.7.4.3.5.s.j.j.oX7X3Xy.=.:.N 2 < < k z c x n V l .                                                                                                       + . . . . Z d.d.B ' 1.k k 1 1 l k k z x N N V C C V C C C C C m.C V V C V C C V x k k z 1 < 1 2 + O > > - O . . .                                                                                                                                                                                           ",
"                                                                                                                                                                                                                                                                                                                                                                                                                                                  X % i     d.              + . . 1 Z N 3.7X1XN + o o . j W e %.*.; g +XmX&X X%XP.h *.;X:XzXAXnX:X:X#X*.*.@.*XcX;.m u.LXvXj ; j *.E.1.k 1 k u O . . 2       x . . r @.K.`.r . .                                                                                 > . . - . O 3.s.:.m #.#.x + = k V ;.#.;.a.s.y.y.y.q.y.s.d.y.4.3.3.3.p.s.s.j.3X<X7.1.1.m > < 2 k C #.k > < Z                                                                                                         . . + z z N 3.Z + 2 N k k 1 1 m V Z x N N N C C V V C C C V V C V C C C V N N Z z f k k 2 > 2 O + O O O + . :.                                                                                                                                                                                              ",
"                                                                                                                                                                                                                                                                                                                                                                                                                                                  7 Y I . . .         . . . . . . :.,Xc.l.:.k . . . + + @.I.Z.`.&X[.%XHXHXHXzX:XzX;X:XzXDXJXJXJXHXzXzXnXzXzXnXHXHXSXDXHXHX*XD.U.{.&XW . . . . . . . . . . . . . . O.-X:X*X. . .                                                                               Z . . > z > Z 1X1Xc.N 1 1 1 2 O - >.5.1.7.a.a.a.p.y.q.y.p.p.y.7.3.3.q.y.6.y.oX3X<Xl.y.a.;.2 1 < 7.j.j.k . .                                                                                                     . . . . . 2 3.3.;.=.> + 3 - k k 1 k >.>.:.=.N Z N V C V C C C C C C C V V C m.Z z z x k f f f > O O + O O + . . .                                                                                                                                                                                                 ",
"                                                                                                                                                                                                                                                                                                                                                                                                                                                  q T Y . . . + 1 f.1X. . . . . . :.1X1X6.. . . . . . Q C.A.S.L. X.X XDXHXJXAXzXmXzXzXAXJXJXJXJXHXnXnXAXAXAXnXHXJXJXmXHXHX*XF.D.D.C.~ X . . . . . . . . . . . . . Q -X:X*X+ . .                                                                               =.. . > 2 X C 7Xc.,X;.2 f 1 2 O o =.3.:.,.y.y.y.p.y.q.y.y.y.a.5.4.4.q.y.6.y.1X<X1Xj.5.y.;.2 2 1 p.z.z.x . .                                                                                                     . . . . . O ;.;.=.1.k + > > k k 1 z ;.>.:.C N N N N x Z C C V C C C C C C C C N x x x k f k k 2 > > > - O - . . .                                                                                                                                                                                                 ",
"                                                                                                                                                                                                                                                                                                                                                                                                                                                  # U U j b ` - . o N o . + . . . B h.!.2., %.M X f *.`.I.L.P.`.}.}.].bXAXbX;X;XlX%X$XlXmXFXbXbXlX*X*X#XbXkX%XbXbXbX$XkXmX*X`.XXU.U.XX` 1 ,X6.$ g j , . . . ; r % O.;XmXdX+ . .                                                                               z . . . k V =.3.p.l.Z > a 1 > 2 < -.7.;.=.y.s.a.y.y.y.y.s.j.a.6.a.y.6.y.q.y.x.OXoXy.1.q.C 1 f k :.y.a.k . .                                                                                                     . . . 1 O O B =.;.C O + > O 2 k 1 k :.3.1.#.C C N z z x V V V V V C C V V V Z x z z x f 1 k a > > > > O = O . . .                                                                                                                                                                                                 ",
"                                                                                                                                                                                                                                                                                                                                                                                                                                                  . . - *XzXzX%.. . . . o + + . . t Y U / ;XzX:XXX=X:XzX;XlXFXbX|.|.}.=X%X].].G.Z.V.C.J.[.|.}.}.I.~ Y Y o.S.o.C.C.C.I.'.`.kXnXmXbXHXJXFXGXJXLX*X%X&XXXo . o Z.A.o.XXJXJXVX- . .                                                                         = + . . . . x c.<Xy.> k z 2 O > 1 x N C y.a.5.1.p.j.k.y.q.q.s.OXOXj.k.oXz.a.q.6.5.s.k.k.q.,.1.N k z m N m m > . .                                                                                             1 . + . . . z 4.:.C O < c 1 2 O O O 1 k f x 6.y.6.5.6.y.1.x x x N V V V V C C V N Z Z N k f k < 2 1 2 > > > + X X . . . .                                                                                                                                                                                                 ",
"                                                                                                                                                                                                                                                                                                                                                                                                                                                  . . O =X:X:X%.. . . . X + + + . t ~ Y L.zXzXzX-X-X:X:X:XmXDXmX&X&X&X|.}..X}.D.V.A.G.H.H.}.|.|.U.o.( o.V.S.S.G.C.D.$X{.`.=XmXmXmXJXJXHXJXJXJXlX|.&X$XX . . o.A.~ #XJXJXSX< . .                                                                         + . . . . . 6.7XOXs.1 f f > O + 2 V V V 6.s.y.y.s.s.j.6.6.6.s.oXoXoXc.z.x.g.6.4.7.j.k.k.u.,.1.C z x v N N m + . .                                                                                             > . . . . . x 3.1.m o = 2 1 1 > O O u k 1 V p.5.7.7.7.6.5.m z x Z C V C V V C V Z Z Z N k f k 2 2 1 1 > O k 1 . X X . . .                                                                                                                                                                                                 ",
"                                                                                                                                                                                                                                                                                                                                                                                                                                                  . . $ *X:X:X%.. o . . . . o . . y J.J.}.zXzX:X{.$X:X;X%XlXAXmX&X-X-X[.|. X|.D.Z.A.H.H.G.|.&X X`.S.A.A.A.G.A.J.F.I.$X$X{.=XnXmXAXJXJXDXHXJXJXlX%X&XXX. . . T A.~ #XJXJXSX< . .                                                                         O . o . . . :.3Xj.Z 1 k k > . + 1 N B m 1.a.q.y.a.j.s.4.4.6.s.Q.Q.Q.z.c.c.g.7.5.q.j.z.l.7.;.1.V z v m x z < .                                                                                                 + . . . . o z 7.C = - < < 1 1 > O > f k 1 V y.7.3.3.3.7.1.z z x V C V C V V C Z Z Z Z x f f k 2 2 1 1 > < Z k . X X . . .                                                                                                                                                                                                 ",
"                                                                                                                                                                                                                                                                                                                                                                                                                                                  . . o P.U.I.E.#X*X&.% e R I.I.L.*XbXbXlX%X{.{.D.Z.I.L./ @.P.P.Z.L.Q U Z.L.L.S.S.A.+.r t W W Q h e R d r U d d t e h h h ` &.&.&.E.i.i.XX#XXXP.{.&X%XXXXXXXI.L.L.P.P.P.*.X >                                                                     k   x + + X 1 N N z z 2 . 2 1 1 1 < 2 x >.;.;.7.y.y.q.5.a.j.s.j.z.x.Q.oXz.2X0X0X1Xa.d.d.s.j.j.1.m N x z m m O . .                                                                                                 N . . . 2 2 1 k v k 1 k z l z x k k k > > 2 u 1.3.:.7.y.y.7.C >.>.Z V C C Z N Z m z z z k f k 1 - > > 2 - > 1 > X . k                                                                                                                                                                                                       ",
"                                                                                                                                                                                                                                                                                                                                                                                                                                                  . . X @.Z.o.XXzX;XK.s U T }. X|.mXJXHXDX[.J.H.G.o.( ( Y Y Y U I 7 . y ~ U ~ S.o.S.R . . . . + + . . . . . . . . . . . . X # @ 6 U y y ( ~ ~ Z.U.$X&X;X:XzX$XI.`.Z.F U y . f                                                                     . . . . . . C 3.3.k . . . > > - a k 1 x ,.1.1.y.y.y.q.7.y.x.x.x.z.j.x.oXOX5X0XrX5Xz.j.g.g.d.j.=.k x k f x n . . .                                                                                           z . . . . . . 2 2 2 1 1 1 k z v v m N m x z > O O 2 :.1.:.7.a.a.s.s.d.6.C C C C N x N m k k k k f k 1 O O - > > + . . . . N                                                                                                                                                                                                       ",
"                                                                                                                                                                                                                                                                                                                                                                                                                                                  . . o Z.L.Z.XX;XP.I y y s D.[.[.bXJXDXbX[.].].J.C.J.F.~ ~ / T r % X I +.o.o.o.o.V.I . . . . O O . . . X X X . . . . . . e y y s / Y I Z.S.S.I.`.[.&X:X:X:X`.L.U.@.U I U . .                                                                     . . . . . . V 3.1.z . + + O > > < f < k ;.;.>.5.y.q.q.5.q.k.k.z.a.y.d.Q.oX5X8X0X1Xy.a.s.k.z.j.' z x z k x m + . .                                                                                           C . . . . . . 3 > O > 1 1 1 k v v m N x z f > O . 2 3.1.:.q.s.s.s.d.j.d.=.V C V N m N m k k k k k k k > - > 1 1 . . . . . .                                                                                                                                                                                                       ",
"                                                                                                                                                                                                                                                                                                                                                                                                                                                  . . X O.Z.@.XX(.O./ ! / T Z.$X%X=XkX=X`.F.J.H.o.~ Z.+.y s U e X o . r ! ! @.L.L.G.I . . . 1 f f k > + O O O O + . + O O ; r e r U d d Q Q Q @.L.L.L.%X=X=X`.`.`.@.U T d . . .                                                                 3.. . . . k C N :.=.k + O O < 1 > k B k x -.#.:.y.s.a.y.a.j.z.k.j.a.q.l.c.c.5XqX0Xc.a.j.j.g.g.s.C k z k k x x + . .                                                                                           z . . O 2 o O > > > > 1 1 1 k z N C Z x x x < O + 2 C =.=.7.j.a.y.d.j.j.1.V V V N z x z k k k k 1 k 1 2 2 2 2 & . . 2                                                                                                                                                                                                             ",
"                                                                                                                                                                                                                                                                                                                                                                                                                                                  . . . d I U O.@.+.Z.U.[.I.kXmXbX$XJ.J.C.U ! I $ . . . . . . . . . . X O . P.&X}.-Xi.. . x 1.:.;.:.;.z k k c k f 1 1 k l > . + . . . . . . . X % % 7 O.O.+.%X=X%XL.O.K.Q . . . .                                                           + O . . . . =.x.Q.#.> > 3 > 3 2 x k 1 #.1.:.=.#.1.s.j.k.z.k.OX<XOXc.z.k.d.v.c.Q.0XeXeX5XOX<X,Xa.y.s.V u l z < > O . . .                                                                               O 2 2 > 2 . . . X -.#.k 1 1 1 2 1 z z x x x C =.' V C V l 1 u 1 1 k z =.6.3.3.s.g.d.s.C m V x k k k f f k 1 2 2 2 1 1 O . . . .                                                                                                                                                                                                               ",
"                                                                                                                                                                                                                                                                                                                                                                                                                                                  . . . y Y U O.Z.S.D.}.[.H.lXmXzX%XF.G.A.I y X . . . . . . . . . . . o & . *.|.=XAX+X. . N 3.:.;.;.1.V k k 1 f f 1 1 1 k > X + + . . . . . . X t 7 r O.~ / $X%X%XI.@.L.@.. . X . O                                                         . . . . . O d.v.z.V . O > > O 2 z f k #.:.:.;.#.y.j.g.j.j.z.1X1XoXoXx.z.z.z.k.z.0X0XqXqXOXOX1Xs.y.s.' k z z 1 O . . . .                                                                               . . . . . . . . v 1.z 1 1 1 1 1 1 x k z x m C C C V V V z f k k k 1 c >.4.3.3.s.g.s.a.V A V m k k k f f k 1 2 2 2 1 1 . . . . .                                                                                                                                                                                                               ",
"                                                                                                                                                                                                                                                                                                                                                                                                                                                  . . . s T U T S.S.F.[.[.I.#XlXzXXXG.H.L.R $ . . X . . . = 2 O . . . o - . @.&XAXHX+X. . - ;.1.;.;.3.N - z -.k < < f x N > . . . . . . . . . $ y y s @.@.O.`.%X$XL.Z.L.@.. . . . 1                                                         . . . . . . =.y.6.> . > O O O - f k k ' ,.;.-.#.2.g.j.j.j.j.Q.OXoXz.z.c.c.k.a.y.3XeXrX5XoXOXoXy.u.d.#.k x x 1 X . . + +                                                                               . . . . . . . k 6.#.> O 2 1 1 1 x m x k z B C C V B N Z z f k k u k x =.3.3.:.3.g.g.5.N N V N k k k f k l u 2 > > 1 O . . . + .                                                                                                                                                                                                               ",
"                                                                                                                                                                                                                                                                                                                                                                                                                                                z . $ U @.Z./ O.$X=XU.S.A.T @ &.`.Q s / h o . . . + O + 3 2 2 1 > > 2 O O . Q D.U.lX+X. . C j.a.a.l.c.6.;.d.oX5.B =.a.k.l.3.5.1.x z x z > 2 1 - $ $ $ d d r Q O./ / Q Q Q P.K.*.; . x                                               N     + . . Z 3.C z m N N + k V m x 1 1 u 1 2 v 5.1.,.1.4.4.s.z.z.z.c.oXoXs.s.j.l.c.v.s.<XeXqXOXj.c.j.;.:.1.m k x u . . +                                                                                   > X + . . 2 ' x N C x O O f x k x #.:.1.#.V C C C #.V Z Z m m V z 2 1 f N V C m z :.:.C N Z Z x l z k 2 1 1 1 > + + + . . 1                                                                                                                                                                                                                     ",
"                                                                                                                                                                                                                                                                                                                                                                                                                                          :.. . . % Y o.D.D.A.$X;XlX$Xo.o.T 7 y ~ I > + . . . . O 3 = O > 2 2 1 f k k + . . U o.( `.E.+ . s.<Xz.c.OXoXoXoXz.j.j.s.j.z.z.c.OX<X1Xq.C =.V u f l > . . . . . . s T Y ! U s Q $X$X%XW . . >.                                1 . . 1 N . . . . . . + y.g.s.7.N B N N V #.=.-.C x 1 1 > m 5.5.5.5.1.1.a.z.k.c.OXOXoXs.s.s.x.oXv.z.5XqXeX5Xg.j.j.=.#.=.x f k > . . 2                                                                             O . . . 2 1 + 2 :.:.=.x z k O < f x m V 3.6.6.4.=.C C C =.V Z Z V V C N 1 2 > z x z x N Z Z V B N Z m c z 1 > > 2 1 O . + . . .                                                                                                                                                                                                                       ",
"                                                                                                                                                                                                                                                                                                                                                                                                                                          >.. . $ I Y Y Z.Z.S.%X;X;X$XV.S.o.r Y Z.Q - . . . . + O O O + = > 2 1 1 1 1 . . . I S.V.=X5X+ . 7.OXk.k.z.l.k.j.j.d.p.y.a.k.l.v.z.k.c.y.m V m u f k - . . . . . . R O./ Q I R Q `.{.{.j . . =.                                C . . . . . . . . . . + 5.s.s.3.C #.C m B C C V #.z > 1 > #.y.5.5.5.1.1.s.x.k.c.Q._.c.s.s.s.k.c.j.j.5XeXyX5Xj.z.s.=.=.=.x f k > . . 2                                                                             + . . 2 1 < > N 7.:.N O 1 k 2 < 1 k k z :.3.1.;.#.C C C C V Z V N m V x 2 > > k m x x N =.>.C V N B N z k 1 > > 1 1 O + O . . .                                                                                                                                                                                                                       ",
"                                                                                                                                                                                                                                                                                                                                                                                                                                          =.. . t U U I Z.L.A.I.$X%XP.~ o.~ X t +.R 1 O . . O > O O > > O > < f x z S X . . d ~ ~ *XwXO + 1.OXj.g.d.k.l.k.l.g.a.a.s.v.v.v.z.z.z.y.' ' V u u g & X . . . . . h Q W ! U U s K.I.I.j ; ; v                                 :.X i - . . . . X 1 N =.;.6.6.' z V z & l V C -.1.N = 2 > C 5.4.1.5.4.1.u.k.j.z.c.z.z.g.s.p.y.d.z.k.2XqXeX3Xd.l.s.=.=.=.z < 1 + . . 2                                                                             . + + > 2 2 1 1 z -.k + O 2 1 1 1 z N x V 3.5.;.C =.=.C C C C V N C #.k 1 1 > 1 k z z x V V k f N N k 1 a 1 = 2 2 > + . .                                                                                                                                                                                                                             ",
"                                                                                                                                                                                                                                                                                                                                                                                                                                    1 > > + X . R U.@.W U.U.U.+.Y o.y + $ X . . X > x z > - 2 2 > > 1 2 1 k k l v m x k l k O X X e h O = u.Q.j.g.d.k.k.l.l.k.j.z.v.k.7XoXz.k.g.g.y.y.q.h w 6 4 4 # X . . . $ $ + % y r r s I U Q O.O.h . O x                     V > 2 i E } R a V 2 2 =.3.6.6.=.v m l i t e & < m 1.6.3.1.x O > f m v #.q.5.5.3.7.7.g.,XOXj.s.k.g.q.s.OXoXOX1X7XoXs.d.g.=.C #.2 . o . . . 2                                                                         > + > 1 1 O > 2 1 1 2 1 1 1 O > k 1 k :.1.;.3.d.j.y.1.,.3.;.=.>.;.=.#.;.:.C x x k > O 1 n N < O O > k k 2 O > > 2 1 + . . . .                                               . . . 2 > 2 2 2 2 2 2 2 2 >                                                                                                                                                   ",
"                                                                                                                                                                                                                                                                                                                                                                                                                                    . . . . . . h $XXXP.U.U.I.Z.+.Z.! . + . . . . 1 z k k 1 > > > 2 1 2 k k k z x n m x x m > . . + > + . y.oXj.j.z.z.v.c.z.v.z.oX1X%.r.<XQ.z.z.u.b ] 2.p p p 5 4 # @ . . . X $ . o y r r ! I I ! Q / j . . k                     z . . 7 H F e a =.;.1.3.;.3.7.C l x l w 0 4 , l x ,.7.1.:.> . + k x k V y.q.7.5.q.7.j.<XOXc.s.s.s.s.OX,XoXOX1X<XOXs.s.s.;.C #.1 . O . . . >                                                                       . . . < > O O O O > 1 1 k x 1 O 1 k 1 z 1.:.:.p.d.s.s.3.:.,.:.:.>.=.=.=.=.;.C k z z 2 O 1 N N 2 + O 1 k k 2 + + > < O . . . . .                                               . . . . . . . . . . . . . .                                                                                                                                                   ",
"                                                                                                                                                                                                                                                                                                                                                                                                                                    + . . . $ . j `.P.K.U.U.@.@.A.L.W . + o . . . < z k 1 > > > > > 1 2 1 k l z n m m n m V > . . . O + o 6.oXg.c.u.M z.w.b u.1X7X2.8 5 h.1Xh.!.] @ 5 R R p p 7 # # @ . . . . . . X y r r R ! Y O.O./ ; . . z                     m . . . 7 p X + :.t.4.1.z x ;.V z m g 4 5 * c x v ;.1.1.#.< 2 + 1 x k N y.y.q.q.q.3.p.1XoXoXd.s.s.s.z.OXQ.,X<X3XOXp.p.5.C ' =.u + + O 1                                                                           . . . 1 O o + + . . < f k x k 1 < f f z ,.,.;.7.s.s.a.;.-.:.,.,.>.=.=.=.=.=.V z x z > O < n x > O O 1 k k > . O < > . . . O                                                   . . . . . . + . . . . . . .                                                                                                                                                   ",
"                                                                                                                                                                                                                                                                                                                                                                                                                              :.3.=.X . . Q @.Q O.+./ Q h r $ e j j o . . X . . . O 1 1 > > 2 > > 2 1 1 1 k f k m m m C ' #.B x x > + + . g y.OXw.e @ l * @ w r.<.4 8 5 w b u u % 4 4 6 p i e $ @ # @ . . . ' :.C i r r r % t t P.$X$X&.. . N               6.3.6.2 . . < C :.Z x b #.1.=.k u z B B B v b -.$.N V =.;.y.k.7.1.3.;.x 1 k k z -.y.C V N =.j.j.s.s.g.g.s.k.OXc.z.c.OXs.7.y.5.C N N > . . 2                                                                           z < 1 1 > + + O > + - 1 k k v C m k #.,.,.y.a.6.5.y.p.;.V ' :.3.,.=.>.-.=.>.=.#.V C V k k z k f k k 1 > 2 > & > 2 - . . . 1                                                   > O x x l 1 z C N . 1 Z O . . 2                                                                                                                                                 ",
"                                                                                                                                                                                                                                                                                                                                                                                                                              . . . % % % @.L.K.@.I T Y . . . . . . . . . . . . . O > > > 2 2 > > 2 1 1 1 k 1 k m m m ' #.#.;.,.#.z = . . # r 2.p # 4 @ # 4 5 8 8 8 8 5 4 @ X . @ 4 4 4 4 % X X @ # @ . . . yXLXVXq.@ r r % % $ &.{.$X&.. . m               . . . . . . N 6.3.;.p 8 p =.V l z z V ] B C 5.u.u.1.,.1.,.k.<Xg.3.6.y.N 2 f u 2 k #.N N z C a.u.a.s.g.j.x.OX,XOXv.z.c.p.5.5.5.N k n & . .                                                                         . . > N n c O O O > 2 > 1 k f a x ' N =.p.a.a.j.l.j.a.y.p.=.V ' =.:.:.>.-.;.=.=.=.=.#.C #.m x N x z x m z > & O > < 1 O . . .                                             k . . . . N p.1.3.=.=.:.>.n V :.1 . . . . . .                                                                                                                                           ",
"                                                                                                                                                                                                                                                                                                                                                                                                                              . . . 7 7 @ Q L.Z.O.T O.T . . X . . . . . . . . . . + > > > > 2 > > 2 1 < k k a k m m N C ' ' #.;.#.m + . X 6 5 5 5 4 # # # 4 5 8 D D 8 5 4 @ @ 4 # @ # 4 4 # @ @ @ # @ . . . yXJXJX3XX e r o X X @.`.`.{ . . A               X . . . . . C 6.3.-.7 8 p C X.x x b ] #.C :.w.r.0.<.:.;.s.OXoXc.1.4.1.1 2 1 1 k u k N m z -.j.s.a.k.z.l.v.OX,X1X,Xc.v.y.5.q.7.x k m > . .                                                                         . . - x z z > O O > > 2 > < 1 1 z x l C y.y.y.j.j.j.a.p.s.q.V C C =.>.C -.;.>.=.=.=.' C C x z N N x z x x > > > 1 1 2 . . . .                                             1 . . . f y.y.3.7.C V V Z N m V 1 . . . . . .                                                                                                                                           ",
"                                                                                                                                                                                                                                                                                                                                                                                                                            3.. . . W @.R W O.Q U s Q h . . . . . 1 f . . . . . O + > > > > 2 > > 2 1 1 k k f f x m x m ] ] ' ;.,.#.e 4 4 5 4 5 5 4 6 0 5 8 q D D D D 8 # @ # q 8 # 4 5 # # # @ @ # # . + . s.0XNX3XX X $ . . . W L.L.Q o X 2   :..         . . . + O + x ;.,.b @ 4 r i b ) ) E ) ] #.1.y.u.i.h.d.q.c.OXoXoXj.2XoXB z m z 1 1 u m N k x -.1.:.3.s.p.l.oXoXOXc.l.j.5.1.1.-.f f f . . .                                                                       a . . x V z 1 2 > - > 1 < > f l f k ,.;.C y.s.s.j.j.d.s.s.s.6.' ' =.=.#.V C =.=.=.=.#.#.C C N x N N k k z z 1 > 2 2 2 . . +                                                 + . . > 7.y.6.p.f.:.-.6.C V =.:.x O k 1 . . .                                                                                                                                           ",
"                                                                                                                                                                                                                                                                                                                                                                                                                      #.. . . o . y U.XXU.@.s U d t t $ . . . . 1 -.#.+ . . . 2 1 2 > > > > 2 2 2 < 1 k k f u k x z z M ] ] ] :.3.#.w D D 5 # # 4 G G G G G J K D K D 9 4 4 9 8 8 8 q q 4 # # @ @ # 4 # # % @ @ + < . . . . . . ! Z.Z.O.y U % . . . . . . . + . . - i i # 7 h * @ @ # # 4 R _ { ] _ J <._.c.v.7X4X<XoXoXoXOXeXfXiXoX5.s.1.> 1 1 B V k 2 2 1 f C =.C p.OXc.c.d.s.d.5.' #.V < O . . + .                                                         . . . . . . . . . m #.=.1 + 2 2 2 k k 1 f m x z 1.z.k.d.j.z.l.d.d.g.j.v.a.=.>.:.;.;.;.=.C V C =.=.=.#.C C V B C N 1 1 1 N z 2 1 O . . .                                             . . . . . . =.p.7.6.p.6.y.z.c.p.6.6.y.4.#.:.#.+ . . . . .                                                                                                                                     ",
"                                                                                                                                                                                                                                                                                                                                                                                                                      =.. . . . . Q `.XXXX@.I Q ! t r e . . . . n :.V + . . . 1 1 2 3 > > 1 1 2 < 1 1 k k a a k x z z ] ] C ] ) { R # 5 5 4 4 # 8 D D K G D D D K D H 8 5 8 5 { | 8 D D # # # @ 5 4 # 4 # # 4 @ . . . . . . . . ! D.D.T X 0 t . . . . . . - 4.#.- $ e 7 4 4 @ X # # 4 4 6 ` %.$.] J K { v.c.c.OX1XOX_.z.z.<XyXyXyXl.:.5.:.O O 1 N N 1 2 1 1 k ;.,.=.1.OX1XOXg.s.g.s.#.C #.k . . . . .                                                         O . . . . . . > n z x 1 . O > > 2 k k k x N m m y.l.j.l.j.j.l.d.d.d.z.l.1.-.=.-.=.;.:.=.C V C =.#.#.=.=.=.V V C c 2 1 V ;.z 1 < O . . .                                             . . . . . . :.7.3.6.6.6.f.c.c.z.3.1.5.:.V #.V + . . . . .                                                                                                                                     ",
"                                                                                                                                                                                                                                                                                                                                                                                                                      >.. . . $ e I P.XXU.W U O.I e t e . . . . k =.N + . . + 2 1 > > > > 2 < 2 2 1 1 1 f k f k x x z B ] C h 5 w 4 @ 4 4 # 4 # 9 D 9 8 { 9.0 9 9 H z.r.6 # ) 7X2X_ 9 E [ # @ i $.` # # e # @ @ X . . . . . . . d Z.@.T d U # . , h o . . x j.d.-.* @ # 4 4 @ X # 4 4 4 5 R $.;.] J J _ 6.f.j.oXoXoXoX1XOX1XrXpXyXz.a.a.5.;.1 . 1 V V f 1 k k B #.=.' u.OXz.p.p.s.6.C C ' > . . z                                                             + . . + 1 2 . N ;.V f . . + & 2 > 1 1 1 k Z Z x 3.v.j.j.k.k.j.s.d.d.s.7.:.:.=.-.:.:.:.>.=.=.=.#.' #.V N #.V m z 1 1 1 m V f > O . .                                                 . . . > O O 3.f.6.3.7.6.6.d.l.d.3.6.y.;.;.7.m . o . . . .                                                                                                                                     ",
"                                                                                                                                                                                                                                                                                                                                                                                                                    k + . . e O./ / K.O.Q y r U e . . . X . . . k #.V 2 . . > 1 2 > > > > > > 2 2 2 1 < k x z z x v x m #.V i @ . . # 8 8 4 # 4 9 D 8 ` ,X3Xu.R <.c.,X<Xu.[ OX3X<X~.e.4X0Xw.` 7.n.t.` b ` g @ @ @ @ . X . . . . t U y @.}.[.@.P.$X%X` . > 7.f.p.,.& X X @ # @ @ @ # # # 4 8 H ,.-.{ _ %.d.d.g.,X1XoX5XiXpX0XyXNXiXyXuXuX5X1Xx.#.N 1.y.;.1 k z f 1 f z #.=.;.7.y.y.=.x B m . . .                                                         2 k 2 . . . x 6.:.N =.,.#.2 . . + 1 f 1 > > O 1 V C =.s.v.j.j.v.l.k.a.s.d.3.-.,.:.:.p.g.d.6.3.3.1.:.#.#.V x x m c 1 1 1 z 2 . - + . + . >                                           1 1 O . . 1 :.C C d.d.s.6.3.7.3.6.f.6.y.d.d.p.d.l.7.1 1 1 . . .                                                                                                                                     ",
"                                                                                                                                                                                                                                                                                                                                                                                                                + . . . . . r O./ Q T I T U y U % . . . . . X . x =.C < . . 2 2 1 > = > > > 2 2 > 2 1 f z x z x x v m M h x e # @ @ 4 4 4 4 4 4 8 D J W.<X,X<XQ.OXoXx.c.1X3X3X2X2X7X3X6X!.w.2.;.;.,.] ) ) ) % X @ @ X + . . . . % y t @.[.'.I.XX%X=X%.. . x d.d.x . X X X @ @ # # # # # # 8 D H { %.| &.d.d.j.<X3X<X0XiXpXfXcXxXiXiXuXpX5Xz.OXOX5.1.5.-.1 k k k 1 2 k =.C #.7.5.y.:.m B B + . .                                                         . . . X . . z 3.:.,.,.N < O . . O 1 < 1 > O O k V C 3.l.z.l.z.v.k.z.d.p.s.:.=.;.;.y.d.d.j.s.s.a.1.=.#.=.V x m v f 2 2 1 z O . . . . . . +                                         2 . . . . . N :.>.=.y.p.3.3.p.6.:.p.s.p.p.d.d.d.d.l.f.k 1 1 + . .                                                                                                                                     ",
"                                                                                                                                                                                                                                                                                                                                                                                                                + . . . . . e O./ Q I Y Q U y y $ 2 k 1 O . X . x ;.=.2 . . O 1 < O O > > 2 2 > > > 2 f z z z x x x n b w t 4 4 4 4 # # # # # # p W.e.} !.1X,XQ.w.g.c.c.c.c.,X2X<X,X2X2X9.) [ ) ] <.h ) [ ) @ @ # @ X + . . . . $ y t O.'.[.o.Q `.$Xj . @ * v ] 7 X X X @ # # # # # # @ @ 4 5 # H &.&.&.a.v.j.1X4X<XrXiXuXpXiXiXiXpXyXuX4Xs.z.y.B 1.5.B < 1 f f f 2 k :.;.#.,.q.y.1.x B N . . .                                                         . . X + . . 1 3.3.1.V 2 < > + + + 1 u < - O O z #.Z ;.l.c.l.k.v.v.z.s.p.y.=.' #.#.y.d.s.d.s.s.p.:.#.=.>.C v m m f > > f k + . . +                                                   . . . . k :.:.:.=.8.3.;.3.p.6.:.6.f.f.6.p.d.y.p.l.3.1 1 1 . . .                                                                                                                                     ",
"                                                                                                                                                                                                                                                                                                                                                                                                                + . . $ r e s / T T Q Q / e X X N         > . . 1 V N = . . + 2 > O > > > > > 2 > < 1 < k z z x b v k t w 6 5 4 4 4 4 0 8 h $.b u.7Xx.r.!.1X,XoXa.j.c.c.c.Q.oXOX1X<X7X<Xe.e.r.<.h.!.2.w.k.u.` p 8 5 X + + . . . Y V.~ L.&X&X{.o.F.F.% . X # X # # X X X @ 4 4 4 * e # @ @ @ @ @ 0 E E } j.v.k.z.OX0XyXiXpXyXyXpXpXyXyXuX5X<X5X<Xd.c.1Xs.7.:.n V N x 1 f k 2 z X.#.N 1 c k . .                                                     :.:.2 . . 2 n N z n #.k x f 1 a 1 k f < C #.m u k z c z c 2 ;.s.:.:.j.oXz.s.s.p.1.-.7.5.p.d.d.d.f.q.q.5.=.C =.Z k k u 2 1 z 1 + . . >                                                   O . . 1 B >.>.:.;.>.6.y.6.6.6.6.6.3.3.6.4.f.d.,.:.6.>.z x x + . .                                                                                                                                     ",
"                                                                                                                                                                                                                                                                                                                                                                                                                + . . d I s R T ! &.O.O.+.; . . :.        + . . u m x > . . 3 > > > > > > > 2 2 2 1 1 1 f z k z _ b * 4 6 6 5 # # # w F 9 <.f.5.j.c.v._.,X,XoXoXoXc.x.c.c.oXOX,X,X<X2X1X1X1XOXoX,X1X,Xc.v.c.g.] 8 8 $ + X . . . o.J.C.{.zX:X;XF.C.G.s . . . X X X X X X @ 4 4 7 f p 4 @ X X @ @ 6 J G { c.l.l.g.Q.0XiXpXyXyXyXyXyXyXyXyXyXyXyXyXqX5X0X3Xv.oXp.' V C c . + O f k k f 1 f 1 . .                                                     . . . . . k =.=.=.=.k - > f f 1 k l k n =.#.C N N V z 2 < > m #.Z >.k.c.l.s.p.s.y.6.s.s.s.s.s.d.p.6.y.y.;.V ' Z 1 1 > 1 v x . . . . 2                                               > . . . . Z :.:.:.:.>.:.p.s.p.6.6.6.p.3.>.:.p.p.s.7.=.:.:.N x m O . .                                                                                                                                     ",
"                                                                                                                                                                                                                                                                                                                                                                                                                . . . t y r d y E.dXT T O.r . . Z         . . X < m x > . . > > > > > > > > > > 1 1 1 < k z k k E H # 5 0 0 5 # # 4 D D D 2.y.2.y.z.j.j.c.oXoXc.c.c.c.k.v.oX,X1X1X3X<XOXoXOX1XOXQ.OXoXz.l.l.p.<.6 5 @ X X . . . ~ C.V.`.zXzX=Xo.F.J.s . . . . . @ @ X @ # 4 4 7 g r # $ M i X . 4 J G | <X_.l.k.oXz.0XiXyXyXyXyXyXyXyXyXyXyXuXuX0X4X5X<Xj.v.k.N k m 1 + o O k x x f > f 1 X .                                                     . . . . . k =.C #.x > 1 1 1 1 1 a 1 < k V V V x k v k = > < z C C 7.OXoXz.a.a.d.6.6.a.p.s.s.s.s.p.p.a.a.=.C =.V 1 1 k N Z O . . . . 2                                               2 . . . > m.>.>.:.>.>.>.6.f.p.p.6.n.p.3.>.:.p.p.s.7.=.:.-.l k z + . .                                                                                                                                     ",
"                                                                                                                                                                                                                                                                                                                                                                                                                1 . . y U s s &.*X#X*.XXE.e . O           . . o N #.x 1 - > 2 > > O > > > > > > 2 1 1 1 f z c b ^ F # 4 5 0 4 # @ # H _ _ 2.y.4.y.c.z.j.j.v.x.c.k.k.l.s.j.oXOXx.j.oX<XOXc.c.c.oXOX,XoXk.z.l.1.#.M i O & + . . . @.{.$X{.}.%XL.e / S.r . . . . . X @ 4 6 p b b M ] g ; > <.u.$.V * 4 5 F <.w.u.v.3X,X<XxXxXyXyXpXyXeXtXeXrXrXrXrX5X5X5XOXj.v.s.:.7.a.m 2 k k 1 k z 1 - 2 > X .                                                   > . . . + O 1 x z z 1 2 1 1 k k f k N z < >.6.=.V :.6.#.m m 1 > a n N 1.1.;.5.d.s.3.6.d.s.y.y.p.p.6.7.7.1.C N N x 1 1 1 1 > . O                                                       . . . O V >.>.=.>.:.:.:.3.f.f.6.6.n.6.:.>.>.4.6.7.=.Z C C #.C B O . .                                                                                                                                     ",
"                                                                                                                                                                                                                                                                                                                                                                                                                  . . s ! U O.dXdX#X@XkXkX` . k           . . > 1.5.N 1 c k a 2 O O 2 > > > > > 2 1 1 1 f c b E ^ J 8 4 4 5 4 % $ i 1.6.5.5.5.u.oXOXoXz.s.d.j.l.p.a.j.k.c.z.j.j.s.s.z.oXk.g.j.OX3X7XOXj.j.j.1.#.:.V + O & % t y %XnXnX;XJ.H.A.t t y % . . . X . . 6 F H ,.8.:.:.:.m f < B g.g.z.v . @ # 4 5 _ 0XyXrXaXCXCXiXpXiXiXrX0XrX0X3X3X7X5XrX0X<XoX1Xz.Q.OX<Xk.V X.C 2 > 1 1 2 1 > X .                                             . . . . . . > 1 1 f < 2 > 2 1 k f x m z m g.s.:.s.j.s.d.c.oXs.1.4.' > O = > k k k 7.j.p.y.d.j.j.6.6.6.6.3.#.' =.N k k f k 1 X . . . k                                                     . . . > N C C m.m.=.3.6.6.f.l.d.p.6.6.3.>.>.=.:.:.:.#.z z V 6.6.y.1 . .                                                                                                                                     ",
"                                                                                                                                                                                                                                                                                                                                                                                                                  . . s ! U &.dX*X*X*X*XkX] . >           . . & ;.5.-.f f 1 1 1 2 > 2 2 > > > < 1 2 1 1 k b E L ^ L 8 5 4 4 6 v b ` 3.,.,.y.g.j.oXOXOX_.j.j.z.s.p.s.j.x.oXoXk.g.g.s.d.x.k.g.k.1X3X7X<Xk.s.j.1.V =.N . . e Z.C.C.=XnXmX;X].].J.U y I r . @ 4 5 4 @ p E R -.=.#.#.:.m 1 , l p.p.j.<.# 4 4 # w ^.yXeXrXxXMXNXNXpXpXpXyXeXyXeX4X3X3X5X0X0X5X3X4X<Xc.k._.j.V V V 1 2 1 1 1 1 > . .                                             . . X . . . > < < 1 1 1 2 < m C N x m z C k.j.j.a.a.d.j.l.v.s.:.3.1.1 > 2 k Z x x p.k.d.j.j.j.j.y.y.y.6.y.;.#.;.Z k z k 1 o X . . . 2                                                     . . . x N z Z C C =.3.3.6.d.j.d.f.6.6.6.:.>.:.3.3.3.=.x m C 7.6.6.2 . .                                                                                                                                     ",
"                                                                                                                                                                                                                                                                                                                                                                                                                >.. . t ! U Q *XdX@X#X*X*Xg . +           . . 2 1.1.:.k 2 1 1 1 2 > 2 2 > > 2 f u 2 1 1 u p J ^ L 4 @ 4 4 4 4 M M b -.1.:.q.j.g.z.oXc.z.j.j.v.s.s.s.g.v.OX1Xz.d.d.s.p.j.k.j.k.oX2X3X7Xz.j.y.#.#.=.N . . o o.C.~ `.zXnX;XJ.'.H.s @ t % X # 5 8 8 4 t p H ) V ' C #.z < < & =.d.v.] @ 4 4 # w +XyXaXrXyXNXNXcXpXpXpXuXaXyXrX5X4X3X5X0X5X6X<X<X,Xz.k.c.1.z m m - - 1 1 < 1 O . .                                             . X . . . . + 2 2 1 1 < > f N m N x k k V s.y.y.s.s.s.y.p.s.6.:.1.C > O = k V x m s.v.l.s.p.s.s.y.y.y.y.p.=.C =.x f z f X . . > z >                                                       . . . k x z Z C V =.3.3.3.f.d.s.6.4.6.6.:.>.:.3.3.6.=.x N #.6.6.y.1 . .                                                                                                                                     ",
"                                                                                                                                                                                                                                                                                                                                                                                                                + . . t Q T *.dXbX@X/ O.r . . .           . . f 4.1.1.k - 2 1 2 > > > > > > 1 f f 1 1 1 e 5 0 G 0 X @ # 4 4 7 M ] x -.4.1.7.a.s.s.l.z.g.g.d.j.s.s.s.s.z.oXOXz.j.j.j.j.j.d.j.k.k.z.OXOX6.y.;.< k C N + X o o.V.~ G.-X-XK.Y ~ T X . . X 4 5 8 w 8 5 # # 5 y 1.y.2.,.' < 1 f 1.d.j.M 7 6 4 5 4 w 9.2X5XrXiXiXpXpXpXpXpXpXpX5X6X5X5X5XsX5X2X1X7X1Xz.Q.OXa.1.g.1.k #.3.x + + . X .                                 1 < < k z + . . . + O . + f k < k x 1 u x #.z N y.C C s.c.oXa.g.k.3.,.5.:.7.=.2 1 m N x k f f ' :.7.p.y.y.y.y.7.7.6.;.k k z < a z 1 . . +                                                       2 2 + > 1 1 x Z N Z #.=.:.8.3.3.6.6.6.3.:.,.>.C :.:.m.:.:.N k k Z y.y.q.2 . .                                                                                                                                     ",
"                                                                                                                                                                                                                                                                                                                                                                                                          =.. 1 + . $ / +.~ XXFXbXdX; . . . . .         3.. . 1 1.1.;.k 1 1 2 2 2 2 > > > 2 1 f a 1 1 1 7 5 5 8 0 # X # 4 4 b =.V -.y.5.7.5.5.5.s._.oXz.d.g.g.j.s.a.c.3X4Xj.y.v.c.x.z.l.OXOXj.d.j.v.k.3.3.#.. . + > ! Q Q C.$XkX[.]..XD.U Y U . . . w H D ) 1.#.i 7 7 4 ' v.s.s.j.g.C x V s.d.s.u.u.h.) # 4 # _ R.2XiXpXpXpXpXuXpXiXxXNXpX6X5X6X0X0X0X3X<X3X<X2X5X5X5X5X0X5Xs.s.d.>.O > - . .                               2 . . . . . . . . + > > - k N m x V #.N z :.j.:.s.0X,Xl.1X0X0XQ.oX1Xs.y.d.6.s.a.,.:.1.y.V O > 2 N V V 6.s.y.y.y.7.3.3.=.k f k a - > O . . 1                                                     k . . . 1 1 k >.>.C m.:.:.:.:.:.:.6.6.6.4.:.:.:.>.>.:.>.V V z k 1 x q.y.6.> . .                                                                                                                                     ",
"                                                                                                                                                                                                                                                                                                                                                                                                          . . . . ; U +.@.~ E.FXFXdX. . . . . . k       8.. . 1 5.5.#.f k k 1 > > > > > > 2 < 1 1 < 1 1 t 8 8 D D 4 # 4 4 4 b C B -.q.5.5.5.q.5.p.c.c.v.g.j.j.j.d.j.1X3X4Xj.y.z.x.z.z.v.<X<XoXj.j.l.k.f.;.x + . . $ Q ~ T `.mXnX|.]..XG.I ~ U . . + w F D ] 7.4.' 7 7 4 <.c.d.g.d.s.V z #.d.d.p.p.q.y.b @ # # 9.W.5XNXpXpXpXpXyXpXiXiXxXiX6X5X5X0X0X0X5X<X<X3X5X5X4X5X5X5X3Xd.6.p.>.O > > . .                               1 . . . . . . . . + > > - z N z m V V m :.j.a.s.OXoXQ.,X0X0X5X3XOXOXz.s.f.a.p.s.j.1.-.,.V 1 > 2 B #.V 1.s.y.y.y.y.7.7.,.z k x 2 . . . . . 1                                                     x . . . 2 - a >.=.C :.:.>.:.8.,.:.3.y.y.4.:.:.>.>.:.:.N Z C x k 1 z 7.6.6.2 . .                                                                                                                                     ",
"                                                                                                                                                                                                                                                                                                                                                                                                          . . . $ y y / @.+.K.#X*XE.. . . x :.:.        :.. . f 5.y.-.k f a 2 > > > > > > 2 2 2 < < < < w 8 9 D 5 4 5 4 4 4 i C m C 7.q.q.6.q.5.6.k.c.j.p.g.j.z.x.l.OX<X1XoXc.<XoXg.j.x.<X<X<Xv.s.z.s.>.m m - . . $ I I y XXmX;X}.]..XZ.% t $ . . X w D q ` ,.2.;.4 4 5 p q.d.j.j.a.m f N y.p.y.5.1.2.i . X # H %.i.8XiXpXpXpXpXyXuXiXxXaX6X5X5X0X0XrX5X<X7X<X3X5X3X5XrXeX4X7.6.a.V X O + . .                               O . + . . . . . . . O > > k m m m N N x :.s.y.5.k.oXj.z.3X0X5X<XoXc.s.y.y.y.y.y.5.=.=.=.;.:.z = m X.N =.;.=.6.y.3.1.3.C 1 c z O . . . . .                                                       k . . - x x m #.=.=.=.:.>.>.:.,.>.' 3.6.:.8.:.n N >.V 1 x Z k 1 1 z 5.7.3.> . .                                                                                                                                     ",
"                                                                                                                                                                                                                                                                                                                                                                                                          . . . e t 7 I O./ O.I.`.@.. . .               :.. . k 1.2.-.k f f 1 > O > > > > > > 2 > & * * 6 D D 5 4 4 5 5 t i x V N N -.5.7.q.q.5.a.z.j.d.s.d.z.<X3X,XoX1X,X<X<X7XOXQ.1X1X3X7X<Xk.s.v.g.x z N > . . t o.T ~ }. X.XF.o.Z.d . . . . . . t [ 2.2.w.q.w.[ [ H 9 w p ` b.d.1.-.C x V :.j.OX,X5.-.v X 4 0 F !.xXyXyXfXxXpXyXxXNXaX3X5X5X5X0X5X3X3X3X2X3X5X5X8XiXNXyXv.oX<X1.> f 2 . .                   N N 1 + O + . . O . . . + + + + k Z m l -.3.=.,.=.m :.s.q.k.4X5X<Xj.j._.<X7X1XoXj.z.d.6.j.OXj.#.N V :.y.6.=.V N z N C V =.:.=.N m k 1 a 1 . . .                                                         1 > O + + z V N Z ' -.>.=.:.:.=.>.>.C C C =.=.=.=.Z N V Z 1 1 k S 1 2 x 7.5.4.> . .                                                                                                                                     ",
"                                                                                                                                                                                                                                                                                                                                                                                                          . . X t t % R Q ! O.{.{.U.. . +               :.. . u 1.;.#.f f 1 f < > > > > > > - 2 > $ % @ 6 G G q 4 4 5 p m N Z V N N #.=.=.5.q.4.s.v.l.l.l.j.c.5X6X7X1X3X7X<X<X<X<X4X6X4X3X3X<X_.k.c.l.m z N > . . d S.~ o..X.X.XZ.I ~ r . . . . . . % b q.a.q.u.u.h.z.w.w 9 8 p j.d.6.6.:.k z B z.5X1X3XNX2X% 8 8 F 4XNXiXiXxXxXfXiXxXxXiXrX0X8X5X5X5X3X3X3X3X5X5X5XrXcXNXcX5X<X3Xj.k c k . .                   . . . . . . . + 2 O . . + O o > V C N #.3.1.,.y.5.,.s.s.y.5XrX5X0XQ.a.s.oX3X3XOXc.oXl.j.,X1X3X;.k z =.t.t.6.C N x N #.#.#.-.#.z x x k k & . . .                                                       . . . O + o z N x N >.:.:.:.:.:.>.=.=.=.=.=.=.=.>.>.m.C C C k 1 k k 2 O x y.5.7.> . .                                                                                                                                     ",
"                                                                                                                                                                                                                                                                                                                                                                                                          . . X % % % R Q R @.$X{.U.. . +               =.. . 1 ,.;.' 1 < 1 1 f < > > > 2 * @ & , & # @ D G G G 4 4 5 h N z m V N V =.=.#.:.5.3.a.c.z.k.z.c.x.<X7X1X3X5X4X7X7X3X7X3X4X4X3X3X7X<XQ.z.y.z x B > . . ; o.~ y '..X.XF.o.S.j . . . . . . @ @ e ] u.u.w.u.d.w.w 8 5 w y.d.7.3.=.l z k p.8X3X5XuXuX) 4 D } 9XBXNXiXxXcXxXfXxXxXiXpXpXyXsX6X0X5X3X3X4X5X5X4X0XfXNXiX<Xc.<Xa.< f 1 . .                   . . . . . . 2 1 1 > O O O + o - N N x C :.-.;.3.6.6.s.a.q.z.8X5X0XQ.u.g.z.3X,Xj.x.oXk.v.1X1X<X#.1 k Z 5.5.5.V m m m =.=.C =.C z m N z > X . . .                                                       . . . O > O 1 N v x Z >.:.-.:.>.=.>.=.=.m.=.=.>.:.=.z C :.V 1 1 k 1 O o 1 y.p.6.2 . .                                                                                                                                     ",
"                                                                                                                                                                                                                                                                                                                                                                                                          . . + t t $ h W R *.`.{.P.. . O               C . . 1 ;.#.v 1 1 < 1 1 2 > > > > $ @ @ & % # # F G F D 7 7 7 i n z x N N m V C B -.7.1.y.v.z.a.g.x.z.c.oX,X7X4X3XoXc.1X<X3X3X4Xx.x.<XoXg.y.4.l k z O X X r S.o.Q G..X].~ I T e + . O i & O # # @ M k.h.d.!.1Xh.R p p 4 i ` w.q.;.z f 1 1.,Xz.6XiXpX' X 0 } ~.MXpXeXiXxXuXpXxXfXpXyXpXyX6X5X0X0X4X3X4X8XrX0XrXfXNXiX3X4X5X5.f m c . .                 k . . . . . O k x z 2 < > + > f 1 m ;.N C 6.3.#.3.d.y.p.1X7XQ.8X0X0XQ.y.g.j.x.l.z.oXoXz.j.z.oX,X=.m V C -.C C 1.-.m z m N 1 k l l m x > . . 1                                                           . . + k Z x k V V N N =.>.=.=.C C =.=.Z N =.>.V Z x a z C z - > < > - O 1 t.y.7.> . .                                                                                                                                     ",
"                                                                                                                                                                                                                                                                                                                                                                                                          . . o Q Y r s R R Q @.D.L.o . O               V . . 1 1.$.x V -.m < 2 > > > > > $ @ X @ 4 5 4 5 0 4 7 1 a k z z l z x m v x z m 1.7.3.6.s.z.j.5.y.j.c.oXoX7X7X<XOXk.v.,X7X3X3XOXk.v.a.4.q.2.O X . + y y ~ |.|.}.G.H.[.s . . 2 N z m <.<.$.* @ % h.sX<X1X3X3X<Xg.p.y.p @ 5 r.h.9.b v m Z V m c.MXNXyXb @ # | 9X9XtXaXaXrXuXxXiXiXiXpXiXeX5X5X8X5X4X3X0XpXyXyXxXxXiXyXyXiX1X#.:.-.+ .         O . . O . . . . - O 2 f f f 1 1 < f x x m 3.y.3.t.s.y.3.s.z.j.7XpXpXyXeX0X0XqX,Xs.g.j.j.7X4Xc.,XQ.z.oXoXj.a.j.3.1 1 m 5.5.-.k 1 1 > - 2 k 1 & . . .                                                       . . . . . 2 C V B C X.C C X.=.=.#.V C V Z Z Z Z C =.N k x z 1 1 < O O . 1 #.m N =.>.>.O . .                                                                                                                                     ",
"                                                                                                                                                                                                                                                                                                                                                                                                          . . X Y Y I j p s ! @.A.Z.& . O               C . . 2 1.1.;.#.>.N < > 3 > > > > & @ X X 4 5 4 4 4 @ $ a S k z z z z m m N N m C 7.5.7.p.v.s.2.q.5.j.,Xw.q.5X7X3XOX[ 9.3X3X3X5Xh.{ [ q.y.y.1.+ . . X U y / |.|.[.H.J.[.s . . 2 Z N N 1.4.,.7 4 4 b h.4X<X,X,X,Xd.6.y.M @ 6 { ,X2X) p p l C m s.NXNXNXM @ # r.wX/.9XeXrXrXeXpXiXiXiXpXiXeX4X5X5X4X4X3X0XuXaXyXiXiXpXyXyXxX5X#.:.;.+ . . + . . . . . . . + . + > & > a 1 1 1 < > k v k N 6.7.3.y.y.y.y.d.j.d.<XeXaXaXeXrXrXeX<Xy.g.j.h.Q.,Xc.,Xv.j.oXOXl.a.j.7.u f m 1.3.1.z f u 2 > 1 1 . . . . .                                                       . . . . . > N Z Z C =.#.m.=.=.>.=.V V V Z V B C C =.Z x N z k 1 < O + . f V N V V =.:.> . .                                                                                                                                     ",
"                                                                                                                                                                                                                                                                                                                                                                                                          . . X U ! I y p j Q @.D.@.X . +               =.. . 1 5.4.1.#.#.m 2 > O O O > & X X @ X @ 4 # # 4 @ @ - S f z v x z n Z v g m.C m 7.6.s.w.p 0 2.q.s.<.4 4 u.rXOX) 8 D e.sX5Xh.w 8 5 p 2.s.$.X . . X y 0 y [.|.'.H.H.[.! . . + k a f 4.s.2.* @ 4 4 4 9.2X!.OXoXq.1.q.,.* 7 h.yX0Xb # 0 p =.B 1.rXxXjXv @ 4 9.wX+X~.rXrX0XrXrXyXiXpXiXpX4X4X5X5X3X3X3X4XeXaXeXpXpXyXyXyXxXz.' ,.#.+ . . . . . . . . . . . . & * & - 1 1 1 2 > 2 1 1 x V 1.3.>.:.f.f.7.s.l.d.s.5XeXrXeXrXeX3Xs.s.a.s.z.4X,Xz.v.d.p.c.oXj.a.g.=.u k m 5.3.=.k c k 2 2 1 + . . . + O                                                       . . . . . . k V N V =.=.C =.=.=.C V V V V Z x N C C x x m k 1 k 1 . . . 2 x x m =.x f O . .                                                                                                                                     ",
"                                                                                                                                                                                                                                                                                                                                                                                                          . . - r.E.r.R y h j e s d . . +               >.. . k u.5.,.1.5.1.> + o O O > o X X X X 4 q 4 # @ @ # * 1 k N N m m l i 6 6 i e # e ,.[ 4 5 8 w _ R 4 4 # 5 %.H 9 D D D { { 0 9 9 8 # 7 i @ . . . ~ V.Y &.bXAX*Xo.o.+.t . . C 4Xk.1.oX0X5X` h 6 # 0 K | !.OX!.W.i.e.k.g.u.pXNXpXpXw.4 p V B ' ;.y.oXb 4 4 H R.R.^.iXpXrX0X0X0XtXiXiXfXrX5X5X5X5X3X<X5XyXtXeXpXNXxXyXyXiX4X5.y.5.f < > . . . . . . . @ # # 4 7 4 * l l f > > 1 l C 3.5.s.oX7.3.l.j.p.x.<XQ.Q.eXyXeXeXeXeX5X0X5Xs.z.5X0X0X3X<X,Xj.k.z.v.Q.OX3.a k k z C B 1 a S > > O . . 3                                                           1 . . . 1 f 1 Z =.=.C C C m.m.C C C V C N c z l x Z V z f k 1 2 2 > f x + f y.t.=.1 . . + . .                                                                                                                                     ",
"                                                                                                                                                                                                                                                                                                                                                                                                          . . - E.+X+X{ y R p * $ $ . . .               >.. . f a.4.;.1.y.4.2 + O O & & O # # X % D D q 4 @ # * 1 a f m N n Z i 4 5 5 4 4 4 # b p 4 8 8 5 q 5 # # # 4 4 8 D K K q 4 5 8 D q 4 # # @ @ . . . S.J.C.kXJXDXFXO.Y ~ % . . 3.yX0X5X5X5X0Xk.2Xu.e ^ } } W.OX^.E.R.E.W.^.^.yXMXpXVXVX` g m v V ' ' ' i 4 5 E R. .W.xXiXyX0X0X0XeXxXfXxXiX0X5X8X4X<X1X5XyXyXyXcXBXBXiXyXiXaXy.y.y.z < f + . . . . . . @ 6 5 4 4 # i z l g < 2 < N y.y.a.OX<Xv.s.g.g.l.<X2X3XeXyXtXaXtXyXaXeXeXeX3X5X0X5X0X0X5X3XQ.k.l.c.oX<Xd.k k f - N C 1 2 < > O O . .                                                         . . . . . - x k N =.=.>.C C C C m.C C C C C N k l l x C X.z 1 k 1 > & & C ;.x #.y.a.y.2 . . + + .                                                                                                                                     ",
"                                                                                                                                                                                                                                                                                                                                                                                                          . . o ` E.E.W y s y ; e e . . .               Z . . 2 y.5.,.#.5.,.1 > O O & O + 5 D # # D D D 5 @ 4 i c S a k v N z # # # # # # 4 5 4 4 4 5 5 4 @ X X X X # 5 0 q D 9 4 # 4 5 0 # @ 4 5 4 @ . . . ~ C.M.XXAXDXmXS.( S.t . . >.0X4X4X3X3X3X6XrXyXe.J | 9.~.4X2XR.R.E.K.L  .8XuXiXNXyX` > k l v #.-.] @ X X w K.K./.jXyXyX0X0X0XaXNXcXxXiXqXqXeX4X1XOX6XyXaXpXCXVXBXpXyXiX5X3.7.5.k > 1 + . . . . . . @ 4 # # # @ & g g i , 1 2 =.p.5.y.k.c.v.p.s.d.s.<X<X<XrXyXtXtXyXrX6XrXrXrX5X3X8XrXrX<Xc.,XoXl.v.oXoX1Xj.c k k f #.V 1 1 2 > > + . .                                                         . o X . . + z k k B =.m.C C C m.m.C V C C =.Z k z k f N V k 1 k 1 - O - V ' m #.y.s.7.O . . . . .                                                                                                                                     ",
"                                                                                                                                                                                                                                                                                                                                                                                                        p.. . . ` i.E.{ U R d & ; ; . . .                 =.:.l f l l #.6.-.2 > > O O O O w G F w D D q 4 # 4 7 1 1 2 e w w 6 4 6 4 4 4 6 5 9 9 9 w 0 4 # # @ 7 y # 5 0 5 q E q 4 5 5 4 0 7 X # 4 @ @ $ $ $ L.].I.XXlXzX&XQ y Q t + + -.rX8X5X5X5X5X5X5XeX!.] w.d.4X0X8X~.^.~.R.} &.^.W.8XyX2Xk.V m #.' B ,.y.w.<.[ e w ^ 0.fXNXNXyX0XrXaXpXxXNXiXyXyXqX3X1X1X5XyXaXyXCXVXCXuXuXiXoX,.5.5.l i u O . . X @ X @ 4 6 w 4 @ @ X - , i u k k x ,.3.4.s.z.k.a.d.l.<XyXrX0XeXaXyXeX5X5X<X0XeXrXrX0X5X5X4XoXOXoXk.v.z.j.z.oXp.z z z 1 z v 1 2 > O . =                                                             . X . . . 1 N m x B C C C C C C C C C V V =.N k k f < 1 1 1 < 1 2 2 u > B ;.C #.=.:.c . . .                                                                                                                                           ",
"                                                                                                                                                                                                                                                                                                                                                                                                  :.O O r @.! r i.+X^.&.O.O.R + o o . . .                       . . + -.3.#.2 2 1 2 & O e ^ ^ ^ L K K 0 # # # # # # # @ # 9 8 0 q q D D F 8 q D D J D 4 4 4 5 G P D D G K G  .E D q 4 4 F G F % . . X T Y Y  X:XHXFX-X-X%X+ . . m s.6.v.0X5X5XeXyXeX5X6X5X4X1X<X3X8X8X8XrXrXrX9X^.^.W.R.W.uXjXMX4Xa.s.q.$.q.<XNXCXBX4.. @ p BXLXGXxXrXyXyXrXpXNXxXxXxXrX<X<X4XyXyXaXpXCXCXCXNXuXyX1X1.q.s.` p h $ X X 7 F D D q 0 ^ F 6 0 * + + > l z l z =.-.1.z.k.j.v.c.,XuXxXxXxXpXeXeXrX7X<X3X0XyXyXaXyX3Xk.oX,X<XOXz.oXc.6.q.p.;.m N n 1 > 2 > + . . . l                                                         > . . . 2 2 1 C ' C =.C C C C C m.V C =.m.V Z C V k f 1 1 2 1 > + + O N X.V :.3.7.N . . . . . O                                                                                                                                           ",
"                                                                                                                                                                                                                                                                                                                                                                                                  X.. . U [.`.I.E.^.+X&./ O.R o O X . . .                       + . > 1.7.;.1 1 1 2 > O p ^ ^ ^ ^ D q 4 # # @ # # # # @ @ 4 0 q w 9 D K K 9 9 D D H H 4 5 4 5 J e.w.F K K ^ !.h.9 8 4 5 D G P 7 + . X Y U U ].zXJXAX>X-X%Xo . X 1.c.p.l.0X5X0XeXaXeX0X5X5X6X3X3X3X5X8X0XrXrXeX2XE.E.W.R.^.iXNXNX4Xg.j.y.1.1.g.pXNXVX5.@ @ ` LXKXLXxXrXaXyXyXyXfXxXiXxXrX7X3X3XyXuXyXpXCXCXMXCXyXeX1X;.5.s.` ) ) * X @ 4 F D D q q ^ F 5 0 4 + O > l x k =.4.=.:.j.d.a.v.x.c.rXfXiXpXpXyXyXeX3X1X5XeXyXyXyXyX1Xk.oXoXOXOXoXQ.Q.y.4.y.5.B N m a 1 1 + . . . . 1                                                         . . . + 2 1 1 C ;.C C V V C C C C V V C C ' C C V k a k 1 1 1 > + . > V V C 1.3.6.x . + . . . +                                                                                                                                           ",
"                                                                                                                                                                                                                                                                                                                                                                                                  #.. . R {.`.I.*.^.+X&.Q O.R + & o . . .                       + . 2 4.6.:.1 1 2 - > O p ^ ^ ^ w # # # # @ @ @ # # # # # @ 5 w q 8 9 D K D q 8 w d.s.p 4 # p z.7X7X%.9 H z.7X<X[ 4 w ) D K G 7 + + X U Y 0 `.mXJXmX-X-X$XX . O y.j.6.a.0X0XrXeXtXaX0X5X5X6X7X3X3X4X8XqXrXrXeX5XR.R.W.^.R.&.R.uX5Xs.j.q.4.3.1.8XNXBXp.@ @ $.GXLXKXiX0XrXeXeXrXaXiXxXiX5X3X4X4XeXuXyXyXNXCXNXxXeXrX,X;.1.4.] ) [ i . . i r.p # q ^ ^ K 0 8 5 O O > k l f #.1.1.#.#.6.6.d.Q.l.,XiXxXpXpXiXiXeX<X<X6X3X3XyXyXyXoXc.oXoXoXoXoXoXoX1.,.y.1.N V N u 1 1 . . . O 1                                                           . . . . 2 < < V >.C V V =.>.V V C B Z C C C C C x 1 k k 1 1 1 2 + + O k m m ;.1.y.x . o . 2 1                                                                                                                                             ",
"                                                                                                                                                                                                                                                                                                                                                                                            3.3.3.l o X ; R h d $ j %.O.O.O.W r j r . . .                       . . O V =.N < 2 > & @ # # w L L w @ @ # # @ @ @ @ # 5 4 # 4 5 0 8 p ` R D ) $.b 2.j.d.5.b ` w.1XoXoXx.2.u.<XQ.oXx.2.Q._.z g b , + + ; U.H.F.bXHXHXdXW W j . . . l 6.s.oX5X0XeXaXeX0X0X0X5X5X5X5X8XrXeX0XeXyXeX0X2X2XW.^.R.0.R.W.2X5X5Xj.4.5.q.eXNXBX2X# @ t R.E.^.cXVXVXpXrXaXeXpXxXxXaX6X4X5XyXuXyXpXMXCXcX8X5X0X3Xj.s.y.) ) ) $.b 0 { !.u.i D G J %.2.$.b 1 k k 2 2 > u z x N m Z N k.0X5XeXfXiXiXiXiXxXiX5X4X5X7XOX0XyX6X<X1XOXoX1Xl.y.a.p.N m #.m f z z > O O . . k                                                             + . O + O O O > x Z m N =.:.:.V N V B V ' ' N N N k 1 a u 1 1 2 O O O + z :.;.;.=.z = . . C                                                                                                                                                 ",
"                                                                                                                                                                                                                                                                                                                                                                                            . . . X & o . . . . . . - O.O.Q W h ! s . . .                       . . + N B k > 2 2 * # # X % L L H @ @ @ @ @ @ @ @ 6 q 0 8 0 8 0 h m #.] ` :.:.>.y.u.y.y.t.f.g.oX1XoXk.v.l.oXoXQ._.<X6Xc.N c n 1 X . g |.].].FXJXJXwX. . % X . . o V 7.4X5X5XeXeX0X3X0XrX5X5X0X0X0XyXyXrXeXyXeX0XeX0X^.^.^.~.~.W.2X0X0XOX5.5.y.iXxXCXg.X @ 0  . . .cXKXGXVXVXVXyXiXxXcXxXyX0XrXyXyXaXiXCXCXNX0X5X5X3Xc.oXk._ F J e.e.} | h.!.%.9 D { d.f.b.,.k x k O + + 2 1 1 x C N N 3XeXeXfXiXpXxXxXiXxXiX8X5X0X6XOX1X<XoX1X7X,XoX1Xj.1.4.3.V x N x 1 1 k O + O . . N                                                       . . . . > > > - O + + x N z n :.:.:.>.Z B V C C C N z z k 1 1 u 1 1 > O > O > 1.a.y.-.> . . . .                                                                                                                                                   ",
"                                                                                                                                                                                                                                                                                                                                                                                            O . . . . . . . . . . . . W O.I I d U y . . .                       . . O ' #.m > > > * # # X w ^ ^ w X @ @ @ @ 4 6 0 8 9 w q 9 9 h X.m M M V -.=.C ;.y.y.5.y.y.s.oX,XQ.g.p.y.z.oXQ.oX1X3XOXV z z O . . - '.].J.FXJXJXuXo $ W ; . . 1 =.C z.0X5XrXrX8X6X5X5X5X5X5X5X8XeXyXeXrXeXrX8XrXqXW.R.E.W.W.R.+XsXsX<Xq.4.5.yXNXBXy.. # w  .K.R.CXKXLXLXLXLXCXpXcXNXxXyXaXaXyXaXrXyXMXMXMXrX6X5X<Xl.v.z._ D J 9.0. .&.e.h._ 9 _ w.t.5.a.7.f f f + . . 2 k k x ' Z N 3XyXrXiXiXpXiXxXiXpX0X5X0X0X5X,XoXc.oX1X7X1XoX1Xl.5.y.q.#.V V x u k k O + + . .                                                       1 . . . o > > - O O + + k m x N 1.3.3.:.V V V C C C v z z k u f f 2 > > > O . < j.k.s.x . . . . .                                                                                                                                                   ",
"                                                                                                                                                                                                                                                                                                                                                                                                                O . . W *.{ W R { W X . . 6.                    . . + C -.' > O $ @ # 5 5 4 D F # X @ X # 0 q 9 0 w w g z r r N Z m N N N ' =.C C 1.1.7.j.s.u.j.oXz.d.s.s.c.,XOXQ.z.oXc.v 2 + e U d W *X=X=XdXdXbX!.. o R e . . , v u y.aX0X,X3X5X3X6X5X5X5X0XrXrX0XrXrXrXeXrX0XeXrX2X+X~.^.^.^.^.~.~.k.u.u.u.2X8XeXg.h w 8 0 J } /.fXcXZXGXGXSXcXcXNXpXaXeX8XrXyXeXpXNXMXNXrX5X0X3Xz.x.g.w F J r.W.R.e.e.e.{ D } h.p.s.j.p.V N V 1 - > 1 z k x #.m k a.5X4X0XiXfXiXyXaXaX0X5X5X8X3XOXOX,XoXj.oXl.a.l.y.#.:.:.V x z 1 - > O . . >                                                           O . O > > k x k > O + . a l k x :.:.>.=.=.=.V N N N z k l 1 > 1 2 O O 3 > 1 v B :.4.5.< . . + Z                                                                                                                                                     ",
"                                                                                                                                                                                                                                                                                                                                                                                                                1 . + %.&.&.%.%.&.&.$ X $ . . . .               . . + C #.C 2 + @ # 9 K K 5 @ # 4 4 # # 0 q q 0 i i i c c c x A N V V N m ' #.C >.1.1.5.g.g.u.j.l.l.c.oXoX1X<X<XoX5.y.y.O . . ! C.V.G.DXJXDX[.C.F.T . . . # 4 4 4 # @ ] OX<XoX<X<X,X6X5X5X0XaXyXaXrX0X0XeXyXyXyXeXeXyXaXqX~.~.2XW.0.R.0.h.u.k.!.oX!.OX~.J 9 8 # # R././.gXGXSXSXSXNXNXiXeXeX0XaXuXyXiXNXMXMXaXrXyX5Xz.Q.a.@ w E !.0X8X^.0.e.&.9 D e.d.l.c.j.7.3.3.N m N z k z 1.4.x k y.z.k.OXyXxXiXyXeXyXaX6X5X5X3X1X<X<Xj.p.y.y.6.a.1.z N C x f k 2 . . . . . k                                                   . . . . . + f f k N N N k O O + < 1 1 k V #.C =.:.:.=.x x z k 1 1 1 > > > & O O 1 #.y.1.m N C + . . +                                                                                                                                                       ",
"                                                                                                                                                                                                                                                                                                                                                                                                                > . . &.P.&.%.%.*.O.X . $ X . . x               . . o V #.B O X @ @ q K D 8 5 5 5 q q q D D D y g p p k k k k k x V V Z m V #.#.1.3.3.5.g.s.s.k.k.z.oXoXoX1X<X<X1Xa.s.y.O . . d o.( S.FXHXDX{.J.H.@.. . . @ # X # 4 5 8 q h u.0X4X5X8X5X5X0XeXaXeXrXrX0XaXuXyXaXrXeXeXrX8X~.~./.R.&.R.R.e.w.h.<X7XoXOXOXH 5 8 4 @ R.hX/.9XJXLXSXSXxXNXxXrXrXeXyXyXyXpXxXMXMXyXrXyX4Xz.c.j.* 5 ^ ~.8X9X~.0.0.H 5 9 &.k.v.Q.j.,.:.:.x x m z u k y.a.;.1 q.1Xk.1XuXyXcXiXyXuXpX5X5X0X5X4X6X4Xj.s.y.y.s.l.1.k V C n z m 1 . . . . . O                                                   . . . . . + k f k x x x f O + . 1 k f k C =.C >.:.:.=.x x x k 1 f 1 > > > O O O 2 N 5.:.#.#.C O . . .                                                                                                                                                       ",
"                                                                                                                                                                                                                                                                                                                                                                                                                > . . W &.&.%.%.*.O.% $ % X . . >.            2 . . . x C m $ @ @ . % L D 8 5 4 5 q D D D y w i g p g k k k k z x Z V N x m #.=.:.3.3.4.y.f.s.k.z.k.v.oXoXOX1X1XOX3.-.=.O . . U A.V.Z.bXHXDX%.Y L.Q . X O i i x e 4 5 5 8 @ i x.OXoX3X0X5X5XrXrXrXrXrXrXeXyXyX0X0XeXrXrXeX9X9X+XR.R.W.R.e.h.h.OX3X<X1X2X[ 6 5 4 # _ /./.E.wXGXGXBXiXxXaXrXqXrXyXyXyXiXCXVXVXuXeXyX5XQ.oXz.e X w W.8X9X~.0.0.{ w 9 _ h.c.c.z.a.6.;.C =.#.1 > =.j.a.p.C ' k.s.s.5X3X5XrXeXyXyX3X3X5X3X1X3X3Xg.a.a.;.-.y.X.f m N x k z 2 . . O                                                       C . . . X . 1 N z 1 m V N < O > > 1 1 1 l V V B m.>.>.V c x z 1 1 1 1 > > > O + + > N 1.:.C m 2 . . .                                                                                                                                                         ",
"                                                                                                                                                                                                                                                                                                                                                                                                                > . . r ! E.E.Q { O.R R I e . . + 2 2 k       > . . 2 m z z 6 5 # 7 J M.L D q 4 # 8 9 5 i c k k S a k k k k x N N N m x x C =.#.;.4.3.7.y.6.y.j.j.j.oXoXoXoXQ.<Xy.+ O - > 3 . *.>X X&XFXHXHX:.. o X 2 l $.c._.5X` # 5 5 @ . . o & & a.aX5XrXaX0X8XyXpXpXeX5X5X0XyXyXrXyXfXiXfXtX4X8X8X~.W.~.^.W.<X3X4X6XqXh.@ @ # 8 H E F D ~.PXcXiXfXyX0X0XrXiXiXyXcXGXLXLXNXyXpXaX6X0X7Xe @ @ i.wX9X~.W.k.g.R D D %.UXv.x.c.v.d.s.j.s.v p.yX5Xs.s.k.;.#.;.B 5.y.1.c.0X5X5X<X1X3Xc.s.k.j.s.d.s.m k x k f z m 1 O O . + . x                                               > 2 1 1 . . . k x f N C Z x V C C x x N N 1 O O > z l k N V V N k k k u 1 2 > > > > > O + m 1.1.-.> . . . . .                                                                                                                                                         ",
"                                                                                                                                                                                                                                                                                                                                                                                                                > . . s I W &.O.O.O.R U I e . . . . . 3         . . k C N x 6 5 4 H  .^ ^ D D q 4 8 8 i k k f f f a f l k k x N N m m n x #.#.#.,.7.3.5.y.5.7.j.k.k.OXoXoXOX,X3Xy.. & - > O . *.>X X XDXHXJXj.. . . f x M ,X3X3Xb # 4 # X . X X X X OXyXrXuXyX0X0XyXuXpXyXaXeXrXyXaXqXeXuXiXxXxX8X9XqX9XR.E.E.R.!.3X4X3XrX!.@ X # w F D F } &.fXMXiXxXpX0X0XrXfXfXyXNXGXGXGXNXyXuXaX5XrX3Xe @ # 9.9X9X~.z.oXs.F K D 9.1Xv.l.v.v.v.g.y.q.1XaXrX0Xk.s.j.;.V #.C 6.y.q.v.0X5X5X3X<X3XQ.s.k.j.g.j.j.=.x m z k z m > . . X . . 1                                               . . . . . . + N x x m N V C V N V Z x N N 2 > O O l z k x V V V k k k f > > > > > > = O O #.1.1.;.O . X . . .                                                                                                                                                         ",
"                                                                                                                                                                                                                                                                                                                                                                                                                > . . t R s W O.*.O.s s U % . . . . . 2       >.. . 1 ' B g 8 8 4 w ^ ^ L D D 6 # 5 7 f f f f f f 1 f k k f z m m z m m n C #.#.:.3.1.1.5.4.5.g.j.k.oXoXoXOXoX3Xa.. + & ; $ + L.>X.X XmXDXbXf . . O v v l z.7X3X` $ * $ @ @ @ # @ @ !.yXrXaXeXrX0XeXyXyXyXyXpXyXyXyXrX0XuXiXfXxX8X4X8X9X^.^.R.^.~.2X2X2X5Xh.D w w F F F F _ | ^.uXiXiXpXaXeXeXiXxXpXNXPXSXSXiXyXpXaX0XaX5Xe # # 6 _ R.R.oX1Xk.F K D r.1Xg.e.h.l.z.a.y.y.0XyXeX0Xv.l.j.#.' ' V y.y.5.s.5X0X4XOX<X3Xz.s.z.a.5.k.j.#.m V x k x x O . . X 1                                                   . . + 2 O . > x z z m C C Z N V V m v V V 1 > - > k z k 1 m C N k k z 1 > 2 O . O = f f . m ,.1.,.- . . 1 k                                                                                                                                                           ",
"                                                                                                                                                                                                                                                                                                                                                                                                                2 . . . o $ r Q I s W R r t e e o . . . #.3.3.1 . . X e e 6 9 K G G G G G q 5 @ @ 7 & 1 f f k k f a f a f f z B N x m m x V #.#.=.,.,.5.5.5.y.g.j.j._.oXOXt.-.q.C . . $ T Y U H.>XzXlX}.}.}.h . . x ,Xx.k.OX,X,Xk.q.d.] X # # # # # r [ !.oXeXeX0X0X8X0XtXyXyXpXMXCXxXyXCXCXiXfXcXaXpXiXpXuX8X^.^.^.~.2X4XOX} } } } E } _ w H 5 r.xXyXiXCXMXxXNXMXNXNXVXLXGXxXxXNXMXBXSXfX7 # 4 4 # # 9.3X1X1Xr.e.h.k.v.s.e.h.v.j.oXyXqXyXxXxXpX0XrX5Xy.s.c.a.V V N ;.1X<Xc.j.l.z.s.a.5.1.;.1.>.k z N k 1 f - . . . =.                                                  1 . . z 1.' f x C m z C 6.3.V V :.:.C #.>.C z k k 2 > > O > k z k k f 1 2 > > O . . < C C x V m v z . . O                                                                                                                                                               ",
"                                                                                                                                                                                                                                                                                                                                                                                                                2 . . . . . ; Q F y O.O.R r t r % . . . . . . . . . X # # @ F  .^ G G G D 4 4 4 # & > 1 f k k k f f f f k f x V B N m m m C #.C =.:.:.5.y.5.y.j.j.j.c.oXoX1.C ;.m . . $ Y Y F `.DXJXFX].].}.W . . m 5X3X<X1X1X1XoXx.,X<.@ 4 4 # @ # 4 8 r.Q.rXrXrX0X5X5XrXyXyXxXVXVXBXMXCXVXBXVXVXNXSXVXfXcXxX~.E.^.~.3X4X^.L }  .} | 0.| w w 4 e.NXyXfXCXCXCXMXNXNXNXSXKXKXVXCXCXVXGXGXVXl X # # @ X [ 3X1Xi.!.,Xc.v.j.d.i.c.,Xz.eXMXcXxXiXNXxXaXaXrX1XoX3Xz.x x x 1.oXx.z.j.s.s.y.-.#.=.' Z C m x N x u O . . . .                                               . . . . . . l :.V l N =.N V :.7.1.:.;.,.1.;.C =.V z x m k O O O < k f f 1 1 1 1 > > > 2 1 k N V #.V > . . . . O                                                                                                                                                               ",
"                                                                                                                                                                                                                                                                                                                                                                                                                O . . + + . ; Q I Y Q / O.y % r $ . . . . . . . . . . @ @ @ F  .} J G G 6 4 5 4 # o > f k k k f k k f k k f x Z N N m m m C #.V #.:.-.,.y.y.y.k.j.g.c.oXoXt.:.5.#.. . . y U q XXHXHXnX|..X Xj . . k 3X3X,X1X7X1Xj.d.x.] X # @ @ X X 5 5 %.4XiXiXtX8X5X5XqXpXuXiXMXMXMXMXMXVXVXPXCXNXSXVXiXuXtXW.R.R.^.2X8XR.K G ^ | | | _ 0 w 5 ^.PXjXNXNXcXcXcXcXiXNXLXLXLXVXMXCXBXVXVXGX,.. # # # @ b 7XoX&.k._.v.l.g.h.W.z.oXc.yXxXiXpXfXcXfXrX0X5X1X3X5Xs.n B m 1.<X,XOXz.j.j.1.V =.#.m V #.V B Z x 2 o . . . .                                               O . . . . . < C m 1 m Z N V 1.y.3.=.;.:.:.C N C V z z x k > > O 1 k k k < 1 f 2 O > 2 < 1 1 N #.;.m . . . . .                                                                                                                                                                 ",
"                                                                                                                                                                                                                                                                                                                                                                                                                  =.        -.% t t I R R y t r e ; e % . . . . . . X 4 4 4 G J J G D 8 4 # # @ $ O > > 1 k a f k f f f k l x N N N v m x N C V #.;.-.:.q.y.y.j.k.g.a.g.OX<.b ` g . . X T o.~ XXAXAXbX'.'.[.i.S . 1.7X<X,XOX,XOXz.l.c.q.] ,.<.i b b # # t ` u.w.] !.rX5X0XeXyXpXMXMXMXNXNXNXNXxXVXVXVXVXNXMXxX9X@X9X+X4X8X2XW.W.0. .&.R.&.w p F | ~.2XfXGXVXcXcXNXxXBXLXLXGXMXMXCXCXNXBXpXi X @ # 4 # { 2X!.W.W.i.e.e.g.W.W.6XrX5XeXVXVXxXiXxXfXpXpX0XoX1X3Xd.N x k m 1.1.1.s.j.s.-.N =.V k N Z k z x > . . .                                                     + . . 1 N m V V B N Z ;.:.;.p.j.s.,.;.1.:.V V V Z z z x z 2 > > 2 1 1 > > > > = = O f C V x C #.-.1 . . 2                                                                                                                                                                     ",
"                                                                                                                                                                                                                                                                                                                                                                                                                              . . . s s r y r r d s R s o + O . . . X 5 4 6 G K K D 5 8 6 X X @ & > > - 1 k 1 f f f f a k z z m N N N x x m N =.;.;.=.:.5.7.a.z.k.s.w.u.s.p 8 9 X . . % J.H.J.%XDXDXbXA.V.C.9X_.y.5X,XOX,XoX_.c.c.c.c.,X3X5X7Xw.d.w.% X . . . X . k.yX5X8XeXiXxXVXBXCXMXxXyXyXuXVXGXVXVXVXVXVXMXfXcXeXsX8XsXrXaX!. .R.^.R.| | _ F F E 9XJXKXPXCXBXCXPXLXLXLXVXMXBXMXgXfXfXi X # 6 6 5 &.,X!.!.R. . .R.z.e.OXMXMXxXCXSXSXVXiXxXxXxXxXxXOXs.v.l.N 1 1 f f 1 z p.d.p.4.V C N f 1 k 2 O - . X X .                                               . . . O o . C 6.7.7.X.C C C 6.p.p.k.d.d.s.1.,.7.>.Z V x f z x x 2 > 2 > O + O O O O O > O f 1.1.-.#.;.#.& . . V                                                                                                                                                                     ",
"                                                                                                                                                                                                                                                                                                                                                                                                                              . . . s I I y r r y y y s $ + + + . . X 4 4 4 D G G F 8 q 6 X X @ $ > > > 1 k 1 1 1 a S S k z k z N N m x x m V :.:.;.=.1.5.5.s.k.k.z.d.4.i 5 9 8 X . . ; G.H.F.*XJXJXFXI.F.o.g.6X3XoXoXoXoXQ.v.k.k.c.oXoX,X1Xz.<.<.] $ . . X X @ ) eXjXeXpXrX,XVXGXMXCXBXBXNXpXeXCXGXSXVXVXBXVXNXgXgX0X6X5X6X5XsX%.} | R.R. .| } J }  .tXJXKXLXCXCXCXVXLXLXLXVXBXVXBXCXZXtXi # 6 6 4 4 | OX!.&.| &.| e.u.k.rXjXpXiXVXSXVXMXfXxXiXiXxXpXv.j.oXv.C 1 > 1 z k x p.j.s.7.C -.#.k u k 2 + O + . . .                                               . . X . . . N 1.,.1.V Z C V 3.6.5.s.j.k.a.1.3.7.=.N Z x 1 k x k O O > > O O O O O O + . . 1 ;.-.#.:.X.l - . .                                                                                                                                                                       ",
"                                                                                                                                                                                                                                                                                                                                                                                                                              . . . r y y y s s s ! R y e ; ; o . . X 8 5 w L L G D 0 0 4 X @ @ $ > > > 1 a 1 1 1 1 1 1 k z k k z x x x z x V =.;.;.;.:.1.5.y.a.j.w.2.R 5 8 8 4 + + . % G.T.J.%XmXDXFXK.T ; f.<XoXoXoXoXoXv.l.l.l.v.Q.oX1X<XQ.w.w.2.* u * . @ @ ` h.k.eX0XB & !.BXVXBXPX8X!.rXuXpXSXGXVXVXVXBXNXfXfXrX0X0X3X0XrXw.{ { | |  .R.R.} { E 9XJXKXLXVXVXVXSXKXKXLXMXMXVXBXwX+Xp 5 0 w 5 7 i.^.9.) 9 { r.9.u.z.5XrXxXCXMXCXVXVXNXcXxXpXpXiXyXk.j.oXl.:.m u 1 a 1 f ;.y.y.x n ;.V 1 1 a + . + . f                                                   . . . + k z #.,.,.7.3.=.N =.y.y.7.q.d.g.5.=.:.1.C Z V x f x N 1 2 k 2 O 1 1 < O O + . > > 1 #.=.=.n - + 1                                                                                                                                                                           ",
"                                                                                                                                                                                                                                                                                                                                                                                                                              . . . . . . s O.Q / +.O.s y U R ; . . 4 J G L N. .G 8 6 5 4 $ $ # & > > > 1 1 1 1 1 1 1 1 1 1 k k k k n n x N C N #.1.:.-.] ,.4.y.a.R G G G 6 * , O X + y '.].[..X.X X{.- . . f.<Xx.c.c.OX<Xz.l.z.v.v.z.,X6X3X3X5X5X3Xk.3XOXu X # # # 8 _ p @ # X ` MXKX8X6 4 ` 4XqXBXVXGXLXLXVXBXVXBXMXNXNXaXrXuXyX9._ _ | ^.R.R.0.| H W.KXKXLXGXGXGXLXLXKXLXyXeXxX~.7 % 8 q 0 8 F wXSX9Xw 4 9 %.r.%.!.yXtXyXGXLXLXVXMXCXSXVXxXiXpXpXpXoXs.z.p.=.#.-.z O - 2 z B C x z m k O - - X . . .                                                 > . . . + 3.k.j.s.y.y.s.k.s.1.p.d.s.d.5.3.7.1.V N C :.>.:.V x Z V m C =.C f k k k > O . 1 =.#.m m X.C . . .                                                                                                                                                                             ",
"                                                                                                                                                                                                                                                                                                                                                                                                                              . . . . . . s / Q Q / / Q d U I ; . . 7 P L ^ N.L D 0 6 6 4 @ # # & > > > 1 1 1 1 1 1 1 1 a a k k k k m n n V C V =.1.:.:.$.:.7.5.] D J J E i : + . $ $ t H.H.J.}. X X[.X . . f z.Q.c.oXOXoXv.z.z.z.v.z.OX3X3X3X5X5X6X3X3XrX<.. X # 4 8 G G # # @ X %.,Xw 8 5 @ h.VXPXGXKXKXKXGXVXVXVXMXxXNXiXeXpXaX&._ { e.8X^.R.&.| H ~.JXKXKXGXGXGXLXLXLXLXpXeXxX!.# 4 0 9 q 5 { ZXBXwX| } D { r.{ !.pXeXxXGXGXLXVXMXMXGXPXxXiXpXpXxX7Xs.c.p.#.=.:.z O - > n Z N m x n f O > - . . . . C                                             . . . . . O 5.y.y.d.s.a.s.a.p.p.p.p.a.d.7.1.3.:.Z v C ;.=.:.=.x N N N C #.#.z k z k O . . N #.V N C #.N . . . 3                                                                                                                                                                           ",
"                                                                                                                                                                                                                                                                                                                                                                                                                              x N k . . . y Q W ! / O.! r s U $ . . % L ^ ^ ^ K D 0 6 4 # $ @ @ & > = > 1 1 1 1 1 1 1 1 1 1 k k k k v m m Z V V #.1.1.<.b $.5.p 8 9 H _ _ g O . . $ o ; G.H.H.[.|. XD.. . . O k.OXoXOXc.z.v.v.z.v.x.v.v.,X3X3X3X4X7XOX1X5X2.O o # 4 5 L  .w X # # # # q q 4 @ ` MXVX9XMXJXVX9XcXVXCXxXNXMXNXiXxXeX| _ _ ^.MXCX+X} | H ^.LXKXGXVXSXSXVXLXLXGXyXiXNXh.# 4 5 8 8 8 R wXBX9Xe.~.J r.OX9.!.pXyXiXVXGXGXVXNXMXBXCXxXuXyXyXiX1Xa.x.1.C ;.-.k O > 2 x N N m k 1 1 - O O . . . +                                               . . . . . & 1.y.y.y.q.a.p.y.j.k.y.y.a.s.7.1.3.=.m N C :.>.>.C x x z f m X.C < 1 k 1 - > O x #.V V V z x . . . +                                                                                                                                                                           ",
"                                                                                                                                                                                                                                                                                                                                                                                                                                    + . . % %.%.%.R s s e r r X . . 6 ^  .^ D D D 6 @ @ @ * - - > 3 > > < f 1 1 1 1 1 a f f k k k k B V V m m m V =.1.) 8 6 p 8 F H F q F ` 1 . . % % s {.}.&X%X]..XD.X . . ;.3XoXoXc.x.c.c.x.c.z.v.v.c.oXOX,X1X,XOX,X1X3X,Xz.d.% 4 D G ^ J F 6 # # # 4 0 5 # # _ | D J @XN.P +XqX+XtXVXVXGXLXLXLXW._ _ e.GXJXGX~.| { e.fXgXwXcXSXVXSXLXLXGXCX8X9.w 4 5 5 5 8 8 8 w 0.4X5X6X<X0XrX4XrXBXVXVXGXLXVXxXcXMXxXiXxXaX3X5X8X6.1.y.1.V N m k 1 u k 1 2 z 1 . . . . . . k                                         x k N     > . . 2 z 1 C Q.oXz.5.5.y.y.j.oXc.k.a.y.4.1.7.6.1.C #.>.>.>.;.C z z f f z m N 1 O > > N #.m B :.:.V + . . . . .                                                                                                                                                                             ",
"                                                                                                                                                                                                                                                                                                                                                                                                                                    + . . ; &.*.r.%.s s e e e X . . w  . .J 0 q D 4 X @ @ & > > > > 3 > 1 f 1 1 f f 1 a f k k k 1 k V C C m m m V >.:.h 8 8 5 8 H E D 9 q ) v . . e % s |..X.X|.[.].[.$ . . 3.5X,X,XoXOXoXc.c.c.x.v.z.oXOXoXOX,X,X1X,X,X1X7X3X6X-.@ 9 K G G K 5 # @ # # 5 6 4 # 8 G G P K.N. .^.4X~.gXLXGXLXKXJXGX9.H _ 0.CXSXKX+X| | e.tXwX9XMXSXVXGXKXKXJXuXH D 6 4 5 5 5 8 8 q 8 4 W.aX6X0X0X6XsXNXVXVXSXLXKXGXxXxXMXNXiXxXyX3X4X5X7.-.7.1.N m m z f k k 1 2 1 > . . + . . .                                           . . . . . . X . f V z #.z.z.k.5.7.5.y.oXc.z.z.a.3.=.:.6.6.7.=.C ;.;.:.:.=.x m f k k k m 1 + O > #.-.V #.2.5.B . . . . . .                                                                                                                                                                             ",
"                                                                                                                                                                                                                                                                                                                                                                                                                                    1 O . & %.*.&.i.*.I r r t X . . t  .^ F 0 0 q # X @ @ > > > - & & 3 1 f 1 1 a f f k k k a k a 2 z V V m x m V ;.:.R 8 8 8 9 F G D F { ` k . . t % t '. X X}.]..XI.. . . :.5X3X7X<Xx.c.oXz.z.z.c.z.x.OXOXOXOXOX<XOXoX,X7X,X<Xz.$.` 9 F W.^.% . X # 4 5 5 5 # 0 J K } /./.(./.9X9XR.9XSXSXLXLXVX9._ _ &.9XVXCX0.| | | W.tXtXfXSXSXGXLXKXJXe.9 J w 4 8 J H 5 5 8 5 # ) rX0X<X0XuX5XuXSXVXVXKXKXGXxXxXMXMXxXiXeX4X4X5Xp.;.3.=.z m N x f k k 1 2 2 - . . . . . .                                           . . . + 2 + . + c m z B 1.1.5.1.3.7.s.Q.x.z.k.6.,.=.1.6.6.3.C N ;.:.=.:.-.N x f k k k f O + + > V C B ;.1.5.V . . . > 1 1                                                                                                                                                                             ",
"                                                                                                                                                                                                                                                                                                                                                                                                                                          . & , j Q / T * + X . * J J H G F 0 5 4 X X @ & > > 2 > & - = 2 1 1 f f f f f f f k m v k x N C V V V =.-.p 8 5 8 D D D D ` ,.1.x X . X r % r %XnXDX=X].|.`.Q O.@.h x ' <Xp.+ u j.c.z.v.x.x.z.c.Q.c.Q.c.x.Q.oXQ.,X<X1X,X1Xc.,.3XBXBX!.2.2Xl # 5 5 q 8 F L G D J } } } &.&.0 w E W.JXSXLXwX_ | _ ~.JXJX9X0.0.0.0.R.R.+XGXGXGXGXGXJX2XD J H H J ^ } J J D 5 # W.LXPXpXMXGXcXVXKXLXGXVXBXCXxXNXCXpXyXeX1Xz.oXOX6.;.1.;.z z x k f l z > O > . . . . . . 1                                         k O > O 1 N k f v v l < k 3.3.1.s.l.z.c.x.x.v.p.y.s.,.1.7.7.;.;.:.1.;.#.=.=.m k f 2 f z k + . > z B C ;.6.N 2 - . . 1                                                                                                                                                                                   ",
"                                                                                                                                                                                                                                                                                                                                                                                                                                          . . . o I T I $ . . $ H ^ J F G F 6 5 4 X + > > > 2 > > > > 3 2 f f f f f f f f 1 x B m m m V =.#.C C :.] 8 8 5 8 D D D q ,.3.:.z . . X r % y lXHXJXmX.X}.|.H.F.G.t . . k - . . 3.1Xz.z.z.c.oXOXoXoXoXc.x.x.c.c.oX1X1X,XoXoX,XeXiXaXxXCXxX) # 5 5 8 9 D ^ ^ J 8 F H 9 8 8 H H 6 H fXLXGX~.} | | BXJXJXwX0.R.e.e.0.| 9XLXGXGXGXGXJX8XD J J J G L L ^ ^ w 5 # h.LXGXVXVXVXGXJXJXJXKXCXMXCXNXMXCXyXrXrX7Xg.v._.3.;.3.1.k f k f k z x > + = + . . . . .                                   . . . . . > > 1 k z N N m x z < z y.6.7.v.,Xc.oXc.x.c.k.d.a.y.7.3.3.1.1.3.3.;.>.;.C x z k > l x m 2 + k x C #.;.-.O . . . . 2                                                                                                                                                                                   ",
"                                                                                                                                                                                                                                                                                                                                                                                                                                          . . + . $ I T $ . . X H ^ E F G G 0 0 5 @ = 2 2 > > > > > > = 1 k f a k f f k f 1 z N m m m V #.' C X.M w 8 0 5 8 8 q D F ;.8.1.N o . X r t t %XHXJXbX.X.X|.C.C.C.$ . . . . . . g.5XoXOXOXOXoXQ.OXOXoXc.c.x.v.c.Q.oX,X1XoXoXz.g.qXuXtXpX5Xp @ # # 0 5 9 ^ } J | gXZX{ # 9 D H H w p tXKXW.| &.e.CXJXJX~.| 0.0.e.R.0.2XGXSXPXSXSXJX4X9 H F 8 0.9X9 F G 0 5 4 X 9XSXxXVXGXLXLXJXJXGXMXCXCXNXMXBXyX5XrX0XoXz.s.4.3.7.;.f < a k f c n 2 + & + . . . . +                                 . . . . . . . + O < k z x x z z 1 m a.y.5.j.oXc.oXx.x.c.l.y.q.d.y.3.3.3.8.1.3.;.=.:.X.x x k > f z x 1 2 u k #.#.:.k . + . . . 2                                                                                                                                                                                   ",
"                                                                                                                                                                                                                                                                                                                                                                                                                                          k . . . . o % @ X . 7 E ^ H 6 q F 4 # # $ > > > 2 1 1 1 > > > > 1 a f k k f f a 1 z N m N V V C #.C #.b 5 6 5 5 8 5 @ @ e u < z u . . X U y ! |.:XAXXXo.A.J.$X;X%XO.Q @.d . . . v <.<.<.#.C k 2 1 M f f 1 5.1XoXoX1X3X5X3X<XOXj.8XuXtXuXuX2X!.<.<.8X8X{ D F D 0.9XLXwX2XtX{ 0 H p w ) +X~.0.0.0.0.+XCXtXwX9XW.R.W.W.W.iXKXGXVXSXLXqX| 0.H | ZXLX_ D E H w # ) CXJXSXGXLXLXGXLXKXBXuXiXyXrXiXpXOXv.3X7Xg.a.w.) b q.a.5.;.M * % e i * 7 7 X . . 2                         1 1 .     + . . . N k . ' ,.u #.,.z k k V 5.5.:.C V N ;.v.l.j.k.v.Q.g.,.,.y.y.1.:.;.1.1.1.#.#.>.m f k 1 > - > > 1 m N N 1 < z O + . :.                                                                                                                                                                                        ",
"                                                                                                                                                                                                                                                                                                                                                                                                                                            > . . . . . @ @ . p ^ J F 4 0 0 # @ # & > > & 1 k k f > > > > 1 a f k k k f f 1 z N N V C C B C #.=.v 5 4 7 p 8 5 . . * X X X . . . $ I U O. X X:XXX~ o.V.&XzX:X[.J.T.+.. . . . % t X . . . . U Q . . . ;.3XoX1X6X6X6X5X4X,X<XyXyXyXpXiXNXcXuXpXCXGXr.5 9 9 F G R.SXJXJX2X# w p ) H H R.R.0.0.9._ R.cXNXBXtXR.R.R.^.BXJXLXSXSXGXgX^.^.0.fXJXJXwX^ | | H # e.JXJXKXGXGXLXGXVXVXCXaXaXrX8XtXrXz.j.x.d.y.j.<.5 ) v.l.l.d.) # @ # 4 4 6 6 $ + .                         . . . . 1 k . . . v 3.;.:.l.p.4.q.5.x f f =.s.g.5.k k k =.z.d.d.l.z.x.z.5.:.1.1.:.:.;.1.1.1.#.C =.N 2 1 1 < > O > m #.#.#.O X X . . .                                                                                                                                                                                           ",
"                                                                                                                                                                                                                                                                                                                                                                                                                                            =.. . . . . . . . p ^ ^ H 5 0 0 @ @ @ & > > = 2 f f 1 > > = < f f f k k k f f 1 z V N Z V V V #.#.>.v 4 4 7 H 0 4 . . $ . . . . . . $ I y Q  X-XzX$XV.S.o.[.;XzX`.V.F.~ . . . . X . . . . $ @.[.D.. . . ;.3XoX,X3X4X3X4X1XoX3XyXiXiXiXpXyXeXeXqXxX4X0 8 8 8 w J L CXJXJXZX9.# 0 ) ) _ r.e.0.0.0.| ^.cXfXCXwXR.0.0.^.VXJXJXGXSXLX9X0.R.R.^.ZXKX9XJ }  .J 4 0.JXJXLXGXLXLXGXVXVXBXyXyXyXaXyXaX1Xc.s.$.$.%.w 8 F [ g.d.l 4 # # # # % 7 7 % + .                       1 . . . . . . . . O ,.;.=.3.6.:.,.,.:.f 2 < N y.s.1.k z k t.oXk.g.k.z.c.k.3.3.3.;.=.:.:.,.1.1.=.C ;.Z 1 1 1 1 > 1 k z #.=.:.O . . . . .                                                                                                                                                                                           ",
"                                                                                                                                                                                                                                                                                                                                                                                                                                                z . . . @ 7 * w H H w 6 4 # # # # * > > = = 1 f 1 = > > > < 1 a k k k f f a f z N N N V V M M B i 4 4 6 ) H 4 . . . k 3.. . r e r U Q Z.|.-X;X`.~ T Y G.%X;X{.'.[.A.e t y Q P.r.! ! O.@.D.H.L.' N f 7.3X,XOX,X3X4X3X<X1Xc.oX0X0XeXpXaXtXeXqXxXh.H 9.9.p 5 8 G 9XfX2XwXGX!.[ H ) { r.e.0.9.0.| 0.gXcXMXuX2X~.W.~.uXGXLXGXGXLX9XR.^.9X/.gXBX9.| 0. .^.R.h.KXLXVXGXLXLXBXfXVXNX2XtXgX9X9XtXz.w.<.` 0 8 8 q D 8 ) b # 4 # # # $ i i 7 @ . . 2                     3 . . . < 1 - > O m 4.1.;.a.7Xp.6.c.3.k V x 1 :.d.1.1 1 1 #.y.p.a.y.l.v.a.3.3.1.;.;.:.:.:.-.#.N N N 1 - 2 < 1 k x z z C m z . . . =.                                                                                                                                                                                              ",
"                                                                                                                                                                                                                                                                                                                                                                                                                                                  . . . H L L w 5 5 4 $ . X 7 6 7 > > > - > 1 1 1 2 3 > > > = 2 k k k k k k u 1 k x m N N g i l e 5 4 i f z - . . . 3XJX4XR Y T I O.|.|.}..X.XI.; & I G.F.C.&X-X-X%XS.S.F. XnXHX&X]. XK.t r l 0X5X3X3X1XOX<X3X3X3X3X3X7Xc.z.c.oX0XuXyXeXeXyXiXpXrXaXxXk.# 5 0 _ | } IXJXJXtX4 ) | e.e.0.!.e.| _ +XBXcXCXVXVXgXtXMXgXMXGXGXSXgX9XwXGXBXCXGX9XR.R.~.LXJXGXKXLXLXGXGXLXVXxXCX9XR.~.@XR.R./.{ b ] ) 8 8 0 8 D D 9 5 5 # X X 7 w p p p * . X . +             . . . + O . > x l x 1.:.:.p.6X1X7X5X<X5XiX0Xy.6.1.N =.5.1.1 O + - m N #.p.j.s.s.6.1.,.3.7.7.3.' V C z > > > . o < k N N N x - . . . . .                                             . . . . .                                                                                                                                           ",
"                                                                                                                                                                                                                                                                                                                                                                                                                                                  . . . F L L F 5 8 5 @ . X 4 7 7 > > > > 2 f 1 1 > O = > > > 2 k k k k k k 1 1 1 k N N v m l u e 8 w - . . . . . =.LXJXJX&.6 U Y '. X}..X.X.XL.- % I G.J.J.|.-X>X|.o.o.A. XzXJX-X.X XO.. . > 3X6X4X3X1XoX<X4X3X3X3X3X1Xx.c.oXoX1XeXyXyXyXpXiXjXyX0XpX2.X 6 8 _ 9.| GXJXJXGX9X_ { e.0.W.BX2X9.| ~.NXfXMXCXxXwXgXCXgXfXGXGXBXhX9XwXfXCXBXLX9XR.R.fXJXJXLXLXLXLXLXLXKXGXtXuX2XW.^.^.^.R.R.{ b b i 5 0 5 5 D K 9 5 4 @ X # 8 D F F F 7 . . . .             . . . . . + > 1 & x 3.1.#.y.7X<X7X7X5XrXaXeXs.1.:.m ;.5.1.= + . 2 C N V p.l.j.k.y.1.,.4.y.p.7.C V #.N 2 2 2 . o < 1 z n N z . O + . . .                                             . . . . . . . . .                                                                                                                                   ",
"                                                                                                                                                                                                                                                                                                                                                                                                                                                  . . . w J J w 4 8 5 @ X X * * - > > > > > 1 1 1 = = > > > > 2 1 f k f f k 1 1 1 1 m m m b i i e 6 7 $ 4.t.o M %.2.ZXmX:XZ.Y / T H..X]..X.X.X@.+ ; r / D.F.}.:X:X%XS.C.S.H.|.%XI.D.I./ . o f OX3X7X7X1X1X1X<X7X3X3X7XOXz.c.oXc.z.OX1XqXyXpXpXuX0X0XqX<.p 5 9 H J H wXZXSXLXJXtX| 0.e.W.8X8XqX~.tXVXCXMXGXVX9XtXfXfXVXKXGXcXwXgXfXvXCXZXCXW.R.R.9XJXKXSXGXLXLXcXCXGX9X| 0.W.e.0.e.R.R.} w r p 7 5 4 # 4 9 G %.i @ % g { { { F p b , . . . . . N 1 . > 2 . . . > V O . B z.,X=.' 3.j.v.c.1X8XrXrXeXrXs.4.1.k =.y.3.k 1 - 2 m N N #.3.s.s.7.3.1.1.7.7.#.V C #.c 2 1 2 O > < < V -.#.k o O O + .                                               . . . . . . . . .                                                                                                                                   ",
"                                                                                                                                                                                                                                                                                                                                                                                                                                                  . . + G G G 6 # 5 4 X X X & > > > > > > O > > > > > > > > > 3 > 1 f f f f f u 1 k V m N p 6 p i . . %.HXJX*X-X-X{.]..X.X[.H.H.J.[.].[.lX;X;Xr.. o e T O.Y #XAXDXbX].[.D.~ ~ ( 7 . . . 2 l.,X3X2X1X3X4X4X7XOXOX,X<X<X<Xc.v.x.c.z.k.j.k.1XuXuXyXrX0X8XqXtX9.8 F G J } | H ~.JXJXSXe.0.e.0.qXGXVXLXJXKXLXJXJXBXuXCXfXLXJXJXCXhXZXJXLXCXCXZX~.0.R.CXJXKXLXGXLXGXuXuXwX| | | } H E &._ q 8 9 8 5 6 4 4 [ w 9 W.pX,X' a.l.l.c.v.#.m C a . . . . . . . . 2 k & . . p.5X-.V xXGXPX5X<X5X5X1X1X8XrXrXrXrXeX5Xz.z.5.V #.3.3.=.C 1 > 2 1 V =.#.:.3.1.3.=.B V V V N N 1 O & + 1 z f f 3.j.;.+ + O 2 k                                         . . . . . . 2 > 2 > > . . .                                                                                                                                 ",
"                                                                                                                                                                                                                                                                                                                                                                                                                                                  . + * G G F 7 # 4 @ X . X * - > > > > > > = O > > - > 2 > > > 1 k k k f f u u 1 k V B m m l g u . o *XHXDX:X>X X X.X X X[.].].].].].[.mXAXnXi.. o d o.o.Y *XDXAXmX'.'.G.o.V.S.r . X . + c.<X3X7X1X4X3X4X<XOXOX,X<X<X<XoXz.v.c.c.x.x.k.<XpXyXyXyXrX0X8XaX~.4 9 H F _ | F R.JXJXtXr.e.0.^.SXJXLXVXLXKXJXKXKXLXfXfXfXZXJXLXZXvXZXJXKXCXvXZXCXW.R.~.NXJXJXSXSXGXNXfXfXW.} | | H H { D 5 8 9 5 # # 5 w.rXW.e.0X6X5X3Xl.a.p.a.s.7.#.N > + . . . . + . < N x x > z k.z.j.1XfXiXMXMXaX8X7X3X5X0X0X0X0XrXrX8Xz.Q.y.N C ;.=.C #.1 > 2 < #.:.C :.3.1.3.:.N V C #.x z k O . - c k 1 l #.:.N . + . . .                                         . . . . . C j.a.y.y.a.;.. . . .                                                                                                                             ",
"                                                                                                                                                                                                                                                                                                                                                                                                                                                  . . @ F G w @ @ # X X X $ * * * & > > > > > > > > > 2 < > > > 1 1 1 f f f f f f k N N m m m z < . g dXkX{.S.|.&X`.U. X|.H.J.H.Z.G.H.'.mXAXAXE.. O e ~ ~ U #XmXzXkX'.].J.o.o.+.d . o . k v.,X<X3X<X3X3X4X<X,X1X1X<X<X<XQ.z.v.x.x.c.c.z.<XaXyXyXaXqX0XeXcX2X` H F H _ | _ | NX4X{ e.e.0.^.LXLXVXfXGXGXLXKXKXBXMXCXfXfXGXGXZXvXZXJXJXZXBXZXLXtXW.e.e.9XcXGXSXSXcXfXMX^.} | | | 9.0._ ^.W.5 0 p H 9.aX0X8XrXeX5X4X8X5Xs.a.l.y.4.s.y.1 . > O . O > 1 =.C z V 1.,.a.oXl.k.aXxXfXNXyX4X<X4X3X6X8X5X4X0X0X<Xz.oX1.C =.C #.;.=.f < 1 1 B C z =.:.:.5.=.m V C m k k f O + 1 c u 1 z f O o + + O k                                           . . . 1 =.a.s.s.a.y.y.y.k . o .                                                                                                                             ",
"                                                                                                                                                                                                                                                                                                                                                                                                                                            k 1 , 5 5 0 0 6 # @ @ X X $ $ % > > > > > > > > > > > 2 2 1 k f 2 > > > > 1 f f z m m x m N N B 1 . o O > i r % @ r r % ; j r t y y r ~ ~ +.%X-X;Xi.. . e R s t ! [.H.'.;XzX%X$ o $ - > + ;.<X,X1X2X3X3XOX1X7X<X<X7X<XOX1XOXx.z.x.x.x.c.c.v.Q.c.2XeX0X0X8XNXGXPXGX^.J  . .} } | | [ 9.e.e.e.W.eXqX4XMXLXGXLXKXLXGXKXKXVXBXLXJXKXGXJXJXJXJXKXJXCX2X~.W.0.| wXLXSXVX~.W.W.0.| | | 8XxXiXuXMXiX!.8XfXfXNXBXxXiXCXVXNXyXpXfXrX8XaX5XoX1X3X1.x =.m > > > 1.6.;.1.z.z.a.,X0X4X4XuXpXpXPXVX<X6X0X6X8XrX0X<X3X3XQ.Q.OXa.5.q.1.3.5.y.1.1 1 1 1 1 > k x z =.#.N V m < 2 1 < a k 1 k k f 1 . . . + 1                                           k + . . 1 a.j.s.a.a.s.5.1.7.:.C #.M 1 k                                                                                                                         ",
"                                                                                                                                                                                                                                                                                                                                                                                                                                            . . @ 8 8 D 6 # # # @ . . @ # % > > > > > > > > > > > > > a k k 2 > > > 3 1 f 1 z x v m V N B C f . . + . . . . . . . + . . . $ % X y ~ T T [. X XO.. . ; U y t Q H.J.[.lXnXkX. . . + > O 1.5X1X1X1X<X<X1XOXOX1X7X3X<X,XOXOXc.v.c.c.x.z.z.v.c.z.Q.rXrX0X8XpXSXLXKXW.J  .} { { | | 9.9.e.e.e.e.4X8X4XSXLXGXLXKXLXKXKXKXLXLXJXKXJXJXJXJXJXJXJXLX9X~.9XW.e.0.~.VXGXfX| | | | | } 0.fXxXiXfXyXyXNXNXMXBXBXMXcXcXCXBXBXNXxXxXiXaXaXrX7X_.7Xy.N >.Z > - = #.1.=.7.z.j.j.6X0X4XqXxXpXiXGXLXNX8X0X0XeXyXeX7X1X7XQ.c.oXz.q.y.y.y.a.s.5.1 1 1 1 1 > u x k z V V V x 2 2 2 2 1 N m f l k 1 . . . . 1                                         . . . . f 5.g.y.y.y.y.a.7.1.,.-.#.-.$.+ . .                                                                                                                       ",
"                                                                                                                                                                                                                                                                                                                                                                                                                                            . . X 4 w 0 # 4 # % @ . . $ 7 % & > > > > > > > > > > 3 > 1 k f > > > > & < 1 1 k x x v N N V #.N + O > 2 O . . . + - o . . . - t $ y ~ T ~ |. X XO.+ . - y y r Q H.H.[.;XzX*X. . . O - O ,.6X<X,XOX1X1XOXOXoXoX<X7XOXOX,X1XoXc.c.x.x.v.v.z.z.c.z.oX5XeX0X0XBXLXLX~.} E _ { } } | 0.0.e.e.e.e.W.2X8XSXGXSXGXLXKXLXLXJXJXKXKXJXJXJXJXJXJXJXJXGX~.~.2X^.W.W.R.W.fX9X| | } 9.W.| | iXMXpXyXyXaXyXuXpXNXMXNXxXNXBXCXCXpXpXpXrXrXrX5X1X<X7X7.C ;.x O > + z :.=.#.s.z.j.1X0X3X0XMXyXpXGXGXpX5X0X6X5XyXyX3X,X,Xc.c.oXs.1.5.;.Z 7.z.y.u 2 2 1 1 2 f v l k x V X.k - 2 2 2 l #.=.m u f 1 . . O 1 N                                       1 . . . f 1.u.s.y.5.y.a.a.1.1.-.C C ;.#.O + . =                                                                                                                     ",
"                                                                                                                                                                                                                                                                                                                                                                                                                                            . . X F } E # # 4 X . . O l b u O O + & > > > > > > 2 > > 2 k k f 1 > > = O f z x m m v m N N N x x c k z f > . . 1 k 1 O O O o X . t ~ Y o.-X-X-X*.. X - x u $ I Z./ Z.&X&X{.R d r O . 1.8X3X1X,X<X<X1XoX,X1XOX<X<X1XoXc.oXc.c.c.c.c.Q.v.k.k.z.z.s.z.3X1X1XeXNXMXCXtX~.0.^.^.R.R.^././.W.e.e.W.~.W.fXLXGXLXKXJXKXJXJXJXJXJXJXJXJXJXJXJXJXKXLXgXgXgX9XtXZX9X9XSXGXgX8X9XNXKXNXtXLXJXVXVXGXVXVXSXVXGXVXVXSXGXGXVXNXNXCXxXrXyXpX0X6XrX0Xz.v.c.=.O 1 2 V 3.=.7.<X3Xc.1XyX0X5XqX8X6XNXpX<X3X3X3X3X5X6X7X1X1X,X,XOXy.q.y.C k N :.4.,.#.m z x z > 2 > 2 z x m f O O + > C -.;.m . . . . .                                             o . . =.k.a.y.z.k.y.a.z.j.5.y.y.,.1.u.5.V V B > k                                                                                                                   ",
"                                                                                                                                                                                                                                                                                                                                                                                                                                            . . %  . .^ 6 # 6 X . . > m x z > + O > > > > > > > 2 2 2 2 k k k 1 > > O 1 x x m N N m m m N z z x z 1 a k l f 1 k z c < > 2 + . . t ~ Y O.-X:X-XO.. . , Z c + s O.U O.&X-X|.@.S.O.O . 3.eX3X7X1X<X<X1X1X<X<X,X<X<X<XQ.z.c.c.c.Q.c.oXoXz.z.z.z.k.k.k.z.Q.1X7XrXiXpXiXiX9X/././.^./././.~.^.^.^.^.e.gXKXLXJXJXJXJXJXJXJXJXJXJXJXJXJXJXJXLXZXZXfXfXfXCXKXJXLXLXJXKXKXKXJXJXLXLXKXJXJXJXKXLXLXLXLXLXLXLXLXLXLXLXGXBXBXBXBXcXpXpXiXrXrXeX3Xc.<Xs.1 2 2 :.y.:.j.5X3X3XeXyXeX0X6X5X5X3X7X3X7X3X6X6X6X3X7X<X1X3X4X<Xl.y.a.7.v x x -.1.:.;.N m N 1 > > > z v m z > O + + x ;.;.1 . . . . +                                       . . . X . O s.u.y.k.k.k.j.k.j.g.p.t.y.y.y.s.s.:.-.,.< . .                                                                                                                 ",
"                                                                                                                                                                                                                                                                                                                                                                                                                                            . . % ^ / E 4 6 w X . . + f k z > + O > > > > > > 2 2 > > 2 f k k 1 - - & 1 x x m m m m m m x 1 1 k 1 > 2 f k k k 1 f k - O > + . . % o.Y ~ &X-X XQ . . < x c f ! / U O.-X-X|.Y ~ ~ X . 1.eX3X3X3X1X1X1X<X<X7X1XOX<X1Xc.x.c.c.c.c.z.x.c._.c.z.j.k.l.x.oXoX<X3X3X0X0XrXpX9X(.^.^.R.R.^.^.~.~.^.W.W.R.2XSXLXJXJXJXJXJXJXJXJXJXJXJXJXJXJXKXSXZXBXfXfXgXLXJXJXJXLXLXLXGXLXLXSXVXGXLXKXJXKXLXLXLXVXVXGXGXLXLXLXLXLXLXSXBXBXVXcXyXpXxXaXrXaX3Xj.oXy.> - > N >.3.k.6X3X7XrXyXrX0X0X0X5X3X3X3X<X4X6X3X5X3X<X1X,X7X5X4Xc.6.a.5.x v m #.-.-.=.x x N k 2 2 2 x N N x 3 & O . 1 m x + + O . . .                                       . X X . . m y.z.s.a.z.k.j.g.d.s.y.6.y.5.7.a.y.#.#.=.- . .                                                                                                                 ",
"                                                                                                                                                                                                                                                                                                                                                                                                                                            . . @ 6 w w @ @ $ X . . + k k f O + + O > > > > > 2 2 > > > f f f 1 1 1 - > m N m N N m z z z 1 1 1 1 1 2 a N N x x m n f k 1 . . 3 { A.V.S.{. X XQ . . + k z f e Y U Q `.`.G.XX*X#X, . k c.3X1X,X1X1X,XOX1X1XoXz.c.oXc.c.c.z.x.x.z.z._.h.h.v.v.l.r.h.7Xh.9.^.e.W.8X9X2X9X/.gXZXwX/.^.W.~.~.~.9X~.e.9XZXBXSXJXJXJXJXJXJXJXJXJXJXJXJXJXJXLXJXGXgXfXfXgXGXLXvXhXvXGXLXKXJXGXGXJXJXGXGXSXGXLXSXBXVXSXSXVXVXVXVXxXiXCXpXpXpXrXrXaXrX5X6X6X,Xl.oXy.k l 1 > 1 k ;.<X1Xc.<X0X8XoXoX4XoXc.7X1Xd.<X6X7X3X3X,X,X,Xc.,XOXy.y.a.:.z N v m V C m 1 k z 1 2 1 1 1 k k k 1 + > z 2 + O O O . z                                           . . . k 1.5.a.1Xc.j.c.Q.k.s.s.s.3.1.7.1.1.5.q.7.5.s.V . .                                                                                                                 ",
"                                                                                                                                                                                                                                                                                                                                                                                                                                            . . X 4 # 4 . . + + . . > z k k < . . O > > > > 2 2 > > > 1 f f f f k k 1 x V N N m N N c k c 1 2 1 1 1 2 k X.V C #.#.C B V c . . A P.F.A.I.|. X XO.. . . k x k e I U ! A.C.I.FXDXDX#.. . V 3XoXoX,X1X,XOX,X,XoXz.l.v.c.c.x.z.x.c.z.c.k.| _ e.z.r.&.e.z.e.| } L | ^.W.R.+XSXLXGXGXLXZX^.^.^.~.tX9X~.CXSXVXGXJXJXJXJXJXJXJXJXJXJXJXJXJXJXJXJXJXfXgXgXwXgXCXgXhXwXCXJXJXJXJXJXJXKXGXSXPXVXVXBXVXVXVXVXNXNXMXyXsXsXrX0X0X0XrXrXrX0X3X7X7XoXl.c.l.=.#.V 1 1 > C Q.z.j.OX6X6X2Xg.d.l.l.l.v.Q.7X4X7X3X7X,X,X,Xv.j.d.y.y.a.y.C N N k k m x 1 1 k 1 2 2 < < 1 < m ' f m C O . . > O .                                             . . 2 p.s.g.oXc.x.c.oXQ.Q.d.a.s.3.:.3.7.3.1.7.s.a.k.C . .                                                                                                                 ",
"                                                                                                                                                                                                                                                                                                                                                                                                                                          2 . . . 6 6 # . . . . + . > m z z 1 . . O > > > > > > > > > a f f f f f f f x V V N m N N c k k 2 > 2 2 2 2 k C C C C #.#.m m 1 . . x &.A.S.A.%X&X XQ . . . z x c h / I O.U.H.`.bXAXFXB . . #.2XoXoX1X1X1X1X<X<XoXz.z.c.oXQ.oXk.r.u._.c.%.}  .| &.&.0.r.<.%.&.} E H 0.W.W.^.9XCXCXCXGXfX^.^.W.^.9X9X9XfXGXSXLXJXJXJXJXJXJXJXJXJXJXJXJXJXJXJXJXJXfXhXgXgXwXgXvXgXgXhXfXJXJXJXJXKXGXPXSXSXVXBXVXVXSXSXVXCXCXBXyXrXrXaXyXaXyXaXeXrX0X3X<X7XoXl.oXx.X.V C a 1 2 ;.1Xc.l.1X5X5X3Xl.l.v.z.z.k.Q.7X4X5X8X1XoX1XoXl.k.j.s.s.s.y.' B C m x B m 1 1 1 f 2 > 2 2 > k #.V B C N + . . . . .                                           N . . > 6.y.y.v.c.z.z._.oXc.d.s.s.q.3.7.7.1.1.7.y.y.j.Z . .                                                                                                                 ",
"                                                                                                                                                                                                                                                                                                                                                                                                                                            C =.l @ @ & V C =.1 . . + l x z 1 . + O > > > > > > > > > 1 f f f k f k k k m V N m N x k z k 2 2 2 > 2 2 k C C C C X.#.N m 1 . . S &.A.A.S.{.&X X%.. . O x x x g T Y O.I.I.I.bXAXnXM . . >.0X<X,X,X1X<XOXOX<XoXz.z.k.k.,X_.{ G E w.j.{ _ } | &. .R.W.{ [ [ H ..H E R.^./.9XgXCXBXZX^.^./.~.^.wXfX9X9XGXLXLXJXJXJXJXJXJXJXJXJXJXJXJXJXJXJXJXLXgXgXgXwX9XwXgXgXfX/. .wXGXgXBXJXLXGXGXPXVXVXVXVXVXBXNXcXNXcX1X1X5XeXaXrXeX5X6X0X5X1XoX,Xc.l.Q.v.:.;.#.2 1 2 #.z.s.j.c.3X5Xl.s.d.g.v.x.g.a.g.c.3X,Xj.c.,Xc.a.s.j.6.5.d.5.#.C C z k m 1 O 2 1 < > > > 3 > k N N N N x o . . O                                             > . . . 1 y.p.6.g.Q.x.z.v.Q.l.s.s.p.1.:.5.1.;.:.:.6.y.j.C . .                                                                                                                 ",
"                                                                                                                                                                                                                                                                                                                                                                                                                                                  . . 1       6.. . . f m x N - O > > > > 2 > > > > > > 1 k f f f k k k n m m N N x x x z z z l 1 2 1 x #.#.#.V B B N N k . . >.E.A.D.I.|.&X X*.+ . 1 v z N 1 $ o t O.~ Z.lXnXmXi.; o z 1.y.OXc.oXoXz.z.c.x.j.g.s.u.v.f._ E J _ %.H F F F | R.+X+XE.&.e.w.b b u.rXeXeXiXuXfXLXJXZX9X9X9X9XGXGXZXZXJXJXJXJXJXJXJXJXJXJXJXJXJXJXJXJXJXJXJXJXGXGXGX9X^.~.~.~.+X~.0.| e._ | GXJXGX9X~.4XSXGXNXNXiX5X3X3X3Xd.p.j.OX,X1X,Xx.x.,X<Xv.l.l.j.k.v.j.s.s.y.f > 2 k N z C g.Q.oXs.y.y.s.l.j.s.j.c.d.l.k.k.z.z.j.5.6.y.1.:.3.:.:.1.Z O 2 1 < O + + O < 1 > > k f c C =.> . . . .                                             + . > k 2 >.d.p.y.z.oXoXx.l.v.l.s.s.q.C V ' =.#.N V y.a.z.#.. .                                                                                                                 ",
"                                                                                                                                                                                                                                                                                                                                                                                                                                                  . . 2       6.. . + x x z N 2 + 2 > > > > > > > 2 > > 1 k k k f k f x N n m N N N m x x x x z f 1 1 k N N N V B B B V k . . v.XXA.D.I.|.&X X@.O h.$.k z n = . . $ o.o.Z.zXnXnX*.% $ X . . N oXoXc.k.k.k.z.j.s.s.%.[ <.} } } E H y q q F W.2X~.^.(.E.oXoXs.5.rXjXpXpXpXyXCXJXJXLX9X/.9XwXGXZXGXJXJXJXJXJXJXJXJXJXJXJXJXJXJXJXJXJXJXJXJXJXKXKXBX~.W.^.^.~.~.W.0.0.| | H W.CX2X0.0.e.9XGXiX!.2X0X<X1X<Xj.g.j.j.1X,XoXc.v.v.,Xz.k.l.l.z.v.v.d.s.g.N > 2 1 x k z d.oXc.l.p.f.d.g.g.j.1X<Xc.j.k.l.z.z.j.y.y.6.1.:.1.1.1.7.;.1 > < 1 > O + > 1 1 < f l f n #.k . . . . .                                             . . 2 k 1 C d.d.d.c.c._.v.l.v.v.d.p.p.=.B V C V x V s.j.c.#.. .                                                                                                                 ",
"                                                                                                                                                                                                                                                                                                                                                                                                                                                  2 2 1       3.. . . k k k m f + > 2 > > 2 2 > > > > > 1 k k k k k f k x m m N N N n x x x z m k 1 1 k k f f V V B B C k . . :.E.Z.L.D.'. X XO.C FX@Xa k x + . . $ o.o.Z.:XnXnX*.$ o . . . > oXoXz.k.j.k.j.s.b.d._ G } } } } G H i.H 8 ) OX!.^.R.R.4X1X<X0X<X5XyXeXyXpXyXcXKXJXGX2X/.9X9XwXZXGXJXJXJXJXJXJXJXJXJXJXJXJXJXJXJXJXJXJXJXJXJXLXLXwXW.^.^.W.W.W.R.0.9.9.| _ H _ | 0.0.R.E.9X%.@ i !.3X3X3Xc.,Xw.b 1X3XOXc.x.k.z.x.z.z.z.l.v.l.d.s.d.x > 2 1 z x m j.OXx.j.p.y.s.g.d.j.1X2XoXd.j.z.z.z.j.1.3.y.1.>.:.1.7.1.V 1 2 1 1 & O O - f 1 < f k f N N . . . O 1                                               . . O Z Z z d.l.d.d.v.c.d.d.l.v.d.p.s.#.N V N x m V d.l.oX#.. .                                                                                                                 ",
"                                                                                                                                                                                                                                                                                                                                                                                                                                                              3.. . > =.V z x m m 1 3 > > > 2 > > > > > 1 k k k k k k k k k x N N m z z z V #.;.C l x v z k k 1 1 1 k k < X . 3.E.o.~ / [..X.X*XZXAXbX< . O . . . $ Y T T .X&X&X%X*X*X%.. . 2 Q.oXz.k.k.k.s.g.q.) H E } J L L } k.7Xk.<.w.j.j.h.h.k.7X5XrXrXrXrXrXrXyXiXyXpXGXKXJXfX9XwX9XwXLXJXJXJXJXJXJXJXJXJXJXJXJXJXJXJXJXJXJXJXJXJXJXLXKXLXCXMXgXe.0.e.R.0.| | { _ _ }  ._ 8 F E p 5 5 4 p _ { [ r.] * # ) ] ] v.l.y.5.y.z.c.j.p.s.j.j.j.p.k > 1 > > 1 k 5.j.y.p.j.d.y.y.y.s.j.l.j.s.g.c.s.4.1.#.#.1.;.V =.=.N z k 1 O > O O > O 2 m m m > . . O O . . 1                                                   . . V d.q.3.d.j.d.6.p.d.d.d.l.d.1.:.3.C B N f < 1 k 5.y.d.V . .                                                                                                                 ",
"                                                                                                                                                                                                                                                                                                                                                                                                                                                              3.. . 1 1.-.#.m m C k O 3 > > 2 > 2 2 > > 1 k k k f f k k f f x N N N x z z #.:.:.>.V V N z z k > 2 1 1 a 1 . O l.E.~ T / |. X.XlXJXDXvX- . . . . . $ I U U }..X].;XzXnX#X. . > c.oXz.k.k.k.s.,.p 0 J } } E | &.h.<XUX,Xc.j.s.g.g.l.x.k.3XrX0XrXeXrXyXpXuXaXNXKXLXJXfX9X9XgXJXJXJXJXJXJXJXJXJXJXJXJXJXJXJXJXJXJXJXJXJXJXJXJXJXJXJXJXJXJX9X9.e.e.| { | | _ _ }  . .H 5 5 5 6 6 4 4 8 D D J ) 4 8 5 # # ] 4.4.;.y.z.z.j.s.s.d.g.j.y.k > 1 > 3 > > N 3.7.y.c.c.d.6.6.y.s.s.d.g.l.j.3.,.:.=.#.#.N N #.Z 1 k z 1 O O + O O 1 m N m ' < . . . . . . k                                                 k . . =.d.6.p.d.d.d.y.y.p.d.d.l.f.>.=.=.V x z 1 2 > 1 1.6.y.N . .                                                                                                                 ",
"                                                                                                                                                                                                                                                                                                                                                                                                                                                              3.. . < 1.-.=.C N V 1 O & > > 2 2 2 > > > 2 1 1 1 k k f k k k x N N N x z k X.:.:.#.N B m u 1 1 1 1 1 u k 1 & g v.E.~ / ~ }. X X{.kXHXbX, . . . . . $ I U U |. X X X-X:Xr.. . 2 x.oXz.k.j.oXq.% # 7 ^  .L r.1Xc.x.c.oXoXv.y.y.s.g.j.k.k.g.6XeXrXrXrXyXpXpXpXBXJXJXZX9XwX9XgXGXJXJXJXJXJXJXJXJXJXJXJXJXJXJXJXJXJXJXJXJXJXJXJXJXJXJXKXLXJXVXr.0.0.H H H J J } }  . . .0 5 5 # 4 4 4 0 9 9  .W.&.5 4 # X @ 7 b 2.g.j.j.j.s.s.d.d.f.6.a > 2 > 2 2 1 Z =.7.s.Q.OXc.q.6.y.d.g.j.j.z.y.#.7.y.;.=.>.C V #.N 1 z z 2 O + > O . 1 m m C V - . . . . . .                                                   k . . N p.3.3.d.g.s.p.f.f.f.d.v.d.:.:.:.z 1 c k 2 > 1 7.3.;.1 .                                                                                                                   ",
"                                                                                                                                                                                                                                                                                                                                                                                                                                                              3.. . 2 3.3.;.m m m > + O = > 2 2 > > > > 2 2 2 < f k k k k k z m N m x x x #.;.;.#.V V B m x z 1 k k 2 > O & < 6.i.~ / ~ H..X|.U.B.).(.- . . . . . X y y d [.|.].&XlXmXi.. . > x.oXz.z.k.u.{ 0 6 5 &.R.&.h.,Xc.x.c.oXz.g.y.q.s.s.s.g.g.c.rXeXrXrXrXeXiXwX@XfXKX9X0.^.9X9X+XfXJXKXJXJXJXJXJXJXJXJXJXJXJXJXJXJXJXJXJXJXJXJXKXLXJXJXKXLXKXtX9.0.0.e.!.~.W._ L }  . . .w # 4 # 4 5 5 0 r.^.W.8XuXr.i M v i # 4 ) v.3Xz.j.c.c.g.s.y.1.1 2 1 2 > O O N C #.7.oX1Xj.7.6.p.y.7.y.g.6.1.V ;.3.#.V #.N k k f - f 1 > + < Z u > f m z k 1 . . . k                                                         f . . C p.4.3.y.p.6.6.p.p.3.6.d.3.N #.V k f k f f k z 7.:.< + .                                                                                                                   ",
"                                                                                                                                                                                                                                                                                                                                                                                                                                                              3.. . 1 6.y.3.1 < 1 > O O > > 2 2 2 2 2 2 2 2 2 1 f k k k 1 S k l z x N N V =.=.=.=.C V #.:.,.=.f k z > + O . . :.E.T T ~ [.}.[.Y.B.B.M.+ + . . . . X t t y J.H.J.kXJXJX4X. . - k.oXz.z.x.%.G } J H h.,X_.c.c.c.x.c.Q.s.u.y.5.q.y.s.oXOX6XaXeXrXrXrXeX9X(.(.^.e._ _ 9.W.~.wXJXJXJXJXJXJXJXJXJXJXJXKXKXKXJXJXJXJXJXJXJXJXJXKXVXKXJXLXGXKXgX0.0.| NXJXJXJXfX_ L R.&.| H # 4 5 4 6 0 0 ` 8XBXMXCXiX5XrXaXu.4 4 p 3XaX5X7X5X5X,Xj.k.y.z k x 1 . + X k C x ;.x.v.a.6.y.y.4.:.,.7.#.C =.=.C V N V 1 + O O O O > > + > m x x m N O . . + . .                                                           o . . >.f.7.4.3.3.3.3.6.6.,.;.:.C l z k f 1 1 k N N V :.m + .                                                                                                                     ",
"                                                                                                                                                                                                                                                                                                                                                                                                                                                              3.. . 1 p.y.3.f 1 1 > O O 3 > 2 2 2 2 2 2 2 < 2 < f k z k 1 S k k x m N N N #.#.=.#.B V C >.>.=.#.N k + . . . . f.E.Y ~ +.|. X|.Y.B.).K.. . o . . . X y y y '.].].lXJXJXoX. . = oX<Xz.z.x.9.J J E 9.k.k.v.z.c.x.c.Q.c.k.k.f.5.5.u.oX8X5X6XrXaXeXyXpXiX9X(./.(._ | | | | R.9XJXJXJXJXJXJXJXJXJXJXKXLXKXKXLXJXJXJXJXJXJXJXJXKXgXZXJXKXLXJXfX| | { NXJXJXJXJXNX0.} | | e.&.w @ # 4 6 0 4 p CXVXfXyX8X5XrXz.w [ 7X0X5X0X6X7X3X,Xj.k.k.x 1 z 1 . . . m #.B 1.c.v.l.s.s.g.1.;.1.,.#.X.=.>.=.C C C f > > O O O O 3 + . 1 N m m 1 . . . . . .                                                       . . . . . B s.6.6.6.4.3.6.6.6.3.:.:.=.z x x 1 2 1 1 z m V N > O +                                                                                                                     ",
"                                                                                                                                                                                                                                                                                                                                                                                                                                                              6.. . 1 6.6.:.a 1 1 > O O O > > > > 2 > > 2 2 2 1 f f k u k k k k z x N N N N #.=.X.V B V =.-.;.1.;.z O o + X . y.E.Y ~ ~ '.}.|.Z.^ Y.K.. . + + + + + t t r I.].H.kXHXHX+Xi O + y.k.z.u.[ ^ J _ %.k.j.j.l.z.z.z.x.x.z.a.s.y.1.7.a.oX6X7X5XaXaXuX!.h.rXE.R./.R.} | | | 9.R.9XKXKXLXLXJXJXSXSXJXLXCXGXKXLXLXLXJXJXJXJXJXKXJXGXwXhXSXGXGXGXtXW.^.| qXKXLXLXJXJXh.y H [ W.^.r.% # 4 4 8 8 4 OXBXiXaX5X5X0X<Xh.4XrX6X6X6X4X<X<XOXj.k.z.V u k > . . O N C Z ;.j.j.p.6.d.y.V V ,.,.Z N V #.X.x V C k > > O . > < + O = 1 x m f . . . + C                                                           . . . . + ' p.6.6.6.6.3.3.6.6.>.=.>.V k z x 1 2 1 2 x V ' k + +                                                                                                                       ",
"                                                                                                                                                                                                                                                                                                                                                                                                                                                              k . . < 1.3.1.z 1 1 3 + + O > > > > > > > > > > 1 z k f k z z k k a k N N m V =.#.=.C V C =.;.1.1.1.,.z 1 f + . >.E.+.Y T S.A.S.^ D L ^ O + > k k 1 > . . X ~ C.C.*XDXHXmX`.L.j + & ;.2.H G %.x.v.k.k.k.l.v.c.x.k.g.g.5.1.1.:.1.1.,XeX0XaXiXNXyX) 4 H D G J F J } } 4XuXNXGXLXKXLXGXLXLXCXfXCXcXgXcXZXZXLXLXGXKXJXJXKXLXLXSXtX9XwXgXgXwXgXLXLXfX~.9XuXaXuX8X<.7 @ p W.W.W.p # 5 4 4 4 4 * r.CXiX8X5X5X5X5X6X4X5X5X6X3X<X1XOXz.z.l.a.y.;.1 1 z k 1 1 1 c :.:.#.;.1.;.C N B B S f k x x k k k < > > . > #.#.k k z z - + . . . . k                                                             . . f k z 3.6.6.:.3.6.3.:.8.3.C V V N k z z 1 2 > z 1.,.:.1 . +                                                                                                                       ",
"                                                                                                                                                                                                                                                                                                                                                                                                                                                              > . . 1 7.1.1.z < 1 = + + > 2 > > > > > > 2 > > 1 z k f k z z k a 1 k N N m #.=.#.#.C C =.-.;.1.1.1.:.k 1 k + . 5.#XD.Y Y S.S.S.^ G P J + O k k k u > . . X ( C.J.kXJXJXbXF.F.I . o ] { J G &.,X_.z.k.k.k.z.Q.c.k.g.g.5.;.1.1.5.t.5XpXaXaXiXVX8Xp 4 5 9 D 9 F F G } tXfXCXLXLXKXJXKXLXLXSXcXgXfXfXcXfXfXLXKXLXKXJXJXJXLXLXGXtX9XwXwX9X9XgXKXLXCXR.| ^.8X4X2X2.X @ 7 r.W.%.q 5 5 5 4 # 4 @ e OXrXrX0X0X5X5X0XrX4X5X5X3X<X7X7Xc.z.l.g.s.d.V k v x 1 1 2 k ;.;.=.;.;.;.#.N N m f 1 k z l f u 2 O O O O m #.#.N z x z . . . . . . <                                                           1 . X v v k :.6.6.6.6.7.7.8.:.:.m.Z V Z k z x 1 2 - z 1.;.-.f . O                                                                                                                       ",
"                                                                                                                                                                                                                                                                                                                                                                                                                                                              3.. . 1 1.:.-.1 , < - O O O 2 2 > > > > 2 2 > > 1 f f f k z z k u 1 k N N x m #.=.C C V #.;.:.1.:.1.-.1 2 1 o . q.#XD.Y U o.S.V.^ P P H . O z f 1 1 - . . X o.C.J.bXJXJXwXF Y t . $.R.F G K { _.x.k.k.z.z.k.z.c.j.k.k.q.:.:.7.f.k.rXyXyXpXBXW.6 5 6 5 q F D D K D 9 ~.cXfXGXJXJXLXfXKXJXBXfXcXfXfXgX9X9XVXLXKXJXJXJXKXLXLXLXgX9XwX9X9X9XwXGXVX~. .} H k.eXqXh.@ 4 # # p [ H # 5 5 4 # # 4 @ . h eXaXrXsX5X0X3Xp %.0X5X5X<X#.d.,Xk.a.y.a.N k m x 1 1 1 z 1.:.#.;.:.;.V z N V z < u z 2 2 2 1 z O . O m V C m z v 1 . . . + 2 > =                                                           2 . . k z 1 C 6.7.3.3.6.7.8.8.=.N Z V Z k k N k 2 & > >.-.#.u . O                                                                                                                       ",
"                                                                                                                                                                                                                                                                                                                                                                                                                                                              3.. . & #.=.B x m B 1 3 > > 2 > > > > > 2 2 > > 2 k k k k k k k z f 1 x x z z n N V V V C =.=.-.:.,.;.N m m = . O %.#XE.O.Y Y Y N.B.Y. .. . 1 m m N z . . $ o.S.o.%XzXzX;XXX%XXXo O , R E { w.j.j.g.g.z.j.s.s.g.y.y.6.5.3.3.[ ) H OXjX8XW.r.6 4 8 0 4 H &.~.0.4 0 ^.cXVXBXgX+X9X~.e.2XwX~.9XCXwX9XgXgXgX9XwXgXBXJXKXKXLXKXLX9X~.~.~././.9XKXLX9X2X~.h.yXVXVXCX] @ 4 @ %.CXCXk.@ 8 6 4 4 4 # X # 0.+X!.OXq.u e # 5 %.8X5XM X u q.OXj.p.a.:.V #.#.k f f k m z f N V x f 1 k k 1 2 2 > 3 > - N #.m > 1 V C #.f + O + . . .                                                                   . . . #.7.:.1.1.1.;.;.,.:.=.=.C N x N x k z z 1 > O k 3.,.-.< . +                                                                                                                       ",
"                                                                                                                                                                                                                                                                                                                                                                                                                                                              7.. . O ' C B V C #.k > 2 2 > > > 2 > > > > > > 2 k z k k k f z x k a c z l z z x N C V C #.#.=.1.:.:.;.-.:.2 . . M @X#X&.F F F K.).).K.. . = V N C N o . $ o.S.~ `.-X-X;X;X:X*X& . . M $.n.v.a.a.g.k.j.d.s.a.a.y.,.1.5.t.6.F 8 4 i.tX} D 4 5 8 8 0 5 | 9X9X~.=.8XJXLXBXSXwXE _ | R.0.0.R.^.9X9X9XhXgXCX9X/./.CXJXKXKXKXJXKX2Xe.W.W.^.^.9XKXJXGXiXyXpXGXPXSXSXV . 6 4 | BXJX!.@ 0 6 4 4 # @ @ @ E R.0.e.w.e # # # @ r.` X @ . $ 4.k.s.d.s.=.;.:.x f k a 1 1 < f k k 1 < 1 1 > 2 2 > > > & V #.C C V C #.1.f . . + + . .                                                                 1 . . . 7.j.y.5.:.:.:.=.=.>.C C C N c z z k z z 2 - . n 5.:.#.2 . O                                                                                                                       ",
"                                                                                                                                                                                                                                                                                                                                                                                                                                                              C . . O C ' C V V #.k O > > 2 > > > > > > > > > < x x z k k f l x c k k z z x x x N C C C =.=.#.;.1.1.=.-.,.1 . . r.#XE.O.F F U K.).). .. . > Z m B m + . $ o.S.~ `.-X-X;X;X;X#X. . . < > O ' Q.c.k.s.x.oXk.s.s.7.1.5.5.y.2.6 5 8 {  .K G 9 q 9 q 5 # p 0.| e.GXJXJXJXLXKXgX{ | 0.0.9.0.e.gXfX^./.9X9X9X9X9X9XGXJXKXJXJXJXKX2XW.W.^.~.^.9XKXJXKXyX6X8XCXVXSXcX-.i # 8 X 2.BX; X 5 @ . X X . @ 4 4 H 0.0.i.h 4 4 @ . X . . X X X + -.oXc.s.:.:.8.n 1 1 1 k f 1 k z z 1 < 1 1 2 2 O = > > + N :.#.C X.#.1.#.+ . . . . .                                                                 m . . . . 3.s.5.1.:.:.:.>.=.=.Z C =.Z x x x z k k 2 O . k 4.1.;.> . O                                                                                                                       ",
"                                                                                                                                                                                                                                                                                                                                                                                                                                                              z . . + m m m V C #.k 1 f 2 > > > 2 > 2 > > 2 > 2 1 k z k k f k k k 1 k k k z x z n N N V C V V #.:.;.#.;.:.> . . h i.&.W Y I Y K.).).K.X . + n N C m + . @ ( V.~ #X:X-X%X{.$XXX$.w.%.. . . 3 m.=.k > B =.y.k.d.a.y.6.y.y.w.[ w 5 5 5 F G 8 8 D 9 8 h.i.{ { R.GXLXJXqX+XwXe._ 9.| 0.~.| ~.JXJX8X+XfXfXwX~.~.^.wXGXLXGXJXJXLX~.W.W.W.W.R.9XJXJXJXNXyXtXxXVXVXVXCXtXp X . q.LX8Xi ` #.#.$.x l @ # p ) 9.R.i.b # # X O -.2.2 . X X . , ] 4.d.[ b b i > * * * , < < a 1 2 1 1 2 > > O O = 1 k m =.#.1 1 k z > . .                                                                         . X O O - 7.g.t.:.-.:.=.B V C x N C Z n x x z k k > O + 1 1.7.1.- . O                                                                                                                       ",
"                                                                                                                                                                                                                                                                                                                                                                                                                                                        O . . . . . 2 x k x C #.#.V N N z > > > > > > > > > > > O < k k k k k 1 1 1 k k k z z x x x v v m x m =.=.#.=.;.-.> . . $ s y ! O./ ~ K.).).(.$ . . k C C N . . X ~ ( Y dXHXAX$XC.C.G.mXAXmX%.r W h $ $ $ . . . -.OXd.j.j.a.s.u.s.6Xg.y 5 4 8 9 8 8 5 # ~.JXGXe.{ +XKXLXGX9.H _ _ _ { F 2XGXtXVXKXKXLXSXLXJXfX0.0.0.~.tXgXSXJXJXKX~.e.W.R.R.R.9XJXJXJXGXVXBXBXLXLXGXCXVXqXi u.KXKXKXuX3X5X5X3X3XeX2.p +X9X~.OXrXyX$.. + a.0XrX<Xk . X @ @ X # [ F 9 9 4 $ % $ @ X > > > 2 < 1 1 > O O > O 1 V V N x > . . . . . . .                                                                       . . . f f k y.g.s.5.>.:.=.z x N N N A N A v x k f f > + . x 5.5.3.> . O                                                                                                                       ",
"                                                                                                                                                                                                                                                                                                                                                                                                                                                        2 . o . . . > z z n B -.;.V x v z > > 2 > > > > 2 > > > > < k k k k k a 1 1 l k k z x x x x x v N m Z =.=.#.=.;.;.> . . $ r t U ~ ~ ~ K.).).(.$ . . c #.#.N + . X ~ ( G @XHXHX*XF.J.H.mXnXmX=X%X&X{.{.[.{.j . . > V j.j.s.y.s.s.a.1X1Xp 4 5 9 D 8 5 7 h.KXLXJXfXH | BXwX9.| | | | ..w H uXBXCXZXLXKXLXLXLXKXfX0.0.0.9XgXwXCXJXJXKX~.e.W.R.R.R.9XJXJXJXSXCXBXMXBXGXVXNXCXVXcXeXGXJXLXpXoX,X1X<X7X5X0Xk./.9X+X8XpXpX8XM ] 7X3X1XrXh.. . @ # @ # 4 5 8 8 4 @ @ @ $ X & 2 2 2 1 1 1 < O O O + x C B C f . . . . . . . .                                                                       . . . 2 < a p.j.d.p.:.8.>.x x N x A N N A N x k f k > O + x 6.6.3.- . O                                                                                                                       ",
"                                                                                                                                                                                                                                                                                                                                                                                                                                                        2 . . . O + & x N k > N >.m z z 2 3 > 2 > > 2 2 2 2 2 > > 2 k k k f f 1 1 1 k k k z x x x x x x N m N =.=.#.C #.;.2 . . $ e @ y Z.o.~ K.(.).K.X . . n #.#.N + . X ~ ( G #XmXmXXXV.C.G.lXlXlX%X}.}.`.$X X&XW . . . > d.j.g.y.s.u.h.OX!.e 4 9 K K q 4 ` BXKXJXVX' 4 9 R 0 5 J | | E F | e.uXMXfXfXVXLXVXSXLXKXfX| 0.e.9XtX9X9XGXJXSXW.e.W.R.R.R.9XJXJXKXVXMXBXpX6XpXfXVXGXPXGXrXtXLXGX4Xg.OX1Xz.oX4XrXu.| @X/.+XuXyX0X!.` s.6X<X6Xz.u x e @ % # % p p 7 @ @ X X X X X > 2 2 2 1 1 2 + + = > z x m N O . . >                                                                                 X . . > < k 6.d.s.7.:.:.>.A N N z x N N N N x k k f > 3 + z y.y.3.O . O                                                                                                                       ",
"                                                                                                                                                                                                                                                                                                                                                                                                                                                      k . . . k C V V C C z O - > 1 z z 2 3 > > 2 > > 2 2 2 2 > O > 2 > 2 2 1 f f a 1 1 1 k z z k z x x x x x V C V x x Z 1 X . i W * Q {.`.o.M.N.B.^ . . 2 #.C C m + . . s Y F D. X|.Z.U Y / Z.S.S.o.V.C.! , W O.%.f . N p.p.a.j.u.9.%.u.e.H 9 D 8 q F G q w b $.CXu.. 4 6 @ @ 6 _ } _ _ !.VXMXpXxXcXiXiXfXfXfXfXfXgX~.W.R.R.0.| W.LXJXGX^.W.~.0.} ^ W.JXLXSXPXVXBX0X3X2X9XGXJXLXVXeXeXcXcXfXeX<X3X,XOX3X3Xz.$.} J w b !.aX3Xw.[ h.6X7X<Xx.oXq.b <.] <.s.a.q.i # 6 # X X X @ & & O > > - - 1 k k 1 + o + . . .                                                                                 x . . > B N #.:.3.3.>.Z Z N N N Z N N Z x x v k < 1 2 3 O . x s.a.y.> . O                                                                                                                       ",
"                                                                                                                                                                                                                                                                                                                                                                                                                                                    z . . . . z #.C #.C =.z O O . 1 x z k > > 2 2 2 2 2 > > 2 2 O O > > > 2 1 f k k 1 1 1 k z l z x x x x x x V V m x x n 1 o . i Q R *.`.{.L.M.M.N.^ . . 2 =.' =.B + . . y U y A. X|.L.U U T S.V.V.o.o.C.s . . , ] > . C z.p.s.j.u.9.9.w.&.K 5 8 8 5 q w 6 5 # @ i 7 # 4 # # X w } _ H e.PXBXMXxXiXNXfXyXtXtXtXtXgXgXvX9X| |  .J 9XJXJXKX~.W.~.0.} J W.JXLXPXPXSXSXaX3X5X8XgXfXGXBXeXiXNXfXCXcX3X5X0X3XoX1XOX5.M 4 5 # t ~.2XW.&.W.5X3X7X1Xc.j.1.2.2.d.s.p.s.) 4 0 % . X @ @ @ & & > > < m m z z 1 . . . . . .                                                                                 k . . > C B V ;.:.3.>.N N N N N Z Z N Z x x x z 1 < 2 3 + . x s.a.y.> . O                                                                                                                       ",
"                                                                                                                                                                                                                                                                                                                                                                                                                                                  7.. . . . . 1 V V N m x + + + . 1 m m z 2 2 > > > 2 2 > > 2 > + + O > > 1 k u k k 1 1 1 k z k z x n x x x x N V N x x x 2 - O ; s y Q {.{.Q G B.B. .. . 1 =.#.=.V o . X s s t L. X XL.U U ~ G.G.D.S.V.F.! . . . o . . m j.d.j.v.s.2.w.r.J 8 @ 4 5 5 4 X X 4 6 5 4 4 4 4 # . ` 9.F H D 0.NXCXMXxXpXNXNXaXtXgXgXgXfXgX9XgXW. .| _ R.LXJXLX^.R.W.| } J R.LXLXGXSXSXGXaX3X0XqX9X9XtXMX2XrXBXNXCXxX3X5X0X7XQ.oXz.,.-.g # 5 4 8 E R.K.~.rX0X3XoXx.x.2.$.<.$.2.f.q.w 4 4 4 X X @ # @ O - > = 1 N m x m 2 . . . O O +                                                                                   . . - C N N =.:.8.=.N N Z N N V Z N N x z x x 1 1 1 O + . l a.p.6.- . O                                                                                                                       ",
"                                                                                                                                                                                                                                                                                                                                                                                                                        p.p.          d.  d.      . . . . . . x :.N k m N 2 + . . O f k k 1 2 2 & + > > > > 2 > O O + - > 2 1 f k 1 a k 1 k c k k k k z z x z m B N k 1 1 O . . h XXP.O.@./ 9 9 P B.^ . . + Z #.=.V o . X s s 7 @.}.|.`.@.D.Z.Q Q Q y y s e . > V x k k C 4.7.5.5.5.2.<.) 5 # # 4 5 5 4 @ @ # 4 5 5 5 4 4 $ 2.VXMX[ ) !.yXrXiXxXyXyXyXyXeXeXw.&.9XwXgXCXLXgX_ J w ) CXKXZX4X9X2X&.J J r.rXyXxXVXSXSXiXrXaX0X!.OX4XtX0.} 9XBXMXNXyXaX0X5X5X5X<Xu.u.s.b 6 H E H _ w ) <.<.Q.6X<X1Xy.2.5.2.4.s.y.] b b 6 4 # # @ X X & - 1 k k f > 2 O . .                                                                                         z . . < #.V Z C >.>.V V V V N N N N N x f k z k 2 2 2 > & + B y.y.7.> . O                                                                                                                       ",
"                                                                                                                                                                                                                                                                                                                                                                                                                      C . . O       + . . . . . O . X X + . 1 f.p.:.N B X.N + . . > > 2 2 2 > 2 O . + O > 2 > > 2 > > > > 3 2 k k k k k k k z x z k f f z z x N N m 1 < 1 . . . E.zXlX$X5 9 K D D M.L . . . k =.#.N o . X s s 7 O.}.{.|.}.|.`.+ . . . . . . . k s.y.y.y.#.V ' #.' :.<.6 @ # # # 4 5 5 4 # # # # # 4 4 5 X -.LXGXPXNXrXNXpX0XrXrXyXyXeXrXeXrXp E ^.^.hXKXJXKX9.8 4 ` ZXHXZXcXiXMXh.D F r.5X7X7XVXGXGXVXxXNXrXz.z.2XR.} L R.VXMXMXCXCXNXyXyXyXrX1XoX<Xh.` $.[ H 4 # # @ . $.0X1XoXoXv.s.b.l.y.6.n.6.6.b 5 0 4 X @ # $ f z z f + . . . + .                                                                                   . . . . . . < =.C V C =.C Z =.=.C N N N Z N m k < 1 1 > > > 1 2 + #.y.q.7.- . +                                                                                                                       ",
"                                                                                                                                                                                                                                                                                                                                                                                                                      Z . . . + 2 1 . . . . . . . + + o . . k f.p.6.C V X.n . . . > 2 1 2 > = > O + + O > 2 2 2 > 2 > > > > 2 1 f k 1 f f k x x x z z k z z z N Z N k f f o . O *XzXzX$Xq D K G P B.^ . . . z #.#.N . . . y y % @.}.{.[.T.].G.o . . O z x O . > 5.5.q.6.=.#.#.' 1.5.p @ # # # 4 4 5 5 4 # # # # # 4 # 4 X b VXVXMXxXeXrXrXrX0X0XyXpXaXyXaXpXw.9.~.W.@XPXKXLX9.5 4 W.JXJXKXcXyXfX9.q F [ 7X5X5XVXLXGXVXxXMX0Xh.k.k.} } } &.cXNXNXNXMXMXyXrXaX0Xz.k.oXg.$.%.` 0 4 @ 4 5 @ 7 ^.4X<X7XOXoXu.5.b.y.6.6.6.` 5 5 4 @ @ @ , x k k f + . . . . .                                                                                   . . . . + . . N =.C #.=.C C X.' C Z N N V Z Z z 1 f k > > > 2 2 + k q.y.7.- . .                                                                                                                       ",
"                                                                                                                                                                                                                                                                                                                                                                                                                      V % r ; . . . . . o $ $ . . . + o - k =.1.3.;.k x C k . . . O 1 2 1 1 2 2 > O O > > 2 2 2 > > > > > 2 2 > 2 1 1 f f k k k k k z k z z z x N N 1 1 1 O X @ XXzX#XH 9 D D P B.B.N.y X . k B N x . . . s U t A.|.}.%X*X%X`.X . + :.s.a.C 2 z 5.6.y.3.=.-.#.#.4.w.b @ # # # # # 4 4 4 # 4 # # # @ h p p 2.yXCXxX3Xc.4X3X3X0X8XrXpXuXqX4X5Xh._ | R.wXGXLXLX[ 5 5 R gXKXVXpXyXpXw.w F ) [ e.4XVXGXSXBXxXNXrX!.k.u._ } } } 8XBXNXNXcXcXyXrXrX0X4X4X1Xa.<.<.$.i p b 4 4 # @ R e.!.!.k.w.p w %.w.2.$.-.$.0 8 q 4 @ @ & 1 1 < . . . . k                                                                                       . . . + - + + x C N C =.#.V V V Z N V Z N N N k 1 1 1 > > > > > O m y.y.4.> . .                                                                                                                       ",
"                                                                                                                                                                                                                                                                                                                                                                                                                + . . s Q T s . + . o s U s s y X . . O p.d.j.:.N V x + O O + . . O 2 2 1 c k f 1 O > 2 2 2 2 > > > > > > 2 2 2 > > 1 f f 1 1 1 f k f k z z z z x z > > O r I U ( ^ 5 4 9 9 9 ^ B.B.Y.N.7 . f x z f X . . Y ~ Y `.&X|.bXJXHXvXo . 1 f.p.y.p.y.y.q.6.y.6.:.-.:.1.4.2.w.M @ # # @ @ # 4 4 @ # # # @ & k.3X<XyXpXyXuXOXd.j.z.1X5X5X8XrXyXi.r.d.u.H E &.9XLXLXKX9.4 0 5  .^.^.uXpXpXk.[ ) ) ) H 9.CXVXCXNXNXNXiX0X5X6X| _ { 9 ^.LXMXNXcXxXNXcXyXrXyXyX0X,XoXc.l.q.h.!.[ # # # @ X w F F 0 5 5 # p H D H R w D G 0 # # @ X X . . . X .                                                                                   . . . 2 1 1 > > > k B m x C =.#.V N N N Z C C x k k 1 > > > > > 2 > 2 2 #.y.q.3.- . .                                                                                                                       ",
"                                                                                                                                                                                                                                                                                                                                                                                                                + . . y T I s $ + + d I d d d U e . . + 6.p.p.3.C =.N . . O O . . > 2 > 1 z k k 1 O O > > 2 2 > > 2 > > > 2 2 2 2 2 f k f f 1 1 f k f z x x x x x x < = + y ( G ( K 8 8 8 8 4 ^ B.B.B.t . . k N x k . . . Y ~ Y `.&X X;XHXJXvXX . z s.y.q.6.q.y.y.y.q.p.5.1.5.4.5.4.w.V X # 4 4 # @ @ 7 ` e @ # X ,.<X<X3X7XaXiXyX,Xj.k.v.5X8X5X8X8XaXe.%.k.a.9.e.0.&.VXJXLX[ 4 5 F R.N.R.uXpXuXe.[ ] ` ] { | CXSXCXMXxXxXyX5X0X0X9._ E D E xXGXMXMXNXNXMXNXeXrXrXyX6X,X,X_.w.r.r.h X @ @ @ X # 8 9 9 5 4 # @ # 0 0 8 q F G 0 # 4 4 4 # . . . . .                                                                                 . . . . - 1 2 O O > k V m m #.#.#.C Z N Z V V C x z x 1 > > > - > > 1 x k N 5.6.1.O . .                                                                                                                       ",
"                                                                                                                                                                                                                                                                                                                                                                                                                + . . r I R y ; $ . Y O.s y d d ; + . . :.f.y.Z x =.> . + O O + . O 2 > 1 k k k 1 O & > > 2 2 2 > 2 > > > 2 2 > > > 1 f f 1 1 1 u k k x x x x x x m < + . 6 G G ( G 9 5 8 5 F R.Y.B.N.@ . . 1 m m z . . . Y ( Y I.-X&X;XDXHX@X. . x y.q.6.5.5.q.y.6.q.y.q.w.2.5.w.y.] + X # 5 4 4 ) , ] eX,Xb @ b z._.z.1X3XQ.5X5Xk.l.c.g.z.0X6X3X5X0X9.H u.u.e.0.&.R.PXJXGX) 5 0 w  .N.H 4XiXqXr.{ ) h ) _ ) fXGXBXNXxXxXyX4X0X8X9.{ _ G D ~.GXBXBXMXcXNXNXyXeXyXyX8X,X,XoX9.0.0.7 , * @ 7 4 5 8 J | y # # # # # # # 6 D G w % 4 4 5 4 . . . z                                                                                   . . . . 2 k < O O O 1 N m x V #.C N N N m N C V k z x 1 > > 2 > & O f m x N 1.7.1.O . .                                                                                                                       ",
"                                                                                                                                                                                                                                                                                                                                                                                                                + . . % r e s / / ! U.%XXXY y $ > =.=.>.7.t.7.> + 1 + . . . > 2 3 > 2 > > 1 1 1 1 f k k 1 > 2 2 2 2 2 > > 2 2 2 2 > > 2 2 > 2 > 1 k k k k k k c n z + . . X X @ 6 8 8 0 9 G (.@X(.(.R.G K D X > m 1 . . $ +.S.Y @XHXFXmXDXHXwXX . + V 1.;.1.5.5.5.q.y.y.y.q.5.y.a.2.R X @ 4 5 4 9.tX2X2X8XaXr.] oXz.j.g.g.z.g.l.j.5.q.y.y.s.OX,X3X0X2Xp 8 H _ &.+XqXfXGXGXKX4X0 H w 0 w 8 W.4XOXe.}  .E 0 0 7 4XiXrXfXCXMXxXeXrXrX3X<X2X} G H ~.CXxXcXNXNXNXNXMXMXMXxXiXrX4X4X8X8X<X<XoXa.w.9.%.| 0.R.&.4 @ # # @ @ @ 4 G G F F 0 4 5 # . . k                                                                           k V V k . . k =.N -.,.=.k + O > < 1 < N =.V x x x c k m z 1 2 1 1 2 2 2 > O + l C m C :.1.1.& . .                                                                                                                       ",
"                                                                                                                                                                                                                                                                                                                                                                                                                + . . $ % $ R O./ @.%X%X=X*.X . > 3.7.7.7.7.7.c + > > . . . 2 2 > > > > > 1 1 1 1 k k k 1 > 2 2 2 2 > > > 2 2 > 2 > > > > > 2 > 1 k f f f k k k x z + . . . X . @ 6 4 % G P /.@X(.(.(.L P D . . > O . . % S.o.( gXJXDXDXDXHXvXO . . m 1.=.,.5.5.5.p.a.a.y.q.4.p.w.F F % @ # # 7 4XaX5X4X7X5XQ.j.Q.c.z.g.s.j.l.k.j.y.1.1.s.OXz.Q.5X5XqXr.5 8 K N.pXMXiXVXLXKX2X9 F D 5 4 w !.2X~.0.} N.E 5 5 7 4XyX4XuXCXMXNXyXrXeX0XsXrX| K 9 &.NXiXiXNXNXNXMXMXMXMXCXMXcXrX0XeXaXrX3X6X3Xg.h.i.r.0.R.&.7 X # # @ # # @ D G G G D 4 4 # . .                                                                           . . . . . . O :.3.1.:.;.:.k . + O > 2 2 C =.#.N x x z 1 1 k 2 - > 2 2 > 2 > + . k B x V :.1.:.O . .                                                                                                                       ",
"                                                                                                                                                                                                                                                                                                                                                                                                                O . . . $ % d T U @.&X%X&X%.. . o =.3.3.6.6.3.k O > + . . . > 2 > . + > > 1 1 1 1 k k k 1 2 2 > 2 2 2 2 > > > > 2 > > > 2 2 2 > 1 k f f k k k k z l . . . . @ @ @ % X . G P ^ (.).).R.L G X . . . X . . $ ~ o.Y *XHXDXDXHXHXkX$ . . V 1.=.;.7.q.1.4.a.s.2.<.,.<.H K w @ @ @ @ X <.rX3X7X3X3X1Xs.j.x.j.j.j.s.a.j.j.y.4.4.a.oXc.z.5XrXpXh.4 5 D M.+XyXiXMXLXGX%.9 9 8 5 # 7 !.rX4X&.^ ^ F 8 5 w 5XiX0XtXMXMXNXeXrXrX3X3X5X{ D 9 H wXMXNXNXNXNXNXNXNXMXNXNXMXpX5XrXrX6X3X4XoXh.h.r.| &.R._ X . @ # # 4 4 # # D D F G 6 4 @ + .                                                                           . . . . . . O >.1.1.;.#.:.f . . + > 2 2 C :.#.m m m z 1 1 1 > - > > 2 2 > O O . 1 m z C :.;.:.O . .                                                                                                                       ",
"                                                                                                                                                                                                                                                                                                                                                                                                              f.. . . $ s y R A.L.L.@./ / d . . z c.v.6.=.>.N O + . . . . . > 2 > O > > > 2 1 < 2 2 1 k k k f 1 > 2 2 2 > 2 > > > > > > 2 2 2 2 2 1 2 2 f k k k k f + . . X @ @ # 5 # X % w 5 ^ ).).(.^ ^ H . . . . . . % D.G.C.*XHXDXbXkX:XXXo . . C 3.;.=.=.#.V =.1.5.:.-.;.) D q 4 # @ X $.h.h.5X3X7Xx.g.a.y.p.s.y.s.d.q.5.y.a.q.a.s.a.k.x.c.Q.r.9.R 4 4 w R.4X5XaXfXxXNXeX2X2Xr.# @ # i &.e.4X4X+X9.4 5 4 ) r.W.rXVXVXxXyXyXyX3X1X4Xk.9.[ _ K./.8XMXMXNXNXNXNXMXNXNXNXxXyXiXpXyXiXxX6X4XrX2X!.3X4XOXh.<.!.h # 5 5 4 4 5 5 8 q 4 4 X + .                                                                         C . . . -.;.> x g.s.s.a.s.x.#.2 1 2 > > 2 a k f 1 x z k u 1 1 1 2 > 2 1 2 & O O O B >.B m < - u + . .                                                                                                                       ",
"                                                                                                                                                                                                                                                                                                                                                                                                            O . . . . s T s O.{.{.U.y 7 y $ + 1 6.7X,Xb.x z Z < . . . X X + 2 > > 2 > > > > 2 2 > O 2 k k z z 1 > 2 2 2 2 2 2 > > > > 2 2 2 2 2 2 > > > f k k k k f @ @ @ X X @ 4 9 9 # X . .  .).).(.N.M.B.7 . . . . . r H.H.J.*XHXHXbX|.&XXX. . . C 3.;.-.C N N #.>.;.$.[ [ p 5 5 # # @ [ 0XrX0X3X6X3Xa.y.d.q.5.q.y.j.g.y.y.y.q.a.j.k.j.z.Q.7Xw.5 8 8 6 4 R pXiX8X8XfXiXiXNXBXGX8XX X @ 5 K G 9XpXpXW.6 4 6 F 8 D 9XKXGXCXpXiXxXrX6X5X<X,X,Xr.} K.~.BXCXMXNXMXMXMXNXNXcXcXxXxXcXNXMXMXxXiXpXaXrXrXrXrXrXrXjX-.@ 4 4 4 6 5 5 4 4 # # X . .                                                                 . . . . . . . x d.a.1.p.v.k.k.z.c.<X:.f x k O O > > > > 1 k f f f f f 1 1 1 1 1 > O > O 1 :.1.1.x + + . . .                                                                                                                         ",
"                                                                                                                                                                                                                                                                                                                                                                                                          x . + . . . r I y ! U.U.U.! s R X O 3.6.v.c.c.C x B O . . . . + 1 2 > 2 > > > > > > > > > 1 k k z k 2 > 2 > > 2 2 > 2 > > 2 2 2 > > 2 2 2 > 2 k k k f k u @ @ @ X X # 4 9 9 # X . . H ).).).M.M.M.% . X . . . o Z.H.C.*XHXHXmX&X;X=X, . . B 3.1.;.C C V C =.=.) H E H 5 5 4 4 @ [ 5X3X6X5X0X,X1.6.j.q.5.q.s.x.c.j.y.s.s.a.s.s.j.1XOX6Xe.9 D D 5 4 p rXaX5X6XiXMXNXpXiXcX-.X @ % J L P ^.rX8XR.G K }  .w 8 2XKXGXBXpXiXxX0X5X5XoXk.x.] ^ R.9XPXBXMXMXNXNXMXNXcXNXcXxXjXxXxXxXxXpXaXeXrX5X5X0X0X3X7X0X] # D 8 # # 4 5 4 # # # X . .                                                               . X . . . . . . v y.y.y.5.a.l.z.z.c.s.x f z 1 O O O 2 2 2 k k k k f f 1 2 < 1 1 > O > > > > ' 1.4.C & > + . .                                                                                                                         ",
"                                                                                                                                                                                                                                                                                                                                                                                                          . . + y R e I +./ O.$X&X`.% ; ; 1 #.6.3.6.p.:.2 2 2 . X . + O > 2 2 2 > > > > > 2 2 > > > 2 1 f 1 2 2 2 > > > 2 2 2 2 2 > > 2 2 2 > > > > > 2 1 a k k k f * $ % @ @ * * e e & . . . # L  .N.N.B.M.@ . . X r y $ L.}.H.kXHXHX@X%.%.E.g . . N 1.;.V m N N m m N ) F H 6 4 4 4 4 i 9.,X7X,XoX<Xd.:.:.6.p.y.y.y.j.z.s.y.s.s.s.g.s.a.s.,XOX) 8 q D q 8 R 5X0X3X3X0XyXaXeXuXpX;.@ # 4 G L G &.4X9Xe.L ^  .H 4 @ 4XJXGXVXiXiXxXaXrXrXOXz.Q.[ J R.^.^.xXMXcXNXNXNXNXNXcXcXxXjXxXxXxXxXpXyXyXaX8XrXyXyXrX0XrXu.e.@X9.i ) b 6 4 # # # @ . . 2                                                           . . . - > . . #.#.1.y.j.z.y.s.z.l.a.g.y.m N C k O & > > > > f f 1 1 1 k k < < 1 2 - O & > 1 x x C 6.V + . 2                                                                                                                             ",
"                                                                                                                                                                                                                                                                                                                                                                                                          . . ; +.O.O.@.Z.S.U.:X:X%X$ . . :.d.5.:.N 1 + . . . . . . > 1 2 > > 2 2 > > > 2 2 > > > > 2 > > > 2 2 2 2 2 2 2 > 2 2 2 2 > > 2 > = > > O > > 2 2 1 z x z 1 1 < % % 2 2 > > = . . . 6 G D D N.N.B.w . . % T Y T |. X XmXJXJXx.. . . O O 2 V #.C B x z x m v m ` ` t @ # 4 4 # ] 5X<X,Xx.p.p.6.3.1.y.a.a.y.y.u.y.q.q.q.y.j.c.k.p.5.oXw.X 5 5 D F D _ 5X6X7X3X<X1X7XrXaXfX8Xe # # # F J L ^.8X^.}  . .w 4 X 2XJXKXGXiXiXxXNXMXNX6X<X6Xe.^ K.N. .8XpXyXxXNXNXNXNXcXcXxXxXxXxXNXxXxXiXpXpXuXyXeXiXNXNXNX0X0XaX<X<.2.2.i 4 6 # # # X . . . .       O .         . . . X     .         O + . +     . . . . k z 2 :.<XOXoXz.z.k.k.k.z.j.y.y.a.5.-.:.C 1 < 1 - O & 2 1 1 1 f k k c k 1 > > O - k c N ;.5.y.=.. .                                                                                                                               ",
"                                                                                                                                                                                                                                                                                                                                                                                                          . . ; / Q Q O.Z.Z.L.%X;X=Xi . . V y.6.6.z 2 1 . . . . + . + > > 2 > > 2 O O > 2 2 > > > > > 2 2 2 2 2 2 2 > 2 2 > > > > > > > > O > f 2 + 3 > 2 1 1 x m x 1 2 1 % $ > > > > O . . . 6 G K G N.B.B.7 . . $ Y U I |. X.XbXJXJXrX. . . + X . x ' C V x x k v M M 3.7.i @ # # # @ ` 6X3X,Xz.p.d.p.1.1.a.a.p.a.q.w.q.5.5.q.q.g.j.d.y.5.d.j.i # 5 9 9 8 p 7X6X7Xc.,X7X4XrXaXiXh.@ @ # # # F  .K.~.2X} ^ } w # . 4XJXJXLXxXjXNXNXNXpX5X5X5Xr. .R.K.R.tXiXuXxXNXNXNXNXNXNXxXxXxXxXcXcXxXpXpXpXaX0X0XuXiXxXxX6X<X5XQ.[ $.[ 7 5 6 4 # # @ . . . . k   . . . .     . . o . . . . . .     . . . . . . . . . . . a k 1 p.oXl.v.c.v.l.k.v.c.v.y.y.a.6.#.#.x > 2 2 O O O > 1 < 1 k k k k 1 1 > O O + f k 1 5.y.q.6.O .                                                                                                                               ",
"                                                                                                                                                                                                                                                                                                                                                                                                          . . o ! Q Q O.Z.A.A.$X&XXX- . . v 6.6.:.O > k . . . . . . + O > > > > > O O 3 > > > > > > > > 2 2 2 > 2 2 2 2 > 2 > O > > > > > 2 k k < O O > 2 2 1 x m x 1 1 < & > 2 > > 2 > . . . 6 G D H  .N.L X . . e o.o.~ |.lX-XlXHXHX+X. . + > O + x C V B x z z B ] -.9.[ t X # # # @ e w.Q.1Xp.y.d.a.5.5.y.p.p.s.q.q.q.1.5.q.q.y.g.j.y.4.a.s.i @ 4 5 w [ h.1X7X<Xz.oX1X<X0XaXpX!.b ` b 4 # 6  .N.R.^. .} } 6 # . 2XJXLXSXxXxXNXxXxXyX3X3X6Xr.^  .| | 0XyXeXxXNXcXxXxXcXcXxXxXxXxXxXcXxXpXiXuXrXeXrXyXxXxXxX8X5XrXc.<.w.2.r 4 6 0 4 @ X X . . . . . . . . + . . . . . . . . . . . . . . . . . . . . . . . . u z f V oXc.j.j.z.z.k.s.k.j.y.y.y.4.,.-.x 2 f k - + O - 2 2 < 1 f f < > 2 O + + + 1 a v ;.:.1.z + .                                                                                                                               ",
"                                                                                                                                                                                                                                                                                                                                                                                                          . . o R W Q Z.A.V.XXmXzX#X+ . . B 6.3.1 . O + . . . . O O O 2 2 2 > > > > > 2 2 > > > > 2 2 2 2 < 2 2 2 2 2 > > > > > > 3 > > > f z k f 1 1 > > > 2 x m x k f f 1 a 1 < 1 f u + + + 6 D 0 w J G F X . . s }.].'.bXJXDXlXlXzXi.. . + V C m N N V x k l N 5.w.w._ K 4 X # # # @ # 4 p $.1.6.q.y.s.s.p.y.y.y.y.y.y.5.6.6.5.j.1X<Xs.5.u.] @ 4 @ ] 2X5XsX<X,XQ.c.,X,XoX0XaXrXaXyXfXtXi 4 8 D ^ N. . . . .H @ . k.GXBXMXNXNXxXiXjXNXrX3X6XoXH D F q M j.!.uXcXiXiXiXiXiXxXxXxXxXxXjXjXxXfXiXiXxXiXiXNXNXNXiXpXiXrX3X4X6X[ 5 6 q q 4 @ # @ X @ # X . + > < 1 > O O > > O o . O - < > . . . 2 m - - k > + > m V x #.oXc.z.j.j.j.y.7.6.y.s.g.5.3.6.3.:.#.#.=.k 1 < & O + O 1 f 1 > > > 3 . > 1 x 1.a.x u x . . .                                                                                                                               ",
"                                                                                                                                                                                                                                                                                                                                                                                                          . . + R W W +.S.V.XXnXnXkX+ . . V 6.7.x . O + . . . + > O > 2 2 2 > 2 > 2 > > 2 2 > > > > 2 2 2 2 1 2 > > > > > > > > > O > > > 2 1 1 f f f 1 > > 2 n m x f f f f 1 u 1 1 f f + + + 6 D q 0 G G G $ . . d [.].'.FXJXHXmXlXzXi.. . + C #.V N m N x 1 1 v w.y.w.^ P F @ # # @ @ 4 4 i m -.7.6.y.a.a.p.q.y.y.y.y.q.q.5.5.5.c.<X<X,X2.i H 6 # @ 2.eX6X4X4X,Xc.c.c.oX,XrXyXeXeXyXfXtXp 4 q 8 D N.N. . .N.H @ . 4XKXVXVXcXcXNXiXiXNXrX7X6Xc.H 9 F 0 & u.OXpXMXxXfXiXiXiXxXcXxXxXxXxXxXxXiXiXxXxXxXNXMXMXMXxXiXxXuX5X3X5X} D D 0 8 4 @ # # X @ # X < 1 2 2 > O O o O - o X > -.=.> O . 1 ;.1.3.=.f f > O 2 m N z 6.1Xz.c.j.g.g.y.6.6.y.s.s.y.y.y.7.1.=.-.;.N x x < O . O f k f > > > & + O 1 7.u.5.z < k . . .                                                                                                                               ",
"                                                                                                                                                                                                                                                                                                                                                                                                          . . X R W W o.o.o.XXmXmXkX. . . Z t.7.=.+ O O . . . . > > > > < 2 > > > > > > > 2 > > > > 2 2 2 2 1 2 > > > > 2 > > > > O O > > 2 > > 1 k f f > = 2 z z z f 1 < > u a 1 1 f f + . X 0 D q D J G F X . X r J.H.J.FXJXDXlXzXmXE.. . + #.#.V N N m z > k ' 2.u.9.^ ^ w # # # X @ # 7 ' #.V :.y.y.q.y.q.1.q.y.y.q.q.6.5.4.5.k.,X<Xg.i @ 6 4 6 7 ] 8X6X4X3XoXoXoXk.j.x.rXyXeXeXeXpXeXt @ 5 9 8 ^ K. . . .4 @ X h.GXBXfXNXcXxXiXiXiX5X<X6Xg.w D F 0 $ $.k.uXMXxXiXpXpXiXxXNXNXxXxXxXiXjXiXfXxXxXiXiXCXCXCXxXiXxXyX3X3X<X} D D 5 4 # X @ # @ X $ m $.$.1 O k f k -.1 . k C C v.7X' 1 #.y.c.y.:.3.N > 2 O O z B z 7.1Xx.j.a.g.j.p.6.7.1.y.u.u.:.:.5.:.#.=.#.n x N 1 O 2 2 k k k > O O + > O x y.1.1.z < O + 1 1                                                                                                                               ",
"                                                                                                                                                                                                                                                                                                                                                                                                    =.:.n . . - %.%.{ @.Z.S.I.zXmXlX< . . 2 N V 1 . O O . . . O 2 < 2 > > 2 > 2 > > > > > > 2 2 > 2 2 2 2 2 2 2 > 3 > 2 2 2 > > > > > > 2 2 2 > 1 f 1 1 = O > 2 2 2 f k 1 > > < 2 < 1 1 a f u $ # 6 F % X X % s U O.|.|.&XmXDXAX`.I.;X#X& . O =.-.#.C m x l N 5.y.u.r.H D w # 4 4 @ u i e V 1.-.-.5.y.y.y.6.5.7.5.q.6.y.a.q.5.s.a.j.OX3X;.X 4 4 p h.!.k.8X5X6X,XoX,XoXl.z.x.<X3X7X0XuXiXfX2Xe.) 9 8 0 H ^  .} w @ # @ <.e.$.pXxXpXxXxXxXrX5X0X3Xj.!.[ 4 # # 6 H ~.eX6XyXyXyXyXpXyXaXyXxXxXxXxXfXpXyXyXaXiXxXfXyXeXyXsXoXoX_.u.| H 6 # 4 # # # % 4 w 1.2.<.:.:.q.z.<X<Xd.3.d.c.v.v.k.l.g.j.l.l.s.6.p.3.1 1 1 2 f z k x s.j.7.:.7.6.,.:.>.#.2.y.5.C V ;.C V V m z x x k 1 k f 2 2 2 > O + 1 V V v z z B > . .                                                                                                                                     ",
"                                                                                                                                                                                                                                                                                                                                                                                                  V . . . X . , %.%.%.Z.D.A.U.mXnXmXz . . & k k > + O O . . . 2 1 1 2 > > > 2 > 2 > > > > 2 2 2 2 > > 2 2 2 2 > = > > > 2 2 > > > > 2 2 2 2 2 2 2 2 2 > 3 O O 3 > > k z k 1 > > 2 2 > 2 x v l . . # 0 . . . y ( Y Z.-X-X-XnXAXDXXXC.H.Q . . O =.;.:.V k k l 3.b.g.&.L K 5 # 4 5 # e #.V B ;.;.,.y.a.q.y.s.y.4.6.5.6.7.y.s.y.y.z.x.Q.OX7Xk.4 4 4 e.rX4X8X6X4X6XQ.x.Q.Q.x.Q.v.v.oXx.4XuXuXpXBXBXW.8 4 # 4 ^ L L 6 @ # # X p u.pXiXyXNXNXNXyX0XqX0X6X6XQ.r # 4 @ ) 2X7X7XeXyXaXeXeXrXrXrXyXiXxXxXxXyXeXyXyXrXrXaXrX0XrX6XQ.c.c.,Xr.G w # 5 0 4 @ 6 9 9 $.;.#.y.j.p.v.1Xc.OXc.j.k.v.l.d.j.z.d.d.k.s.f.d.1.1 1 1 1 k k k f 3.f.7.;.;.;.=.=.#.C ;.1.:.=.C #.C N m n z z x z f f a > 3 > 2 2 3 x -.#.B f f l + . .                                                                                                                                     ",
"                                                                                                                                                                                                                                                                                                                                                                                                  m.. + . . . + %.{ { A.D.A.XXnXAXkX+ . . 2 x z a O + O + . . 3 1 1 2 > > > 2 2 2 > > > > 2 > 2 2 > > > > > > > > > 3 = > > > 2 2 2 > > > > > > > 2 2 > O O O > 2 > f z k < = 2 2 2 2 < l l 1 . . # 6 . . . y Y F / -X>X XnXDXHX%XJ.O.. . . + ;.1.,.m z z z =.b.k.J K J 0 @ 4 # 6 b C m M ' -.#.2.y.q.y.q.5.5.5.5.5.y.y.a.a.7.a.x.oXOX2Xk.4 5 5 [ 8X2X,X2X4X3Xk.j.z.x.z.l.l.oX1XoX3XpXpXyXiXiX[ # 4 # # F L J # @ 4 4 # @ 2.iXiXpXxXcXNXeXsX0X6X<X3X8Xb @ 5 @ l.iX3X6XyXaXyXeXeXpXyXrXrXyXxXNXNXuXeXeXaXaXeXaXqX0X0X5XoX_.oXh._ K 6 # 5 5 4 % 6 8 w $.1.$.1.s.y.f.c.oXc.j.d.j.j.d.d.d.d.j.j.s.p.s.d.V > < 1 k k k k x s.d.s.3.;.:.:.=.#.' =.1.1.:.#.=.C m N m k k x k 1 1 1 > 3 > > > + 1 =.#.V x m v . . .                                                                                                                                     ",
"                                                                                                                                                                                                                                                                                                                                                                                                  C . . r P.K.s W Q h O.A.S.U.nXAXkX%.h , 3 k k 1 > O O > > O > 2 2 2 2 1 1 2 2 2 > > > > > 2 2 > > > > > > 2 2 > > O O < k 1 2 2 2 1 k 1 1 z 1 > > > > O > > > 2 > 1 f 1 > > 2 < < 2 < f f 1 . . X @ . . . +.C.Y &.lXzX;X;XzXlX*.d X + 1 f k C =.#.B m m M { e.R.J G G 8 @ # 4 <.1.M #.;.-.4.,.q.l.y.q.s.z.y.4.3.d.1Xk.a.p.s.x.x.oX<X8X<.# 8 5 w OX3XOXOX2X,XQ.x.z.x.z.c.z.z.c.c.,X3X5XaXrX0Xw.6 # # @ # G J 4 # 4 4 4 @ i eXNXpXxXNXcXaXeXeX5X4X0X5Xh # 4 # ` d.z.c.5XaXaXrXrXyXyXeXeXeXpXiXpXeXrXeXrXqXqX8X4X0X0X4Xx.x.x.u.| L 0 # 5 5 5 % @ 5 9 p p ) y.l.s.d.oXoXv.l.l.z.l.j.k.k.j.z.oXj.p.s.j.1.1 1 k V N 1 1 N y.p.s.3.;.;.#.=.;.:.C =.1.-.C #.C x x z 1 f k 1 1 a 1 < 2 O O m m v #.-.v + f 1                                                                                                                                           ",
"                                                                                                                                                                                                                                                                                                                                                                                                  C . . *.&X X[.o.S.O.O.S.o.L.nXnXzXXX(.XXf O > > 2 > > > 2 2 2 2 > > 1 f f < 2 2 > > = 2 2 > 2 > > 2 2 > 2 1 1 2 > O 1 k z z 1 2 1 k z z m m m 1 O O - O & > > > 2 f 1 < > 2 2 2 1 1 1 u f f + . . . + . . D.T.J.kXDXDXmX%X&X&Xj . . > Z Z Z N N N B V N [ K.K.K.^ 9 D q 7 4 ) d.6.,.3.1.,.k.,X,X1Xc.z.<X4XQ.q.g.oX1X1Xs.d.,X,XoXOX2X9X~.7 4 4 w.3X<X1XOXOXoXOX,X,Xc.,X<XoXj.j.z.v.j.v.3X3X1X8X[ X # # 0 D D 4 4 4 4 4 @ M xXMXfXNXNXcXxXfXxXyX8X0XyX[ @ 4 4 8 5 5 %.5X0X0XrXrXrXrXyXyXyXeXrXrXrXrXrXrX9X@X9X5X5X5X3Xj.k.l.j.r.} D # 6 0 0 $ X 4 9 5 # h v.z.x.!.OXoXc.v.c.Q.c.c.c.c.v.x.c.oXc.l.x.j.Z x N V #.V a k =.3.1.:.:.>.' ;.1.1.C C X.V V V m f f f 1 < < 1 a 1 2 2 2 > N 1.1.-.' ;.v . . >                                                                                                                                           ",
"                                                                                                                                                                                                                                                                                                                                                                                                  >.. . O.|.[.[.D.G.A.S.S.S.Z.XXzXlXP.E.E.i + = > 3 O O O > > > > > > 1 f 1 2 > > > O O 2 2 > > > 2 2 2 2 < < 1 2 > > 1 k z x 1 > 1 k f k x z z 2 + O O O O O O > > 1 f 1 2 2 1 2 2 < < u f f o . X . . . . o.J.C.*XAXAXmX-X&X;X*.. . > N m N N N m N B B { K.K. .6 5 9 q 4 # h a.6.,.;.;.s.OXoXOXoXOX,X<X<X<Xa.j.oXOXOXy.g.OXoXoX+X(.(.^.t 4 # u.5X,X<X,X,XOXoXOXOXQ.,X1X1XoXz.v.c.c.v.oX3X3X6X) @ # 6 D D D 4 # 4 # 4 X B MXCXxXNXNXcXxXiXxXpX5X8XqX{ 7 # @ 0 9 4 <.aXrXrXeXeXrXeXyXyXyXeXrXrXrXrXrX9X/./.2X5X5X0X5Xl.l.z.h.&.P D # 5 0 0 7 @ # 5 4 # b z.j.g.z.OXoXc.z.c.c.oXc.c.c.z.c.c.oXoXv.oXj.N z m Z #.-.1 + z #.=.:.:.;.=.=.>.#.C C C N x V m f f f 1 O O 1 f O . + O O V -.#.#.-.m O . + O                                                                                                                                           ",
"                                                                                                                                                                                                                                                                                                                                                                                                  v % $ Q [.U.I.S.S.S.o.O.o.Z.`.-X;XE.i.E.i . O O + + . O 2 > 2 > > 3 > < 1 < 1 1 2 > O > > 2 2 2 2 2 2 > 2 1 1 > > > > 1 z x k 1 1 k k f z m z 1 1 1 2 O 1 1 O + O k n k f 1 2 > 1 1 1 1 f f + . + X y s t L.|.{.%XAXAXbX{.{.%XW . . 1 C N N N m m m b R _ N.K.F 5 9 8 4 7 p ` a.y.6.3.y.oXoXc.oX,XOX1X1X1XOXg.s.Q.oXQ.g.l.oXoX<X9.w F H 4 4 # <.4XOX,XoXOXoXoX,XQ.z.,X1X1XOXx.c.v.z.v.v.oX,XoXb # # 6 D D F 5 # # [ ^.` e rXjXpXNXNXNXxXiXxXpX0X0X8Xr.u.$.* 4 8 4 ] eXrX5X5X0X6X0XyXyXrXrXrXeXrXrXrX9X/./.+X2X4X5X3XQ.oXoXk.i.} H p i 0 8 8 4 i i 4 # 6 u.z.j.d.k.z.s.j.oXoXz.x.oXoXz.z.oXoXg.f.j.a.C m m z m x O + 1 Z Z #.=.#.x Z V V C #.C x k x z f z k > + O - > . . O 1 + m -.#.C k . . . . O                                                                                                                                           ",
"                                                                                                                                                                                                                                                                                                                                                                                            + . . y O.~ ~ @./ Y D.G.D.Q s U L.;X-X;XE.r.E.i . . O O + . > < 1 2 > > > & = > k z k k 1 2 > 2 1 1 1 2 2 2 > > 2 > > > > > 2 f x x z z z k f x N N x z x z z B N k 2 k V V m B x 2 2 f z c f 1 f + . . e J.F.V.;XDXnXnXAXnXlXD.G.G.t . . > N V Z N N Z h F J ^  .^ 9 0 8 5 % 1.j.u.y.p.s.s.z.oXc.c.oX1X<X1XOX1XoXc.c.x.Q.Q.oXoXoXoX4X2.@ 4 4 # # @ w.<XoXoXoXoXoX1X7X<XoXoX1XOXQ.Q.oXz.g.j.j.d.s.j.` 4 4 5 9 D q 5 # % 0XVXeXw.,X0X5XNXNXcXxXfXxXiXyXrXrX,Xj.oX2.5 8 4 ] 3X<X,X,X,Xc.7XrXrXrXeXrXrXrX0X0X0X8X4X5X^.^.OXOX,X1X1XOX1X1X<.` =.p 5 5 6 x x 7 # h j.v.x.j.a.p.y.f.c.z.j.z.oXoXj.s.x.c.p.7.y.y.:.;.C 2 2 2 = X f V N V =.#.Z N Z B V Z m k f k k k k z > O & O + . . B :.B C #.:.c . . O   .                                                                                                                                             ",
"                                                                                                                                                                                                                                                                                                                                                                                            + . . R o.T ~ A.Q y D.G.D.I y s Z.-X-X;X&.&.*.o . . O O . O < 1 1 2 > > > > > 2 z c k f f k < 2 1 1 < > > > > > > > > 2 > 2 1 k x z z x z k k m m N x k z x N N m V V V m N V N k 1 1 f k k k f k + . . % C.C.( *XDXnXAXmXzXmXH.J.U.e . . . . k =.V C ] H D F J ^ F D 5 4 4 i d.s.y.y.a.g.d.s.x.oXc.oX1X1XOXOXOX1Xc.z.c.c.c.Q.oX,X<X,Xw.% 5 4 @ @ X b oXoXoXOXoXoX<X7X<X1XOX1XoXQ.Q.oXz.d.g.d.d.d.l.) 5 5 0 D D 9 4 # . q.iXaXyXrX0X5XpXNXcXiXfXxXpXrXqXrX!.w.z.9.8 8 5 a.6X3X3X1XOXoXOX<X7X0XyXeXrXrXrX0XrXrXrX0XE.^.4X<X,X,X,XoX,X3X%.) ' p 4 # 4 i x 7 # 2.,Xz.Q.z.a.f.f.j.v.z.j.j.z.j.d.g.j.c.s.4.y.7.=.=.;.x 1 1 > - N Z N #.:.:.=.V V B x z z 1 f z z 1 O 1 = + O O + . > $.-.#.$.;.1.1 . .                                                                                                                                                   ",
"                                                                                                                                                                                                                                                                                                                                                                                            + . . I o./ / Q e % @.Z.Z.Q U d O.|.|.$XXXXXXXb . . . O O + 1 1 1 < 2 2 > > > 1 l k k k k z 1 2 f f 1 > > 2 > > > > > > > 2 1 1 z k k z k k k m N N m x z v V N N V V B N B V z 1 1 1 z l k f f 1 + . . r D.A.V.kXDXDXbX%X=X*XZ.S.Z.r j Q e . O N C #.` F F J J G J D 4 4 # i y.p.y.p.a.s.y.4.a.OXoXoXOXOXOXOXOXoXj.z.z.c.oXQ.oX<Xr.p 6 5 4 # @ X & [ oXOXQ.Q.oXoXOX<X7XOXoX1XoXQ.Q.Q.z.k.j.s.s.s.j.<.0 5 9 D D D 5 # . ' uXrX0X3X4X5X0XiXiXpXfXxXuXeXeXeX!.k.<Xr.D D 9 %.Q.w.u.oXc.Q.,X<X<X6XyXaXrXrXrX0X0X0XrXrX/.R.+X2X,X,X1XoXoXoX%.] -.p 4 7 # X , % # b h.x.x.j.p.a.a.z.c.c.k.s.y.7.p.y.3.y.y.6.y.1.;.>.:.N 1 1 O O z z z ' ;.;.X.Z V N x z x k k z 1 + + O O + O O O f B C #.-.x l k o . .                                                                                                                                                   ",
"                                                                                                                                                                                                                                                                                                                                                                                            + . X y Y / h . . . U Y F P.*.r O.I.G.I.*X=X;XE.. . . O > > 1 1 1 k z k 2 > > > k c k z z z z k k k 1 > 2 2 2 > 2 > > > > 2 2 > 1 k f f f f f x V V N N N Z C C C ' ] ' C V V z 1 k x N N x < 2 > . . h @.[.].].mXDXDX=XJ.J.D.y y y L.|. X*.. . . ` } J J J E L J F 5 4 # @ $.5.4.u.g.a.3.3.5.oX<XOXOXOXOXOX1X1XOXj.j.j.z.OXoX1X!.0 # 4 5 @ . $ <.k.<X,X,XoXz.x.Q.Q.oX,XoXc.Q.Q.oXQ.Q.Q.Q.Q.l.y.y.f.W.F 9 D 9 8 9 8 4 . q.iXeX8Xx.v.x.0XyXaXiXxXxXfXpXyXpXqX4XrX4X} L J D 0 5 6 y.j.a.c.3X3X4XeXaXrXrXrXrX0X0X0XeX+XE.E.~.7X3X7XoXQ.oXa.1.7.#.w p i . X # 4 # 2.j.u.s.a.p.p.l.c.x.k.7.3.3.1.1.1.1.7.y.y.7.,.3.:.2 O > O + O 2 k N V V Z B V Z x z v k > 1 1 + . + + + o O m ;.#.N B #.o . . . . .                                                                                                                                                   ",
"                                                                                                                                                                                                                                                                                                                                                                                            + . X r y r $ . . . I ~ T P.Q t @.H.H.G.XX=X=X` . . . O > > 1 1 1 f k k 1 = O > k z k k z z z k k k 1 > > 2 > > > > > > 2 2 2 > 2 k k k 1 k k x V C V N N V C C V ' $.#.V Z B m k k x V V m u 1 < . o R @.'.'.].bXHXDX;XH.'.G.U y y A.]. X/ . . O ^ P L J E ^ J q 5 5 6 @ e 2.3.2.a.j.p.3.1.5.<X1XOXOX,XOXOX1X1X1Xx.j.j.k.oXoXOX2X) # 8 5 # X <.6X1XQ.oXoXx.k.z.x.oXOX,XoXQ.Q.oXoXoXoXQ.c.c.z.q.7.b.W.9 D 9 5 [ ) # 5 @ s.BXyX8Xc.c.z.rXpXuXiXxXxXxXyXyXiX0X3XsX7XJ K K 8 5 8 w q.v.j.z.3X5X5XrXyXtXrXrXrXrX0XrXeX~.E.E.~.3X3X3XoXx.Q.y.;.7.] 9 w p & @ 6 5 7 f.l.a.p.a.p.p.s.v.c.p.7.3.1.3.4.3.7.d.s.a.p.1.:.3.k + O O O O > z Z N B V N N x k x x > + > 2 o . . . o X X B #.B B C $.- . . z                                                                                                                                                       ",
"                                                                                                                                                                                                                                                                                                                                                                                            + . . o $ . f l 1 2 t y d P.&.W / Z.D.G.*XlXlXr.. . . > 2 > 1 u 1 f k k 1 & > > 2 1 1 k z z z k k z f 1 u 1 > 2 1 2 > > > > > > > 2 1 1 2 1 1 k k z N N m N N N N C ' C V B N z k k x N m x 2 = O j Q Q O.|. X|.;XzXzX%XC.G.Z.r y U U.=XlX@Xg . o w q F J F w q 4 # p 2.$.,.y.6.6.5.3.1.1.1.y.,X1XoXOXOXOXOXQ.oXoXz.l.k.oXOXoXOX0XOXp 8 9 4 p 4X3Xz.x.,X,X!.oX<XoXoX,X,XOXoXQ.oXc.Q.Q.Q.Q.oXc.g.a.1XNXe.9 8 ` fXeXp # 5 p u.pX8Xc.oXoX3X8X0XpXxXiXiXyXuXpXrX0XrXOXr.r.r.p 5 8 6 ] 2.9.u.c.c.oX<X3X4X0XrXrX0X0XrXrX^.R.E.R.h.OX,X!.z.z.q.:.1.] w p p $ @ 6 5 5 b ,.4.:.7.y.y.7.s.s.6.3.-.=.3.7.:.:.f.d.6.1.;.;.4.x . O O O O O 1 n x x N x x k a k u O O = O + + o 2 k > f -.#.C B V l + . .                                                                                                                                                         ",
"                                                                                                                                                                                                                                                                                                                                                                                            + . . . . + =.y.5.=.. . . i.@XE.~ ~ ~ L.mXmXmX#X. . . 2 > > k k k f f f 1 > > 2 > > > f x z z z z z z k k k 1 1 1 1 2 2 = > 2 > > = > > > > > f k 1 x N m m m N N V C V B B B k f k k f 1 f + . . Q Z./ @.-X-X-X>X-X>XG.~ o.T t U Y dXDXAXbXM . X X . @ 0 # # 4 # # $.s.p.y.y.s.s.4.;.:.;.7.j.l.oXOXoXoX,XoXl.z.z.v.v.x.<X<X,X7X8XpXW.8 9 8 b 6X3X,X,X<X7X<X7X3X<XoXoXoX<X7X1XoXQ.Q.Q.Q.OX,X1XoXz.4XBX9X9 8 ^.MXfXM X 8 # <.fXrXoXoXOXOX,X,XyXNXiXiXiXpXpXyXyXyX5Xc.OX3X[ 5 5 5 p _ H 9.j.p.p._.oXx.5XrX0X0XrXrXeX+XR.R.R.z.!.x.j.j.j.s.q.1.$.M M t X @ 4 5 5 4 i ' C :.1.1.7.6.y.y.:.=.=.>.:.:.:.1.7.:.=.-.:.-.> . O > > O O O k x z c x x z < < < > O O O O O - m N x #.;.;.;.< . . . . .                                                                                                                                                         ",
"                                                                                                                                                                                                                                                                                                                                                                                            + . . . . + m y.6.z . . . E.@XE.o.o.~ Z.zXnXzX%.. . . > > > k k f z x f 1 3 > > 2 2 > u x x x z z z k k k k 1 1 1 1 2 > > > 2 > > > > > > > > k c f x N m m N V V #.C V V V ' v k k 1 1 u < o . . d @.O.@. X-X X-X XH.C.V.S.o.U Y Y *XDXHXk.. . . @ # 4 5 # # # @ i 1.5.5.5.q.a.a.5.:.1.y.s.d.s.d.c.x.z.oXQ.z.z.z.v.x.z.oX<XOX3X0X8X) 8 9 5 i 1X3X,X<X7X<X1X1X7X<XQ.Q.oXOX3X5X,XQ.Q.x.c.Q.oXOXQ.z.5XMXW.8 5 [ pXtX[ @ @ ) NXMXyXOXoX1X<X,XoXaXNXfXiXpXpXpXyXeXaX0Xj.j.OX{ 4 5 5 _ [ _ 9.v.s.a.oX,XoX5XeXrXeXrXeXaX+XR.R.^.3X1Xc.j.j.j.s.y.y.5.V V h # @ @ 4 4 4 r #.#.:.1.1.7.6.y.q.:.>.>.:.1.3.3.3.3.1.:.;.V x > . + > 2 > > > k x z z z x m f 1 1 > O O + + + > x m x C 1.1.,.- . . . + .                                                                                                                                                         ",
"                                                                                                                                                                                                                                                                                                                                                                                            + . . N =.#.#.=.;.x . . . &.#Xi.T o.( S.&X-X-XO.X o + + O > f k k c z f 1 > 2 2 > > > 2 k k k z z k k k k k k k k u 1 k k < > > > > > > > > > 1 k 1 k x x k 2 x C x 2 - B -.#.1 k f M k.W.] . . . t T I O.-X:X-X|.J.J.A./ ~ U r Y U P.*X*X+Xy.h.w.$ @ 4 4 # p ) b -.7.5.5.7.6.p.y.5.1.,.s.g.s.d.j.Q.x.j.z.z.k.z.c.z.z.Q.OX1Xz.oX5XrXr.5 5 6 ` 1X3X1X,X1X1X,X1X<X1X<X0X0X<X0XpX0X<X3X7Xc.c.oXQ.Q.c.3XNX| 5 6 r.eXrXuXW.e t h.~.!.2X3X7X3XeXfXfXxXiXiXxXfXiXeXrXrXrXOXoX4X<.H H 0 H ) H { t.t.y.z.c.z.OX5X0X5X0XrXrXW.0.R.9.V u.z.d.j.j.y.6.s.7.h h p 4 @ @ 4 4 4 4 g V :.1.;.1.y.4.=.=.;.;.C :.6.#.=.5.6.,.N k c 1 . + > 1 > > > k k 1 1 z x k 1 1 2 3 O O o 2 f 1 x #.#.#.x m V + . +                                                                                                                                                               ",
"                                                                                                                                                                                                                                                                                                                                                                                    . . . . . . - v.1X,X4.z #.Z . . . &.XXR y ~ T Z. X X X@.% t % . o 2 1 f f f f f 1 1 f 1 > > 2 > > > 2 k k k k k k k z x x k k n x k 2 2 > > 2 > > > > 2 2 > 2 1 1 > . O u + . . > #.1 . + > oXtX9X9X< . . r Y y *.zXzXnX}.J.].Z.X $ % s T Y o.C.V.kXJXJXFX> . . X b 5.6.6.6.5.q.y.y.y.y.p.6.1.1.a.a.a.c.,XOXQ.z.z.z.j.z.,XoXoX7X7XOXz.oXrXyXW.5 # w.8X3X3X3XOXoXc.oX1X,X<XyXuXaXrXeXaXaXaXaXrX3XoX<X,XoXoX7XNX~.4 b eXrX8XuXVX!.# # @ % OXrX6XsXCXVXNXpXiXiXNXcXcXyX0XqX0X0XsXrX4Xc.oX9.8 9 9 ) :.;.1.y.6.6.g.k.z.z.3X3X5Xr.q H 0 . h u.j.k.j.y.6.5.M 0 8 w 6 @ # # @ % # # M 1.:.=.:.1.V x N #.' z Z >.N V :.6.V 1 k k c k > 2 z z 1 > > O + O 1 1 1 > > O O O . O m m m #.,.5.#.. . . . . 2                                                                                                                                                               ",
"                                                                                                                                                                                                                                                                                                                                                                                  1 . . . . . . . 6.3XoX1.x =.V . . . P.{.D.T ~ Y @.-X-X&XQ X 7 % . . 1 k k k f k k f 1 1 1 > O 2 2 > > > 1 k k k f k k z x z 1 1 x z 1 > > > > 2 > > > > > > > 2 1 1 - . . O O + + O < . . . . V !.h.$.+ . . r Y y %.zXzXAX;XJ.].Z.X @ y T T Y Z.I.F.*XHXJXvX+ . . v 5.3.1.4.7.7.y.u.u.p.y.y.5.,.1.q.q.s.oXOXoXc.z.x.v.k.c.,X1X1X<X7XOXc.<X6Xe.F 8 8 ,X5X2X3X3X1XoXoX,X1XOX1XrXrX0XrXrXrXeXaXeXeX5XOX1X<XoXoX3XBX9X5 7 !.eXrXaXNXh.# 4 @ e 2X0X5X5XrXCXMXpXiXiXxXcXcXtX0X0X0X8X5X0X5XQ.,Xw.8 8 8 ` 3.-.;.5.6.y.z.c.z.,X3X3X5X%.8 D 8 7 2.j.j.k.l.d.6.1.] 0 8 6 @ X @ @ @ @ # 7 $.7.1.,.;.=.N x n #.#.x x N V C #.C k f c l z x f 1 x x 1 O + + + O < 1 1 O O O O O + O x v x C -.5.' + + . . . >                                                                                                                                                               ",
"                                                                                                                                                                                                                                                                                                                                                                                >.. . . . . 2 1 O :._.s.;.z V Z . . . P.`.I.T T Y ~ }.-X&XO.t I y . . < k k 1 1 k k k 1 1 2 3 > 1 2 > > > > > 1 f < f k z z 1 2 2 k z < 2 2 > 2 2 > > > > > > > < 1 1 + . + + + . O + . o + . . . + b ` X $ . e T U W lXzXnXlX].].Z.. $ e I T Y Z.I.D.$XDXHXgX. X X >.5.,.3.3.7.7.q.u.y.q.y.6.,.:.;.,.4.y.c.oXoXQ.c.oXQ.z.c.,X,X,X,XoXoX7Xh.i q D q r.2X!.3X3X4X1XoX1X1XOXOXoX5XpXyX0XqXrXrXrXrXrX7XoX1XOXl.c.7XeX| 9 5 e.eX0XyXpX` 4 4 @ l qXyX0X8X5XuXxXpXpXiXfXxXfX0X0X0X0X0X0XrX3XQ.<X[ 4 5 5 p ;.1.V V 5.y.z.oX,Xc.,X7X<Xb 9 F 9 t <.u.g.j.j.s.p.7.V 8 8 5 @ X X X @ @ 4 5 p 7.3.:.;.;.v z z =.X.z m N Z V C x k k k k z z x 1 k z 2 O + + O + > f 1 O O > > O . O m m m C #.1.z . . O > O S                                                                                                                                                               ",
"                                                                                                                                                                                                                                                                                                                                                                      3.> > - o . + . . . 2 b.oXv.3.;.:.k . O 3 . . . & - O e Y U I }. X X|.|.&XL.. . . 2 > O 1 k k k k k 1 1 z c 1 2 2 2 > > > 1 k k k l z 1 2 1 x x z z z f 1 a 1 O > 1 > > 2 O X . . . . . . . . . . o . . 2., N *XzXI.A.+.~ o.~ P.AXDXmX|..X X'.e . . $ I +.o.~ ~ *XDXDXbXL.L.P.B 1.1.1.4.5.4.y.a.y.6.y.y.,.-.,.5.4.5.v.oXoXoXOX,XOXOXoXc.oX,X,XoXoX3X$.4 5 w W.5X2X2X3X3X6X1Xc.c.oX,XOXOXxXBXMXyX0XeXrX5X6X6X3X<X<XoXs.z.oXb 8 D E qX0X6X5X0X<.# X X % { +XpXrX5X7XrXxXiXiXfXfXxXpX0X0XrXeXyXyX5X7X6X!.e X # 4 w B l v #.1.6.d.v.6.y.y.y.] p h w # @ 7 5.y.5.7.3.7.;.w 9 0 4 # @ X @ 4 6 8 t C C N n k 1 1 1 f k z m m m x k z z k x z z x k 2 < < > O + + + + + > > 2 2 > 1 1 V -.;.-.-.,.;.1 . . . 3.                                                                                                                                                                    ",
"                                                                                                                                                                                                                                                                                                                                                                      O . . . . . 7 X . . 1 l.c.,Xp.7.7.N + > O . . . . . . * Y y !  X X&X X X XL.. . . > > > f k k k k k k k k z k 2 1 1 > > > 1 z z z z x k > k m z z x n k 1 1 1 1 1 1 - > 1 O . . . . . . . ; +X$.. . O j.HXdXbXzX:XI.C.F.V.~ Y P.DXDXAX-X.X X Xs . . t T Z.+.~ Y *XJXHXbX'.'.O.1 5.5.5.5.4.q.u.y.y.y.y.y.3.#.,.5.4.5.v.oXoXoXoXoXoXOXoXQ.,X1X1X7X7X5Xh.4 5 w OX5X3X3X3X4X4XOXoXc.oXOXoXOXMXBXCXcX0XrXeX5X5X6X4X4X3X1Xl.z.Q.] 5 D L 9X0X3X4X6X4Xi . X # 5 0 r.0X5X<XrXNXxXxXxXxXcXiXrXrXrXeXeXyXrX7X7X2Xu . X 4 8 4 i X.=.#.:.5.y.y.7.5.y.#.b v r 4 # 7 y.y.6.7.:.3.:.D D q 6 4 4 @ X # 5 5 t V V N l f 1 1 1 f k z m x x k z v k 1 m m x k > 2 1 2 O O O + O + + + O 2 2 > > N 5.1.1.1.,.,.k . . . .                                                                                                                                                                       ",
"                                                                                                                                                                                                                                                                                                                                                                    > . . . . . s C.r . . > d.l.f.>.8.f.=.+ > > . . . . . . $ U s U }.&X&X X|. XL.. . . > 2 2 k z k k k z k k z z 1 1 k > O > 2 1 z z l z z 1 2 2 k z z z x f 1 f 1 2 1 1 > O > O . . . . . . o #XnXdX, . !.JXJXHXzX-X-XL.I.I.~ Y O.U.AXDXDX&X.X X[.t . . e I +.O.Y U P.lXDXmX[.`.M 1 1.4.5.4.4.5.y.u.y.5.q.y.1.-.,.5.4.3.a.k.c.Q.Q.Q.oXoXoXoX,X1X<X!.!.5Xu.4 8 # 2.0X4X2X7X3X,XQ.oXc.oXOXoXoXfXVXCXpXrXrXrX5X4X4X4X4X4X3XQ.w.x.] @ 4 D E.2X7X7X3X3Xi . @ 4 8 4 4 OX5X,X6XiXxXxXcXNXMXyXrXeXrXeXeXeX5X1X3Xz.& . @ 5 8 5 6 v #.-.,.1.:.7.5.q.p.M i g r # # 7 5.p.5.1.;.1.#.w D w 5 5 4 @ . # 4 4 7 B V x f z l k 1 z k k x m k O f k 2 O 1 N x O . > 1 > O O O O + . . O 1 3 + O < v -.,.1.2.5.k . . +                                                                                                                                                                           ",
"                                                                                                                                                                                                                                                                                                                :.z z k Z       N           Z x z 3.      Z Z =.#.O . . . . . U %XzX&.. . = =.V x > 1 N 1 O 2 2 > 2 2 + . . X e % % D. X.X&XlXzXXX. . . z m z v B m k x N x x N m z x m f > 1 1 k z z l z z f 2 > & f x z x z m ' B k x n l f = . X X . . y V.*XnXmXnXvXwX*XFXJXnX-X X&XlXlX;XXX%X;X:XAXHXmXD.V.J.S.% $ X X X & y U t Y C.G.*XDXHXVX=.O > z 5.5.1.7.y.5.7.q.5.5.q.7.5.4.1.p.s.a.k.c.oXoXoX,XOXoXOX2X$.> p e 8 8 6 h.0X4X4X7X7X<XoXQ.z.c.OXoX1XrXyXaXrXrXeX0X<X1X4X7Xc.oXOX$.& b 7 # @ # e.OXOXOXoX1X9.H ) 6 4 4 ) 2X1XoXQ.3X0XaXiXxXxXaXrXrXrXeXeXqX4X1X7XoXh w _ w 5 8 8 5 t #.1.:.;.>.1.4.,.m l v g # # # b 4.,.-.-.:.=.b h b e 4 # X $ 7 4 4 % < 1 2 > k z 2 O k x k < f - . 3 > > > > m 1 . + + - + O O . . . O < k V f & z N v m :.;.1 f X . .                                                                                                                                                                             ",
"                                                                                                                                                                                                                                                                                                                k . . . . 3.  z . .       O . . . . N   =.. . . . . . . . . . T %XAXw.. . O x z x 1 > O O > > > 2 2 2 + . . X % $ 7 A.}. X-XzXzX#X. . . x B m N N N v v m x m N N N x x x 1 1 S 1 k z z c z 1 > > 2 k x x x x C -.#.B N c z v v > . . . 7 Y S.:XnXDXDXJXkXS.`.bX-X X;X;X;XlX;X:X:X:X:XnXzX-XJ.V.C.V.t t 7 X . . e s t T A.V.U.JXJXJX5.. . f y.5.1.4.4.1.q.y.y.y.y.q.y.6.6.g.g.a.z.OXoXoX1X<X1XoXoX,Xb . @ 4 5 4 p 1X5X6X5X7X<X3XoXx.c.Q.OXoX1XrXrXrXrXrX0X4XOX1X3X1Xz.c.k.e # 4 5 5 # i 2X7XoXoXc._.r.| r.) 4 4 t k.1XQ.oXOX7XrXiXpXpXaXrXrXrXrXqXrX0X<X<X3Xe.| 0.E 5 8 5 4 7 #.8.:.;.-.;.;.=.C C =.l @ # 4 ] :.>.=.=.-.#.b b b i # # # w w 4 4 # + = > 2 2 2 > > > f 2 + O + O O 3 > > > > > O + + o + + O . . + < m N N C C #.B x m C < . . . . .                                                                                                                                                                             ",
"                                                                                                                                                                                                                                                                                                                x . . . . . . . . . . z + . . . . . . + + . X . . . . . . . . % P.nXw.. . O N x Z 1 O > O O > > > 2 2 . . . X t % t S.G.}.;XzXzX#X. . . > x m m m m m m x x x m m x x x x a 1 1 1 2 f z k k > O > 1 z x x m x m C ' C V m z z M u . . X Y G ~ %X&XmXJXHXXXV.A.C.J.-XAXlX%XzX:X[.|.-X:X-X-X-XJ.C.J.C.t 7 r X . . t s t / G.F.`.KXJXJXC . X f s.y.q.3.,.,.5.p.a.a.y.q.q.6.s.k.k.k.z.1X1XOX,X<X1X1X1X,Xi X # 4 4 % @ 2.sX3X3X7X3X3Xc.z.oXoXOXOX1X5X0XrXrX0X1X,X<X<X3Xc.z.,X!.i # 4 5 8 # b 6X<XQ.oXQ._.w.| 9.[ 4 4 @ ) <X1X,X,X7XyXiXpXiXaXrXrXrX0X8X0X8X<X3X3Xe.0.&.F 5 5 4 # u X.V -.:.;.X.:.1.=.=.:.u @ # 4 $.1.#.=.#.>.` i h b % @ @ # 6 w 7 7 # X - 2 2 > 2 > > O = - O + o O O > 3 O O + O O + + . . + O . & 1 , x m m C #.#.m m V 1 . X X . + .                                                                                                                                                                             ",
"                                                                                                                                                                                                                                                                                                          d.  f.u % e ; . . . i g i X . . r W j ; d s Q ! + . o . . . * y e e / I.&X%.. . . 1 a k > + O O > > O > > > O + + & t 7 t o.o.~ U.;X:X%XK.L.Z.X . > k N m m m x x x n x x x x x x z k 1 k z x k k 1 2 3 > f x x x m N V #.-.-.#.g r p 7 . o K.U.P.XX$X'.`.#X^.O.T Q Q U *.kX#XS.P.U.`. XzXzX}.}.|.T ~ V.U + $ % . . . X $ o d +.+.O.dXmXmX#XE.XX%.C -.N ;.=.C ;.q.5.q.y.y.s.s.d.s.g.g.s.oXOXQ.x.,X1X<.] ] 7 @ # # 7 W.%.h.5X3X<X<X1XOXc.oXoXoXOX3X,XoX7X5X5X3X1X<X3X2XoXj.y.' M * @ @ 5 8 p d.0X3X,XoX,X,Xj.u.k.w.7 # # <.6X2X!.7X6XrXyXyXyXeXrXeXqX0X0X0X5X<X3X3Xk.k.h.R 8 q 5 # b V x m #.V x =.;.X.' =.l # 4 4 p _ R ] =.$._ H p ; @ @ X % H y 7 % @ @ o > > > > 2 > O + O O . . + - O O . + + O = + O O . . O k #.C l B C B B #.c O 1 1 . . . O                                                                                                                                                                                   ",
"                                                                                                                                                                                                                                                                                                          . . . r s y t + . O h R R j j R @.@.@.@.O.O.@.Z.I . + . + . r ~ U I U.[.T.I . . X O O o + O O > > > - > > > 2 1 1 < t 6 t ~ o.Y G.&X&X X X>X}.o . . f N m m n x n x x x x x x m m m m x N N m z k z 1 3 > 2 z x z m #.C #.;.:.$.w 8 5 # . &.=X*X*X*XD.S.I 6 q F r 7 % t y F Y ~ Y D #XHXJXFXJ.F.H.I t y % . . . . . . . . . e U y F }.-X-X;X;X:XE.. . . ' #.#.;.,.<.5.p.s.k.k.j.y.q.q.s.c.x.c.c.oXc.p # # 4 # X 7 e.rX5X4X3X3X3XoXoXQ.oXOXoXoX,X<X,Xc.<X3X7X<X7X7X3XoXl.v.b . . @ @ @ 4 5 r.pX6X6X3X<X<X1Xc.c.,Xh.w 0 4 k.8X2X<X6X6X3XrXaXrXrXrXrXrX0X0X0X5X3X4X4X<XoX7X9.9 F 8 # * N N x x m N Z V C X.=.B 4 4 7 w D D M X.` _ } w . X X X p E w % % % @ o O O > > = O O O O . . . + O O O + + + O < > > > . O 2 V :.;.#.#.#.#.1 O . . . . . . . 2                                                                                                                                                                                   ",
"                                                                                                                                                                                                                                                                                                          . . . % t r % ; O.h i j j Q O.@.@.O.O.+.O.Q Q / O.X . . . . t T y y G.H.T.I . . . > > O O O O > > 2 > & O 3 > > 2 < t 4 7 O.o.Y `.-X&X&X.X XU . + X z C m m n n m x x m n x x m m m v x m m m z c z 1 3 > 2 z z z z N #.#.-.-.$.w 5 5 @ ; XX%X%X&X%Xo.y o t T I y t 7 r I U U ~ ~ Y dXJXJXmXH.G.H.O.t F t . . . . . . . . . r U s Y {.;XlX=X&X&XW . . > -.#.;.,.,.;.2.s.z.z.z.j.6.7.5.g.v.v.oX,X<X<X) 5 5 5 # . p qX3X2X3X4X5X4XoXoXoXoXoXOXoXOXOXOXv.,X4X3X7X3X7XoXl.c.l.i . @ @ @ @ 4 5 ` sX5X6X6X<X<X1Xx.z.x.k.p 8 5 [ 3X2X3X6X6X3X0XaXeXrXrXrXrXqX0X0X5X<X4X3XoXx.1X9.8 9 5 @ @ m N x n N Z Z V C #.>.B 4 4 4 w F F ` m.` E } p . X X # D H 7 % * $ + + O > > > O O O O + . . . O O O . . + - 2 > & > O O > , V #.#.#.#.-.$.- . + . . . . . .                                                                                                                                                                                     ",
"                                                                                                                                                                                                                                                                                                        3.. . . R O.s r L.[.L.Q O.@.+.U.G.+.Z.L.Z.@.L.L.Z.A.*.Q h s ! I U O.Z.[.}.|.W . . . > > O O O > O > > 2 < < > 3 > 2 = X s R T Y U A.|.|.%X;XlXi.. . o 1 x x x z x x x x n n x x x m n x x x m m z z x k 2 1 1 z c z < > m C ` ) ) 6 4 4 # w / L.P.&.P.y . . o r r % % $ $ t r d ~ ( Y XXAXnXlXC.A.D.s @ t 7 + X X O - > . . . % y y Q H.{.=XkXbXbX1.. . + V ;.-.:.,.:.,.w.s.z.j.s.a.s.y.a.l.x.k.j.g.] 6 5 5 5 4 8 H 2X5X<XOX<X3X<Xc.oXOXoXv.c.Q.OXOXoXz.v.1XOX1X4X7Xc.z.oXy.* X @ @ @ @ 4 5 4 <.5X3X7X,X1X,Xx.z.z.<Xi.w 5 _ ~.2X!.oX3X<X4X0X0XrXrXrXeX0X8X0X1XoX1X<Xx.z.OX9.H _ 6 @ @ i m N x z N N N N V X.v 4 4 4 6 w w ) B E ^ F % X @ X # 4 7 % $ & O . . + O O > O O O . . . . + O + O 1 + + 2 2 k z O O 1 u < f #.:.m 1 k f . . . N                                                                                                                                                                                               ",
"                                                                                                                                                                                                                                                                                                    k . . . . $ Z.I.A.A.T.H.H.H.}.[.T.|.].J.T..XH.U.|.}.|. X&X-X[.J.H.S.+.}. X-X-X:X%.. . . > > = = > > & - , k l l u O > 2 O ; K.P.U y r +.H.J.$XAXAXmXg . + X . O k k z x x x x x x x x x v x x x x x x m m N z k x m x z , - O e J ^ J 5 # 4 9 D D q . . X X . . . . . . . . . . % d S.A.V.$XzXzX:X+.( o.$ . . X * $ * k x z + . . + e 7 ! [.].H.FXJXJX0X. . . V -.X.:.1.,.,.4.7.a.p.p.k.z.g.a.g.c.u.7 4 4 5 4 # 8 K D } sX4X3XOXoXOXQ.c.c.oXc.v.v.c.,XOXoXz.v.c.c.1X3X<XQ.oX3X2.X @ @ @ @ @ 4 5 4 ) 3X7X,X,X1X,XoXQ.c.OXrX8XR K./.^.W.l.v.oX3X3X3X0XyXeXeX0X5X8X3XoXoXQ.z.z.z.h.e.i.[ @ @ % v Z z k x x x x m B l 4 4 # 4 4 # p E L J 4 @ @ @ @ # @ X . + . . . . + + + O O O O . . + + O + + l #.v O - x #.#.l 1 l z f . 2 x + . . . . . .                                                                                                                                                                                                 ",
"                                                                                                                                                                                                                                                                                                    > . . . . o @.D.D.G.H.[.H.[.[.[.[.].].].J.H.H.I.[.|.[.|.-X-XH.F.G.S.L.}.}.&X&X;X%.. . X > > > > > > > * < z l l f - - > O *.L.*.d t r Z.].H.%XAXAXmX, . . . . . O x x v m m m x z z x x m m x x x x x m m m l k x x x x 1 2 > * J ^ E 6 5 8 K G L y = , , X o o . . . . . . X t t d o.V.M.%XnXmXzX|.V.~ $ . . + $ , k k k c + . . o r 7 U [.].[.mXJXJXoX. . . =.:.=.=.;.=.;.4.q.s.a.a.k.k.j.j.l._.a.4 5 0 5 4 # 8 D D { 3X6X5X3XOXOXoXc.oXoXQ.x.v.oX1X1XOXz.v.x.oX<X,XOXoX1X5Xk.& @ @ @ @ @ # 4 # [ 6X7X,X,X1X1XQ.z.z.7XrXfX&.} /.E.W.c.z.OX5X5X5X0XeXeX0X8X8X5X6XOXOXoXk.j.k.e.9.r.<.$ # 7 V N z z m m x m N Z x 4 # # 4 5 # w J P J 4 @ # @ @ # # X + + + + . + O + . + + + O O . + + . + x #.C C v x C B C C v v l + . . . . . + . . . .                                                                                                                                                                                                 ",
"                                                                                                                                                                                                                                                                                                    . . . X % e @.Z.Z.@.D.G.Z.@.A.I.T.D.A.@.s S.G.D.Z.G.O.L.%X$XA.S.A.+.O.'.}.=XlXzX%.. . . O > 2 2 > > - & > k k f 1 > - < > W *.@.Q I y +.J.F.`.lXzXlXW W ` - . . + z x x N x k z x x x x v x x x x x x m m z l z k z x m u > & X w F 0 5 q 9 G ^ y o l m z f x c . . o X . . X y t s Z.C.L.:XmXnXzX XH.( $ . . X , m m k z x - + O & % % r A.G.D.kXHXJX4Xm x + k N V #.=.#.#.1.q.u.y.q.j.k.g.s.u.s.,.# 5 0 8 # # 5 F { r.c.,X5X<Xk.oXv.z.OXoXv.c.c.oXOXOXoXc.c.c.c.oXoXoXoX1X6Xk.& @ # 4 # X e ) [ w.,X,X,XoXoXc.l.z.j.OXaX8XH F E.E.h.d.j.oX5X5X5X8XrXrX8X5X8X5XOXk.c.k.s.s.d.r.9.e.] @ # 4 l n k z n x z x N B l # # # 4 4 # 6 F G w @ @ # @ @ @ X . . + + + O O O + + + + > k z > . 1 z z #.#.#.V m V B C B < 1 v o . . . . . . . . . . .                                                                                                                                                                                                 ",
"                                                                                                                                                                                                                                                                                                  z . . t +.+.+.O./ O.Q y y y e $ Q O.o + + + r I I y y y Y Y U Y T Y +.J.C.J.bXHXHXw.. . X = > 1 k 1 > - * - 2 2 > > > o - > . o *.`.L.+.~ ~ Y S..X].].|.&X-X` . . . O + & > + . 1 V N N x x z x n x x x x x x m m x x m C u @ @ X X 4 # 0 D D 7 $ . , m B ' C Z N k 1 1 + . . . I T O.$X=XFXAXzXmXlXF.J.H.e . . O m m m x v v x x N 2 . . % / ~ Y $XzXzXFXSXvXf . . O =.1.:.1.4.5.5.5.5.u.s.a.2.p w 6 @ 4 5 4 # @ i u.h.j.c.Q.oXg.y.s.y.p.k.p.d.c.c.oXoX_.oXOXOXoXz.v.c.c.OX1X5Xw.@ # 5 q 5 % w.Q.Q.x.l.z.x.x.z.z.z.z.j.c.qX| 8 w R.^.u.y.y.j.5X0X6X0XeXrX0X4X3X4XoXy.a.s.s.a.p.r.9.w.<.% 4 4 i z k k k k k x x n u # # # # # # 4 5 0 @ X @ # # @ . . . . + + + + + o O - > > x V N k > m #.#.#.#.#.z f B B f O . + + . . . . . .                                                                                                                                                                                                             ",
"                                                                                                                                                                                                                                                                                                  N . . U A.Z.+.+.O.O.Q r r y e % e - O + O - . * U U F U Y U y I T U o.T.J.J.bXJXKXq.. . . > > 1 1 2 2 * * * * , , 2 3 . + + X . j U.U.A.o.~ Y o..X].].|. X-XW . . . . . . o . . 1 =.#.V x x x z x x x x x x m m m v m N x 4 # # @ # 5 6 6 q D @ . - v m V C m m x f 1 1 + . . R Z.T O.%X&XmXDXzXmXmX'.J.'.d . . k m x x x x v n m B 2 . . % O.~ Y $X:X:XnXHXFX< . . + =.,.:.5.4.4.4.4.4.a.g.j.<.8 8 # @ # # @ @ @ e r.e.r.k.c.oXj.6.y.a.y.5.3.s.c.v.c.oXOXoXoXOXoXj.x.OXoXOXOX3Xh.* 4 8 8 5 4 r.oXz.z.z.j.l.z.z.z.z.z.z.oXW.D 9 w R.+Xk.u.y.j.3X5X5X0X0X0X0X3X3X5XOXa.s.d.j.s.s.r.&.r.2.* 4 4 i x c k k k z x x n f # # # X X @ 4 5 6 @ X @ @ # # . . . . . . . . . > O & > > x V N 1 > m C C #.#.C f l f < X . . . . . . . . . .                                                                                                                                                                                                             ",
"                                                                                                                                                                                                                                                                                                  N . . d Z.Z.+.O.O.@.! t r r % $ ; & O o O - O . r U y y U U y U Y U ~ F.C.J.kXDXGX2.+ . . + O > 2 2 1 > * * * i p r $ X + . o + e L.I.A.( ~ Y o.].].].}. X&X%., - . 1 g - . . - k C N x m x x c k x v x x m m m m x l g % # 4 # 4 6 5 6 # 4 8 @ - v x x N m n x k 1 1 f + . . Q I.~ O.$X%X;XzXzXmXlXD.J.G.r . . k m v x z x m x m N 2 . . $ T T U XX;X;XlXDXvX, . . + C :.:.3.5.4.4.3.4.y.s.l.r.D 8 @ # # # @ @ @ @ &.e.&.h.c.oXj.#.,.y.6.7.7.f.z.l.z.oXc._.oXOXc.b.v.,Xc.z.oX1Xc.i 5 8 w 0 5 r.3Xz.z.z.z.z.l.z.g.k.z.k.oXh.w 8 4 [ ~.k.5.5.j.,XoX<X4X5X5X5X3X3X4XOXs.s.g.a.a.y.%.| 9.[ % 4 4 7 p g f k k k x n n < @ # @ X X # 4 6 # X @ X . @ # X X . X > - . . f m > O > k N m m 1 x B N m B #.N < , X . . . . . . O . . . .                                                                                                                                                                                                               ",
"                                                                                                                                                                                                                                                                                                  N . . s A.Z.Z.! R ! y . . X . . . . . . . . + + + X . . @ y W y t r U ~ T ~ {.&X&XXXP.K.j . . . O 1 1 1 > , > & w V.o.S.Z.r . 7 Q O.o.+.T U d U o.C.T.%X&X|.%X=X$X%.vXDX@Xe O.$X&.+ X 1 C m z z z x x x v m m N N x 6 8 4 # # 5 q 0 5 4 @ # 4 i n m f e l z z z z z k c O . . j U.A.@.I.=XDX;X}.&X[.~ ~ ~ % . . O N V N x z x x m V 1 . . X r t % I O.~ XXnX*XY . . . l 1.;.3.y.y.1.1.4.r.9.i.{ 8 4 # # 4 # # # % $.oXg.g.z.oXQ.1.=.-.:.3.p.j.g.g.j.j.j.d.k.oXoXoXoXoX,XQ.k.z.OX] 4 9 H W._ 9 !.5XOXk.c.OXoXz.k.k.z.z.j.x.2X[ 5 5 4 7 $.q.4.y.z.j.s.OX8X6X5X4Xc.x.oXc.k.k.5.1.,.$.M V B 4 4 4 5 D q 7 S k f k c c , # # # @ # 5 4 4 @ @ @ X X @ X X X X u #.V f l B m m f c m m m N m C N m > < m 1 . . . . . .                                                                                                                                                                                                                               ",
"                                                                                                                                                                                                                                                                                                  N . . s A.Z.Z.! s U y . . . . . . . . . . . X + . . . . . y O.y t y Y ~ T ~ }. X.X|.[.}.P.. . . O 1 1 2 > 2 2 3 0 V.%X;X{.I . Y A.Z.~ / I d y Y V.( H.-X&X&X&X&X-X:XnXAXkX@.U.{.{ . X 2 V N x x x x x m N Z M p b y 8 0 0 4 8 D D 6 # # @ # # e A n g g z z z x n x z z O . . r L.Y ! `.mXJXlX].|.|.o.~ ~ $ . . O N C V x x x x x N < . . X r t t Q @.Y XXJXlXo.. . . x q.4.y.y.a.4.:.2.9.r.&.q 5 4 4 # # # 4 # ` ,Xz.j.v.z.Q.OX5.;.:.:.s.k.j.j.k.z.k.j.d.k.oXoXOXOXoXoXOXx.k.OX$.5 9 _ ~.H D OX3X<XOXOXOXOXx.k.z.x.z.j.z.6Xr.5 8 5 # ] 5.1.y.v.k.s.oX0X5X5X6Xk.z.oXoXz.g.5.3.3.;.Z m.N % # 4 q D D t k f k k k k 7 # # 4 # # 4 5 # @ # @ X X X - * X X B #.B B B m m B x x x m B m m x N m > O - . . . . .                                                                                                                                                                                                                                   ",
"                                                                                                                                                                                                                                                                                                  Z . . d Z.Z.Z.R s I e . . . . . . . . . . . Z Z . . . . . r O.U y y I ~ ~ ~ [.|.|.H.G.[.K.. . . O 1 1 1 > > & > * U *XzX`./ W D.L.Z.T I s s d T C.V.C.&X-X&X&X&X&X&XlXzX*Xh Q U + + + > N N v x x v m v x Z b D 9 8 8 0 0 5 9 K D 4 # # % # # 4 f i 6 b k k x x x k z k o . . X U y y $XAXJXlX[.|.{.O.~ ! . . . O N #.C z x x z z x 2 . . X r e r O.@.~ #XHXlXS.X . . m 5.1.q.y.6.4.:.,.<.<.{ 9 4 # @ # # 4 4 @ ` ,Xk.j.k.z.Q.oX,.=.:.:.g.z.j.k.z.z.j.j.g.z.oXoXoXc.oXOXoXk.z.,X<.4 8 J R.D D W.3X1XOXQ.oXOXz.l.z.v.z.j.z.<XW.p 5 5 4 ] 4.;.5.k.j.g.z.3X8X5XoXk.c.c.d.p.y.5.7.4.#.B m.m % # 4 0 q 0 7 a a f f k i 4 4 4 4 # @ # 4 # # # # X . . ] h # X v #.B m m B V m > a m C 1 o > z C k . . . . . . .                                                                                                                                                                                                                                     ",
"                                                                                                                                                                                                                                                                                                  V . . d +.+.O.y y I t . . . . . . . . 1 z V p.f.x O > > . X - %.&.*.W y U I +.S.V.I.%X&XP.X . . . o 1 k 1 . . O + & K.U.L.$X=X{.O.y y r Q / U U ~ ~ Y D.H.J.kXHXDXmXlXzX*Xo . . k N x n N m N v x N Z p 8 w w F D q 0 5 # # 5 q 0 4 # 4 e * @ 7 7 4 5 * k k k c k k f + . . . r I F / ;XzXzXi.y T Q o o o X . . O N B N x x z k k z 1 + + + . . . s T Y @.I.Z.o.e o $ O - + f 5.1.-.:.=.m v p 8 4 7 ` i @ # # [ k.,XoXc.z.z.Q.z.V m C C 4.Q.Q.z.s.f.d.k.k.j.l.oXl.j.oXoXQ.h.s.z.] 4 5 q W.^.W.OX1X,Xc.j.z.z.z.z.v.j.l.l.z.oX4Xh.4 # @ -.a.4.4.4.5.5.g.k.c.z.j.j.k.s.7.t.y.-.' =.M b M h 0 8 5 # # # @ > 1 1 a g 6 4 4 # # # # 0 w 8 8 5 h l & f ] p w h B V B B m N m = . . 2 1 . . . O 2 . . . . . . +                                                                                                                                                                                                                                       ",
"                                                                                                                                                                                                                                                                                                  V . . d +.O./ s r s y . . . . . . . a N C 6.6.n.8.1 1 1 . . . &.E.E.%.t y U +.V.( `.&X&XP.. . . . O k k 1 . . & o & K.I.L.*X;XP.U t r d @.@.O.T Y Y Y C.J.C.kXJXJXJX;X-X#XX . . x X.V N m m V h r B m w 9 8 0 F F D 6 # 4 # # 8 5 4 t i 7 7 * 7 4 4 4 u c k k k k z k . . . o T T F O.:XzX:X&.6 U r . . . X . . O N N m m x k k k z 1 + O + . . . U T U / A.A.o.% o ; X . . 1 5.1.;.,.C 1 i 6 5 y ` y.b @ @ ] <XoXoXoXoXc.x.c.k.V x N #.1.k.OXj.y.p.d.z.z.k.v.OXQ.j.k.Q.k.a.a.z.2.# # w ,X3X<X,X,XOXc.j.j.l.v.x.c.z.l.z.z.Q.3X!.# @ @ ;.a.q.4.1.4.5.j.x.j.j.j.s.g.u.5.t.y.;.B C M ) ) h 5 8 5 # # # # 2 1 1 - 7 7 4 4 # # w D F q 8 D q V X.m C M p R ` C M B m B C 1 . . . . . . . + . . .                                                                                                                                                                                                                                                   ",
"                                                                                                                                                                                                                                                                                                  V . . d S.o.O.I y y e . . . . . . . k x z 6.p.t.1 O k 1 + . + i.XXE.O.t y U S.S.V.G.&X-XP.. . . . f k a < + . r y y L.U.P.=XE.. . U U I @.K.K./ U U I G.J.C.kXJXJXFX XG.; . . > N Z N N n n ] R w p y 0 q q 8 0 F w # @ # # @ # # i v x i 7 7 7 4 4 7 x x z k k k z l o . . $ Y U y ! lXzXzXP.q Y d . . . . . . O N N m z c z z k z 1 + O + . . . I ~ U / A.A.+.X . X . . . f 6.7.:.1.#.e 6 4 p %.<.w.i X @ <.z.g.x.Q.c.c.v._.k.V v V ;.;.,.g.s.y.y.d.x.z.k.oXOXQ.g.s.j.k.x.k.d.2.% # 4 e.<XQ.OX<X<XoXz.l.j.z.Q.oXv.z.c.c.OX4X;.. @ @ ] a.w.4.2.5.7.j.Q.j.k.k.j.y.5.y.y.y.-.B =.] b M b 6 5 5 # # # # 1 S < @ # 4 4 4 # 4 F K { h 4 8 p C B m N M ) h - x #.C < 1 V O . . . . + 1 > . . . >                                                                                                                                                                                                                                                   ",
"                                                                                                                                                                                                                                                              d.d.                                V . . r / / T ! I I t . . . - a . > 6.6.X.:.Z n O O 1 2 + + O h W h W @.U y Q T I V.T.}.`.r.i.i.< O & > k f u i t e j r r %., . . $ $ $ W &.&.@.+.U y ~ o.~ XXAXHX;X;XdX<.. . + x X.Z B m ) R r w L ^ D D F D q 0 4 # # @ @ # 7 e l z k f i # # # 4 6 l k l k c k > O . $ t r I +.Z.+.$X=X%X*.6 r $ . . . S k f z Z N m k k k k z z k 1 1 2 . + + ; r O.O.T / T P.@XwXM . X & 1 x 3.1.` # @ @ i b u V #.l g 4.k.z.v.x.c.c.oXoXy.N m N C #.1.s.s.a.p.y.g.j.a.j.c.j.s.s.d.k.k.] 7 p 4 # @ [ ,Xc.k.z.1Xx.y.s.y.a.k.l.d.s.j.j.k.~.[ X @ @ ] y.4.3.2.5.5.y.y.q.y.s.y.1.1.5.7.5.-.' C p ) C B w 9 0 @ X # 4 * - $ @ @ # # 4 4 5 D { u.w.p 6 ` X.N N N i e $ . + 1 < . . O . . . .                                                                                                                                                                                                                                                                   ",
"                                                                                                                                                                                                                                                              . . .                               C . . t T Y I ! I T y . . . k C c 3.oXv.b.N 1 1 2 2 2 2 > > O . . . W U.+.U r t % o.H.C.H.:XmXmX` . . > N z u 2 1 2 . . . . + 2 - . + . > $.] &.U.O.y y U y C.&XnXnXAXJXvXo . . k #.C M _  .J 7 J ^ M.L K G K 0 4 4 4 # @ % y p p f f f f u % @ # 4 4 i 1 u z x k . . . y ~ I / I.G.G.G.G.H.T . . . . + + z C C V B N m k k f k z k k k f 1 O > = . O E.&.y y ! ;XAXJXw.. O o . X X.#.e . . . $ + . > 6.7.3.y.v.c.z.z.x.z.k.y.#.x m m V 5.h.s.a.s.s.a.a.a.y.d.v.j.s.s.j.u.p 4 4 5 5 4 7 s.Q.k.a.a.j.p.,.4.y.y.y.y.p.p.f.y.e.R.r.* X X ] q.4.4.4.4.7.3.1.1.1.5.5.3.1.1.1.1.,.<.$.q F Z M D D 0 @ X @ # # @ @ X X # 6 # 4 8 { u.w.y.2.R ` b Z #.z X X . . . . . . + . . . + +                                                                                                                                                                                                                                                                   ",
"                                                                                                                                                                                                                                                              . . O                               C . . e T Y I I Y ~ s . . . 1 N x :.c.c.l.n S k 1 > 1 2 = > 3 . . . Q P.y r y r t o.J.C.H.:XzXlXj . . O Z x > = 2 > . . 1 < < 1 1 1 1 > . . + W U.L./ I Y U [. X XmXHXHXxX+ . . o 1 #.[ }  .^ L ^ M.^ F D K D # # 4 4 4 # 6 F w p g f f k , # # 4 4 4 ; 1 f z x k . . . t U F o.J.C.F.I.H.[.Q . . . X . . 1 N N N m m m f f f c z c k k k 1 + O + . > E.*.t r Q &XmXJX$.. . . X X + & o X . . . O . f 7.:.;.s.oXz.k.z.x.c.5.1.1.m m m V 5.y.s.a.s.a.y.s.d.d.l.v.k.j.g.j.j.i # 5 5 q 5 w x.oXk.g.s.y.4.1.3.a.a.y.p.p.p.p.u.R.R.r.$ X X ] y.4.4.3.3.3.1.5.7.:.5.y.y.1.#.5.5.<.$.<.R D H F q q 0 @ X @ @ @ @ @ . X w _ w 8 D r.g.r.u.u.w D 8 i M - X X . . . .     . . . . . O                                                                                                                                                                                                                                                                   ",
"                                                                                                                                                                                                                                                              . . b     N                         C . . % U I I s s s e 1 1 o N ;.V #.p.d.p.k S x > + > O + O > o . + h h . X y y r T o.o.D.-XlX;X%.W %.h 1 1 > 1 f 1 - 1 z k f k k f f < . . . e P.I.K.T T Y G.].].%XDXHXwXo @ X . . < )  . .L D J ^ G 5 q D 0 @ # # 5 5 4 p b p i l k f i 7 # # # # % u f k l x k . . . U S.~ @.$X$X`.D.D.H.Q $ ; X + O O k N N m x m x z z k 1 k k k k k f , < > . O i.&.t r U U.*XmX+X@X+X- . . . . . . X b h O X f 3.,.;.4.y.s.k.k.z.k.;.=.;.N m z N :.;.6.a.s.y.4.p.p.y.d.l.k.g.y.d.j.i # 4 4 6 5 6 q.z.s.s.a.4.1.5.3.5.y.y.y.6.6.y.w.&.&.{ 4 # X ] 6.1.1.3.1.1.=.:.,.#.,.y.5.#.V ;.,.<.<.2.) D q 4 0 q 0 # @ @ @ @ # @ @ w J J w 5 8 R u.h.u.v @ 6 4 # $ . . . . .                                                                                                                                                                                                                                                                                       ",
"                                                                                                                                                                                                                                                              . e L.t . . C                       V . . $ y y s r + . 1 j.d.3.6.p.p.1.Z C V 1 1 k > . + + O O O 2 1 1 3 . . . r y r ! @.o.D.&X&X%X-X:X:XP.. . + m N m m m m N B #.C 1 1 1 + . . & %.&.E.O.~ T ~ o.( U.AXDXvXt 5 6 X . . # L J q 0 0 5 5 0 0 6 4 # @ # 9 9 p V Z N z l l c % 4 4 # # # ; k k k f k f . . X A..XH.$XHXHXFXZ.o.Z.+.O.o.! > k x N m N m m v x m m x 1 > 2 1 c k c x v x . . &.K.r y s O.V.%XHXJXJXz.. . . . . o &.mX*Xo . , 1.1.,.,.:.1.s.j.z.y.N V Z N m x =.1.;.:.5.p.p.7.3.3.7.a.s.d.q.1.y.] # @ # # 4 # 4 ;.7.1.5.7.3.3.4.3.3.7.6.6.,.1.5.3.) D K K 9 4 ] 1.;.:.1.:.:.#.V C #.#.=.=.=.=.#.#.<.2.2.R 8 5 X # q q 4 # # @ # # # F J J H @ @ 4 5 b u.v . + + + . . . . . . .                                                                                                                                                                                                                                                                                       ",
"                                                                                                                                                                                                                                                              . $ A.s . . 6.                      Z . . % U s U y . . l j.f.s.5.t.p.7.C C V z 1 1 + . + + + + O 2 1 1 > . . . y d r Q G.C.G.-X&X&X&X-X;X*.. . . z m m m m x m V #.V 1 1 1 + . . o b 2.h.O.Y Y o.V.( XXHXDXvX% 4 8 @ . . % G D q q 5 4 0 8 5 5 4 4 4 4 5 p V Z m m v z z z * 4 4 4 # # * a f f f l k . . . @.].J.%XDXDXDXI.o.S.o.~ ~ U . . + x C N N m x x x x x 1 & > a z k k z x z + . &.&.y r d Z.V.{.DXJXJXj.. . . . %.wXbXnX#X. . u 5.1.1.7.q.5.y.s.y.,.N V V m z C 1.:.;.;.6.a.a.y.7.3.7.a.p.p.a.w.M $ 4 # @ @ @ e V 3.4.4.5.5.5.1.:.:.:.7.y.t.:.$.1.1.p 9 D D D ` 1.,.,.:.:.1.1.#.V C ' =.=.>.;.:.;.#.,.<.p 5 8 0 # # 0 0 # # # # 4 4 # q F E H @ # 8 8 X - . . + . . . . . . . .                                                                                                                                                                                                                                                                                         ",
"                                                                                                                                                                                                                                                              . $ I.Q . .                         N . . % I U U d 2 > z d.f.8.C 3.y.#.l #.C 2 - O . + O + o + O < 1 1 > + . X r r r U +.V.I.-X&X&X&X-X;X*.. . . z N m N N x z B C N 1 1 1 O . . X o #.u.&.T U ~ V.( XXFXAXdX% # 4 X . . $ F q q 0 5 4 6 5 5 5 7 7 7 # e V Z m m m v x x f % 4 4 4 7 % * a k 1 & f u + . . ~ ].'.}.AXDXAX`.V.A.~ F ~ I . . . k #.C N x x x z z z > - > f z f k k x z O + &.&.y r y @.o.D.mXJXKXy.. $ d y E.AXnXlX*.. O v 4.1.1.5.5.5.s.5.#.;.V V V v z -.1.:.:.:.q.y.y.y.3.5.y.y.y.a.s.<.@ @ 4 # @ X * #.:.;.2.5.5.5.q.1.=.>.=.3.y.5.;.b v #.4 8 9 w ) #.-.1.,.=.#.1.:.V V V m #.:.=.#.;.;.$.<.) # 5 q q 8 4 4 4 # # # 4 6 4 # 4 w H 7 . 4 5 @ . . . . . . . . + > 2                                                                                                                                                                                                                                                                                             ",
"                                                                                                                                                                                                                                                              . X ! `.$XXX` 1 1 1 1               z . . . $ X o ;.l.d.3.:.:.>.1 2 k > + 1 < . + + + O O + > 2 2 k x m k > 2 O . . . % s y Q I.G.F.lXAXAXdX, . . O m C V V V N V C V x z n > . X X . M E.E.K.Q Y T I / `.{.U.F D D 4 # 4 # X X 4 4 4 4 4 4 4 5 p V m l x N N N N Z V p 7 7 4 4 4 7 u k f 1 f 1 . . X U Y U XXmXmXlXlXlX;X@.T ~ K.#XbXbX+XwXwXg O > k m m x k k k 2 > 2 < k k f z x x a > < < $ e r d y U *XHXJXbX=X`.S.+.U.nXlXR X . N 5.1.1.1.;.#.=.1.;.#.=.C V N N -.5.3.:.;.-.,.1.1.1.1.y.y.1.q.] i 7 # 4 4 # @ * =.:.=.=.=.-.1.2.5.4.;.;.;.;.;.-.] 7 @ * 5 5 6 M X.C ' #.#.' C C V m m m x N X.V N Z C g 6 6 4 0 D 9 4 @ # 4 4 4 # p h p g e 4 4 X . . . . . .                                                                                                                                                                                                                                                                                                               ",
"                                                                                                                                                                                                                                                              . . . $X&X-XQ . . . .               k . . . . . . 6.v.d.n.=.>.;.k > > > O + + O + . O O O 3 2 1 2 k z x k 2 < O . . . % U r U A.C.V.&XAXJXvX; . . . 2 Z C C V C V C V x v N 2 . X X . u E.P.*.@.Q I s O.T.T.H.L G G 0 5 8 4 . . @ 5 5 4 4 4 6 5 i Z V Z N m N B N C X.p 5 4 4 4 e f x z k 1 f 2 . . . I ~ Y *XHXAXnX&X&X&XO.I U XXnXDXAXnXnXmXg . . 1 V m x k k k 1 > > 1 k f f z x x k 2 = . . o ; y t h $XlXHXlX:X%XZ.Z.I.*XU.# . O =.5.1.1.1.=.#.#.#.;.;.=.V B B B -.5.5.:.;.;.1.1.,.,.1.6.y.3.4.i @ # 4 4 # # @ * #.<.-.#.#.#.:.3.1.1.:.:.:.=.#.-.p # # # 6 0 6 N C C ' C C #.#.C V N x x x n m m N B V t 4 4 4 6 0 4 @ X @ # 4 5 y b h h b i 4 # . . . . . . .                                                                                                                                                                                                                                                                                                               ",
"                                                                                                                                                                                                                                                              . . $ $X&X-Xh . . . . c             V . . . . . + 3.b.p.t.N X.>.> > S 2 O O 3 + . . . O O = 2 1 1 a k c 1 > > + . . . e U y I G.F.A.].-XDXwX. . . . . X x =.C C V C V x v N > . . . . . *.P.@.O.Q I U +.[.[.I.F K G 0 4 9 4 . X @ 5 5 4 4 4 5 4 i N N B C N m N N C V t 6 7 4 1 c k k l z k k 2 . . . y Y F #XmXnXlX|.-X;XO.I U P.zXnXnXlXzXlX, . . 1 B m m k k k u 1 > 1 k f f k z x f > + . . . X s y R *X&X;X;X;XU.~ S.Z.A.A.y . N 1.;.1.1.1.#.C #.C =.:.' x N V B N ,.3.1.:.;.1.3.1.1.3.4.6.7.b # 4 4 4 4 # @ @ X h [ ] #.=.=.1.1.1.:.:.:.#.' ;.#.7 4 4 4 4 4 # m #.V ' C C ' C #.C x m m x f x m N B b 0 8 5 5 4 4 # @ X @ # # D H y p h b p 4 @ X . . O = O +                                                                                                                                                                                                                                                                                                               ",
"                                                                                                                                                                                                                                                  p.f.d.    C . % d A.U.U.! t r r e . . Z   f.6.t.2 . . . 2 C C >.3.6.V + 1 1 o & 2 > O . + O + . + > 1 2 1 c k k z z 1 > 1 2 . . . t U s U / T Y G.'.[.$X#X#XE.. . . x =.C V V V V B C #.2 . . X R Q T P.L.L.@.~ T ~ G.G.V.L P P w 0 P L % X X @ @ X X e p p v Z C C C V B m m m i 5 6 7 4 i u u k z k & O . . . o @.D.C.$XmXnX*XF.U.U.Q I U @.`.XX$XmXDXmX#XE.- + k x x z l k 1 2 O & , f k f k z i $ X . . . X R I U L.U.U.;XmX*Xo.S.o.U s X 1 -.=.#.C ;.-.m x m z z C #.V V V ' -.,.1.;.=.;.;.,.,.#.-.7.3.x # 4 5 4 4 4 # # @ * V ' ' #.X.#.:.;.;.;.>.=.V #.;.-.i @ @ # 7 i u x C C V C #.C x N m f k l u , < f f , # 5 0 0 5 4 # $ f > X @ p %.%.R w p r % @ # @ . 2                                                                                                                                                                                                                                                                                                                       ",
"                                                                                                                                                                                                                                                . . . . . . . % I Y ~ ~ ~ o.~ Y ! d . . . . . . . . . . 1 d.l.p.#.C :.x O > > - O O O O . . = O + O 1 1 1 z x z x x z l k z f . . . t U s d y y t A.J.F.$XnXAXbX- . + N #.C V V V V C C #.2 . . e @.o.+.U.`.{.D.V.+.( B.B.M.M.P P L L M.M.7 . X . . . . 1 V N Z C #.' V V C B N v 5 5 6 6 5 5 r l k x f . . . + . ; H.H.J.kXJXJX*XV.S.V./ Y I O.Z.S.D.SXJXJXzX:XM . k x x z z x 1 + O $ - k f f k l * # @ . . . X R I I o.o.Z.bXHXkXV.A.Q . . . z :.=.C m B m l k z k x V #.' V B -.5.1.1.=.C :.:.:.,.=.v -.v X # 4 4 4 4 4 4 # # i =.C #.#.#.#.=.=.#.=.;.#.#.;.;.1.x X X @ g m z x C X.B V #.V z c k f 1 < < < , , & @ # 4 0 q D 5 X z =.N @ e $.<.<.$.y 0 # X X @ . . k                                                                                                                                                                                                                                                                                                                       ",
"                                                                                                                                                                                                                                                . . . . . . . y y y ~ ( ~ Y F o.! X . . . . . . . . X . x l.p.t.:.=.:.C 1 1 1 2 O O O + . . > > + O 2 2 1 z z z z x z z l z f . . . + t t t s y y D.'.H.%XmXnXkXX . . A :.#.C V V V C C C 2 . . $ ~ XXlX{.[.U.o.V.o.V.Y.Y.Y.M.P P P P M.P X . . . . . . 1 B m V C C C V V C X.M p 0 8 5 w y w z z l v f . . . . . o F.J.C.dXJXJXbXC.A.A.O.T I @.L.D.I.mXHXJX:X$XX . > 2 2 z x x 2 O O & u f f f k l % # @ . . . + R I U +.A.D.bXJXkX~ o.I . . . k 1.:.#.m x x x z k m #.#.V V V V #.5.5.1.#.C >.8.3.,.1.#.i X @ # 4 4 4 0 F 5 4 # e ' X.C #.>.=.=.>.=.C =.=.#.;.-.:.z X @ @ % z x x z x B C #.N z k k f 1 1 < , u < $ @ @ # 4 D G D i C V m 6 p $.$.$.M 4 4 # X . . . .                                                                                                                                                                                                                                                                                                                         ",
"                                                                                                                                                                                                                                              :.X . $ r t & U @.Q Q G.D.S.L.`.-X`., f g - h i.b X X . 2 6.s.f.6.k A =.1 > S 2 O O O + . . . O + + - 1 1 < f z x x x z z l z a + . O j t j Q U y r o.G.G.$XmXnXdX; W %.l x m B C V B V V C > . . t ( *XmX}.H.Y T A.P.K.( B.( P P P P ( M.K.M g ` g . . . z N m B V C C V V X.b w 8 0 5 5 p M z x x f < O . . . r r $ D.|.{.lXDXDXkXo.o.@.Q U U Q @.+.K.*X*X*X%X#X3.2.u . . f x k > O O O , f f f u i % @ @ X . . X r y y T @.@.*XkX*XP.P.*.. . . f :.-.#.m v m x k l x C V N C V C V #.,.;.C X.>.M ] q.,.i @ @ @ # # # t ) R 6 4 4 t V X.C C #.Z C -.#.N B #.#.C ' #.g X @ # @ f m z k k x N N k k c f , < 1 - # e , % # # # p J K E V m N l 6 # u $.M X X # @ . a                                                                                                                                                                                                                                                                                                                               ",
"                                                                                                                                                                                                                    C . . . . .         V . . X s d I I.U.Z.[.-X X X X X X-X:X:X-X$X*X=X*X=XzX=Xe . . O :.j.d.C . O > . O O O o + + . . + o . . . 1 m z k z x x x z z z x < O O . *.$XI.`.XXQ U I ~ o.~ D.lXHXFX`.%X-Xb . . 1 #.V B B m N i y 0 O.&X&X%X~ U y E.*X*XE.K K D D K D  .=X$XbXmXlXmX#X. . . 1 V N N C #.#.V ' #.w 8 0 5 5 i m N N N f . . . . . t A.V.S.:XmXnXzX;X-XL.4 U U X . X + . . $ I y t ~ lXJXFXb X b g < > & & O - < f f f - @ X X @ @ @ @ X . . ; s y / H.J.XXAXAXdX- . . v =.' #.' V m k k l x C C V V V C m m V C =.C i 4 5 ) p # # # @ @ @ @ h <.] t 4 y ] #.V C Z N N C #.#.C N N N m m B i X # # g m c 1 1 1 k z x k 1 1 1 % # % % # # 4 w q 9 w [ [ _ ] C ' m $ @ @ X - + . . . X .                                                                                                                                                                                                                                                                                                                                 ",
"                                                                                                                                                                                                                    C . . . . . 1     1 . X . . s U s D.G.G. X>X X>X&X&X X>X-X X X&X;X;X;XlXzX&.X . . . > 3.N f O + . + O + + + . . + . + . . . . > x x x x x z x z x f > o . + m kX%XI.`.U.Q I Q +.o.~ G.zXHXDX|.|.&Xb . . 1 C B B V N z r F D +.:XzX&XY F U E.=X*XE.D K D D D D J $X$XmXnXlXzX#X. . . 1 #.N V C ' ' C ' #.p 8 0 5 4 l m m N C < . X . . . $ o.( o.zXDXDX:X.X X`.7 y y X . . . . . . y d y Y K.FXVXj %.*., + > & & O - < f k k e # . . X @ # # X . . ; R y @.[.H.$XAXAXkX> . . m ;.#.=.B m x k k k V =.' V C C V m N B ' #.e # 4 4 # # 4 # # @ @ X * ] -.] 7 6 b #.X.V V C C C #.#.#.#.N m m N N X.l @ # e B N k f 1 1 z x x c 1 a f % # # 4 # 4 4 5 D D D E [ ` V C #.i @ @ @ . . . . X . . .                                                                                                                                                                                                                                                                                                                                 ",
"                                                                                                                                                                                                                    >.. . . X X . k 2 . . . . . d U d @.I. X X X X X&X&X&X[.|. X X%X*X=X=X*X:X#X+ . . . . 2 > < + + + + + + + . . . . . + . . . . . z x z k x x x z m < X + . &.;XmX$XL.U.P.Q Q Q / o.~ D.:XHXDX}.|.%Xj . . 1 ' B V C N * # y q / ;X:X&X~ Y y &.*X$X(.E 9 9 D K K 8 ^ {.kXbX:XzXXX. . . 1 #.C C C C V V V #.p 8 5 4 i l x m Z ' 1 . X X . . . ~ ~ o.lXDXHX;X.X-X`.7 y y X . . . X . X d s s y q U.kX%.&.*.. . - > - & & & u z u 4 # . . X X @ @ X . . i W s +.[.H.$XnXAXkX> . . l #.#.C z z z f f x B #.C #.>.#.C x k V >.g @ # 4 # # # # 4 4 # # $ l #.B p # g #.#.V V V #.-.#.V C #.N m N N m B B , 4 4 * x x c f 1 1 f x z 1 f k 1 # # # # 4 5 # 4 H D D _ [ ` ] X.g 5 # @ $ . . . . . . O +                                                                                                                                                                                                                                                                                                                                 ",
"                                                                                                                                                                                                                    >.$ % / {.U.U % U O.r . @ U `.`.U.I.`.}.I.S.D.Z.+.A.Z.T / +./ o.I.`.`.%X;XzX#XE.#X#X%.. o . . + . . . + . . . . ! D.Z.XX$.. . > x x x x x z z x m z 1 1 b P.I.D.$XbXbXE.d Q O.I U s / `.$X%XbXFXAX<.. . O V C V M i # X . . y @.Z.O.; $ X o g &.XX(.W # 9 D 9 Z.}.|.|.mXAXmXlX$XP.& + 2 1 f #.' V B B p 5 5 4 e N m m z z 2 o . . r Z.o.@.%X&X%XmXAXzXXXA.D./ . X X > 1 1 2 > 1 2 $ $ X X . o h M M g . . < u < , - & - , * 4 # @ @ # # & > > . . - Q Q W W U &.mXnXmX%.. . O k z x z k k x V #.V m V M p h b , X i g @ # @ @ @ @ @ # # 4 4 7 v x z z e 4 4 b V V V V N V V m N N z k x m i 7 t 4 5 4 i n z z f f f 1 f 1 2 > 1 > $ @ # 5 D 9 4 p { ) ] ;.' #.x e # # X . . . . . . .                                                                                                                                                                                                                                                                                                                                       ",
"                                                                                                                                                                                                                    ' X X @. X X[.Z.D.G./ t 0 I  X X|.H.H.I.Z.T ~ ~ Y Y Y Y I F y o.F.C.G.;XlXlX:X:X:XzXE.. . . . . . . . + . . . . Q ].J.%X2.. + 1 N v x x x z z f f f 1 > M Z.A.V.%XAXnXE.X , r s s r Q U.J.'.HXJXJXy.. . + C #.V v i # . . . $ T T t . . . . . ` XX`.*.@ 9 D 5 U.&X|.&XDXDXDXmX-X$X* . + . > =.#.V V B 7 4 4 # e N N B z > . . . . y J.F.G.:X:X:XmXnXlXU.o.S.T . . . 1 k k 1 1 1 1 . . . . . . + k k < + > z u < < > & - & % # # @ @ 5 0 - > 2 o . ; / / W r X { mXnXlX` . . & z k k v x k V #.#.#.m N b 6 w w # @ @ X @ @ @ @ # @ % x e 4 5 l Z x x z 7 # 4 t V X.C C m x m m m m x k k x 7 5 8 8 5 t f x z z k f f f u 1 2 O - > O # 6 q D 9 8 p ] C =.=.#.;.b 5 X . . . . +                                                                                                                                                                                                                                                                                                                                               ",
"                                                                                                                                                                                                                    V + O Q  X}.I.Z.Z.D.T t # y }.}.}.'.H.H.S.~ o.~ T ~ ~ Y Y Y U +.G.G.A.*XzXzXlX;X;X&X`.% . . . . . . . o . . . . d J.G.A.> . X 1 Z v x z z v 2 . . . . . * +.! y `.:X@.o + . . j U r Q `.U.{.HXJXJX>.. . - >.=.N i 7 # X . . ; T t . . . . . . . W XXQ X 8 9 4 O. X X&XAXDXDXmX.XL.. . + . 1 -.=.C V V r # # # * m Z V z + . . . . $ V.V.S.-X-X-XnXAXnX`.o.C.O.. . . > 1 1 2 > > < + O > X . . . . . > f m v , - * * & - & @ # 4 @ X 5 6 & = 2 . . e / / ! d # %.mXnXkX- . . 1 m k k V C z N #.#.#.N m g 4 w w # @ # @ X @ @ # # % z C v 4 7 m A m m b i 4 # 4 M =.C V k k x B N N n k f l 7 5 8 5 i N z k z z k k f 1 f f < O > > * 8 8 5 D 9 5 i V B #.$.>.,.b @ + . . O 1                                                                                                                                                                                                                                                                                                                                                 ",
"                                                                                                                                                                                                                            O.! d / +.O.O.@.O.O.Z.Z.Z.@.+.+.Y Y T r y T r r s y t s +.S.~ K.XXXXU.&X$XD.I.#Xi.r.*.&.E.%.. . . s T U P.*XdXdX2 . O k Z x x x z x 1 + + O + > u ; . . r O.o . + . o e y r U O.O.@.*X;X:XXX*.+Xi.1 1 > @ # @ X @ @ % t 4 @ & & - + . . i O.t @ 5 9 8 Y A.G.I.;XzXlX;X=X$X&.> . . 1 #.C C v i 4 # $ e g N V V > . . r Q y W `.{.$XbXnXmX*X*X%XO.t U s . . + f z z 1 1 f z f l x 2 O + . . O 1 x N z u u i & X & % 4 q F q 0 0 # X $ % $ O , r e y s 7 R $X=X*X&.%.%.< x x l v x k c m #.x u i $ @ 7 7 # # # # @ X @ p i b B m N u i x x x i 6 6 4 # e m V V m k 1 k m m x k < < < # # 4 7 z k k k k k 1 < 2 > < 1 > O & $ 5 8 8 5 F H i z c m b p g b r . .                                                                                                                                                                                                                                                                                                                                                         ",
"                                                                                                                                                                                                                            . . o Q T U Z.H.I.D.T / / y r y y U s . . $ . $ t e % t I I T O.o.( ( G.H.C.XXAXnXmX;X;X:X#X. . + Z.H.C.*XJXJXFX< . & k N x x x x z 1 2 2 1 1 k c + + O O + O > = > > . . $ r t % 4 J. X X-XnXAXkX. . . @ @ X X # 4 4 @ # 7 , < 1 + . . j s X X D D 9 T ~ ~ O.|.&X X-XmXzXzX` . . 1 C V V i # # @ u m m m N N + . . I F.o.I.-X-X:XHXJXHX$XF.G.d . X X . . 2 m m N x z x x x N N 1 = O O > < 1 m m x z k z , @ @ 4 9 D G G K F 7 X @ # ; 1 1 . . e s t I I.I.U.&X&X-X%.O m x k k z l z m l @ @ @ X X @ @ # 4 4 % @ i #.V V m N x k k k c z 7 5 4 7 i k m x n x k k k z z z , X @ @ X # @ e k k f k k k < > > > > > & & @ # 4 8 8 0 w p C N l V ] 7 X # @ + .                                                                                                                                                                                                                                                                                                                                                         ",
"                                                                                                                                                                                                                            o o ; T T y @.I.D.A./ O.O.I U I I I t . . . . . % r e y ~ ~ ~ +.+.@.+.F.H.F.$XAXmXmX;X%X;XE.. . . o.J.V.@XJXJXbXi . . 1 x x x x z l 1 1 2 1 S k u + . . = > O O = > = . . . t U t y J. X>XzXJXDX@X. . . @ # @ X X # 4 4 4 # - , , . . . o o . . D F q T @.o.A.&X-X X&X:XzXzXb . . > V C C 7 # # @ k v v N V N + . . d V.( S. X X-XDXJXJX$XT.T.! . $ X . . > x m N x k z x z z x 1 O O O > 2 1 x m n k k z e # # # # 8 G L G G w @ @ # > 1 2 . . r s e ! `.[.`.{.%X&XW . - k x z x x l v l @ # @ X X @ X @ # 4 4 # i N N N N m x z k k k z 7 4 4 i k f z x x x k k k z x z & . . X X @ @ > k k k k k k 1 > > > > > - @ X @ 4 5 5 8 6 5 b X.#.-.<., . @ . . .                                                                                                                                                                                                                                                                                                                                                         ",
"                                                                                                                                                                                                                            o X $ I / / @.D.G.@.I Q / s e r R d + . . . . . X r t e U ! ! O.Z.O.Q +.D.A.O.U.lXkX=X=X;XXXx i.g O.G.C.XXFXFXdX, . . 1 x z x x z k 1 1 1 1 k k k > + O > > O = > > O . . . e d r s S.'.}.%XAXDX+X$ % $ @ # # @ # 8 5 6 w i > , , + . . . o & X 7 w 6 y o.o.@.%X&X|.}.-XzXlXh . X + z m l 7 # # o < l v f 1 < . $ X s G.A.L.;X;X&XmXDXdXW A.[.! . X . . . + k x v x z x x v N n 1 > > > - > 2 k z l f f z t 4 4 @ X 6 K K G F 6 # 4 7 2 1 > . . ; y r R L.I.U.$X%X%Xh . . 1 x z x x l v i @ # @ X @ @ @ @ # # 4 4 % z B N m z x x k k c u @ # # i k f k z x x < > 1 z m u X . @ 4 @ X X & 1 f 1 < f f 2 > > - & = & # @ @ # w p 4 4 p ) ) M $.v X . . 1 2                                                                                                                                                                                                                                                                                                                                                           ",
"                                                                                                                                                                                                                            . . . Q I.L.Z.A.Z.R r r y o . + + . . . . . . . . . . . . . . &.%X&.% r s y U V.A.A.=XlX;X;XlXmX;X`.I.`.D.V.G.L., O O 1 z z x x x x k a f k k z x f 1 1 2 O > 2 > 2 - X . . X e t y T T Y @XDXDXbXZ.Z.K.& . X 7 q 8 w ] $.$.f 1 1 & @ . e &.K.W . . . $ d y y Z.A.o.D.zXnXAXE.D J w . . . 4 4 % X . o - . . . t Q U I.;X-X:XHXHXmX|.|.`.I F U % . . . O O O u k f m C V N C C V c k c k > > 2 1 1 1 f k i 6 4 4 # 6 J P 5 # # # 4 i l 1 < > . . . r y d O.~ @.bXFXAXi.. . O k f f u u * @ @ @ @ @ @ @ 7 6 6 e z z z x x x x z z z l k c u @ X X , f f f f k f > - - 1 k - % 4 0 w % X & > > 2 2 > 2 2 2 2 > O X o # 4 # @ t &.&.R ) [ ` H 9 t . . . .                                                                                                                                                                                                                                                                                                                                                               ",
"                                                                                                                                                                                                                            . . o Z.I.L.Z.@.T s s y y o . . . . o + . . . . . . . X . . o XX=XXXy t y t / I.A.C.$X:X:XlXlXlXlX`.D.I.A.U ~ Z.u 3 2 k v x x x x x z k x k f z x 1 < < O + > > > > O . . . + r y d ~ ~ Y vXJXHXbXC.C.o.. . . # q 5 w ,.<.$.z k f $ # X W I.L.*.. . . + r y U Z.A.( I.nXnXAXE.K P D . . . 4 5 7 X . . . o . . t U t L.-X X;XJXJXFX|..X|./ U F $ . . . O + + 1 k k N #.C V V V V z f k k > > > 1 1 1 a f t 5 5 4 4 G P L 6 @ # # i n n 1 2 > . . X r t s @.~ @.FXDXAX%.. . + f u S * @ @ @ . . X @ @ @ 4 6 4 i n x x x x z z z z z l k l l % X X 1 a f f k c a > > > > * $ # 0 0 6 % & & 2 2 2 2 2 > > > 2 > O X X # 4 # # { &.&.{ v ] ] R 8 @ . . . .                                                                                                                                                                                                                                                                                                                                                               ",
"                                                                                                                                                                                                                            . . $ Z.L.L.@.I Y I s s y X = k 2 . . . . . . . 1 1 . . X . o E.=X$XR t d r / G.D.A.G.|.%X%X;X;X;X`.U.`.A.T ~ @., O > k N v x x x x x x m z k z z 1 < , + + > > > > > . . . + e e y T T Y *XDXDXkXD.U.*.. . . @ 8 5 p -.;.$.z c k * # @ j K.K.*.O . . . o t y Z.A.V.L.lXnXmX&.G P w . . X 4 5 6 X . . g &.& . U / F P.;X-XlXDXHXmX}.|.`.d y y X . . + > O O 1 f k N ' V V V V V z k x l 2 > > 2 1 < , e 7 4 4 4 5 G P L 6 # # e N n x 1 2 > . . X e e d O.T @.bXAXmXM . . & 2 1 1 $ @ @ @ X X X @ @ # 4 7 % i z z z x x k f z z k k k x u # @ @ 2 S a f f f < - > & % # @ @ 5 5 # @ X O 2 1 2 > > > > > > > $ @ # 4 4 # @ p &.{ & . 1 M i @ @ +                                                                                                                                                                                                                                                                                                                                                                     ",
"                                                                                                                                                                                                                            . . o K.I.I.O.s U Y s r t 1 iXGXg.. X + o . . c 7.7.c 2 - . + P.$XXX, . X . e I I I ~ V.~ o.U.U.I.dXbXbX*XZ.D.Z.X . . X 1 N m v x x x v x m m m x x x x 2 O > > k k 1 O O > 3 + . % Y I U D.[.'.=XHXHXCX+ . . i ` M ' #.=.#.x x n i # # * h h h ` g . . . . $ T ~ ~ ~ D.{.[.%X;X:XE.. . . @ $ + + . . t K.! U {. X].;XHXHXFX;XlX*X/ ~ Y + . . O x k = k c 1 1 1 1 m ' V V V V V V C C V z c u - > > & @ @ # 4 # q N.N.F # 4 4 i n x z f 1 < . . . $ $ t s t W kXmXzXP.U @.@.X X # # @ @ # @ X @ 5 5 7 l k f k c z k k z k 1 f k 1 1 k c , # # @ - a f 1 - - - O X $ # # @ @ # # X . + O > 2 > O O & O & > * 4 5 5 0 5 4 @ . * $ . + . o X X . z                                                                                                                                                                                                                                                                                                                                                                     ",
"                                                                                                                                                                                                                            . . o K.L.I.O.U U I s y % c GXJXc.. . X . o 3 C 8.3.3.N O X + P.%X%.. . . . t I s U / ~ ~ V.T.J.G.kXmXmX*XS.D.L.X . . . - m N m m m x m m m N N m n m m 2 O - > k k k 2 2 1 > . . $ Y I U D.'.J.dXJXJXBX. . . v #.C =.=.=.=.m x N , # # e g g b %.b . . . . $ T ~ ~ V.H.].H.;XzXzXXX. . . . . + . . - s T ~ ~ }. X.X;XJXHXDX;X;X=X~ Y Y o . . 1 V N c x z a 1 1 < m C N N V V V V C ' V z z k > > > $ @ @ # # 4 L N.N.J # 4 4 e n x z f 1 1 . . . % $ e I 6 R kXmXmX`.V.G.Z.X X # # @ @ 4 # @ 4 5 8 w x c k k c k f k z z k 1 1 1 1 u k u # # % u k k 1 & & > o X @ # # @ @ 7 # X o O O O O O O O O O $ $ 4 4 5 8 q 5 @ X . . . . X . . . . . k                                                                                                                                                                                                                                                                                                                                                                     ",
"                                                                                                                                                                                                                            . . o @.L.L.O.y U I U y @ O aXLXp.. . . 3 s.y.x m.8.:.N . X + P.P.X . . . . r Q I Q Z.o.~ O.'.[.J.kXmXmX*XC.G.D.$ . X + . > B V m v m m N N N N N n x m 2 O > < k k c 1 2 1 > o . & ! U s D.].H.*XKXJXNX+ . . > C #.=.=.=.>.N x x & @ X * b b b ` g . . . . % ~ o.~ A.}.}.[.%XlX:XE.. . . . . X . W XXW U T Y H. X].lXJXHXmX;X:X;XO.( ( X . . < N m x x x k 1 1 < v C N N V V V V V C V c c S > 2 * # # # # 4 D P N.N.J 4 4 # * A x z 1 1 < . . . % e r I y R kXmXmXXXo.F.D.% # 4 # # 4 4 # 7 6 4 6 e k c k k 1 1 f z z k k u 1 a f f k , # 4 i k k k a - & & & & @ @ @ @ % 7 @ $ = O O O O O & & & O @ # 4 4 5 q D @ . . = 1 1 1     > > >                                                                                                                                                                                                                                                                                                                                                                         ",
"                                                                                                                                                                                                                            . . o @.Z.+.U y U U % X X . k >.2 < z u a.5XoX6.:.c 2 2 O + + h , . + . . . o e e r R h h d I o.T P.XXU.XX=X=X*XP.L.I.Q . X > 2 O = k 1 > z V N m x x m z k k k m V V f 1 f > X . + R R s I / I P.;XkXbX#XP.*.e Z 3.:.=.#.#.l u i * @ i M M ` M > + . o . . o r d d R K.+.U &.%X;XXX. . . . X . I I.XX@.Z.G.D.dXmXmXbX;X;X{.O.P.*.% t % 2 1 > m -.#.' #.$.V k f k k z x N V V V B V C V N Z x , * # # @ @ @ 4 F ^  .H 8 8 8 5 e m n z < 1 1 O o + o o e T I Q {.$X[.%XdX;XXXo . X % 7 4 4 4 7 7 , k k k k k 1 1 1 a 1 1 1 1 f k a < < < $ # 4 7 g u e * $ & & & @ @ X @ @ # @ @ @ = = O + O & & & & $ 4 5 5 8 q D 6 X . 3                                                                                                                                                                                                                                                                                                                                                                                           ",
"                                                                                                                                                                                                                            . . o O.Z.@.I y U d . + . . . . . N N C <X3X<X3Xv.1 . > > O O . + O = . . . . . . . , i , i t # % O.Z.o.XXmXbXlX&X|. X@.. + . . . . . . . < V N m x z x x x z x V C #.z 1 a > . . + R W R r r 4 @. X}.&X:X:X:X*.3 Z =.=.#.#.i e * % X b #.M #.B + . + O . . . . . . . % # . F M.Y.K.. . . . . . Z.`.A.I.`.H.'.FXJXJXbX}. XH.F F y . . . f x k #.,.,.;.-.;.=.z k z k k x N C C ' V V C V V V N i 4 # @ X X # 4 F N. .5 5 q q 9 7 > 1 f < < 2 > & + . . % Q I Q [.T.C.*XAXAX@XX . . * 7 7 # 4 7 ; k z c f 1 1 1 1 1 1 2 > 2 < f c k 2 > > $ # 4 4 e % 4 4 4 $ & & @ @ X X @ @ @ @ # & = O + + X $ $ & $ 5 5 5 q w 4 X X . >                                                                                                                                                                                                                                                                                                                                                                                           ",
"                                                                                                                                                                                                                            . . o O.Z.Z.Q y U s X . . . . . . z k z -.oX0X,Xc.>.> 1 > O + + O O O . . . . . . X i i ; ; y t t @.L.D.L.lXmXzX|.].|.U . . . . . . . X . O V V N x z x z z z x V V C k < 1 - . . . W W W s s y P.&X|.|. X-X&Xg . . 1 ,.:.-.p t e . O N V M p i + . . . . . . . . + . X 4 7 w ^ M.y . . . X t . / J.C.F.J.J.G.FXJXJXbX X&X{.T Y T o . X f z u C ,.;.;.#.-.' k f k k x m B C ' ' #.' C C V B m g i @ X X @ 4 5 5  .^ 6 4 q q 5 X . . + < 2 > O O + . . $ Q ! Q U.[.T.=XbXmX@XX . . $ % % @ @ # u c k k f f f 1 1 1 1 2 > > 1 k z f 2 2 2 - @ # # % & * 7 # @ o $ # @ X . X @ @ # # $ O + + O - X X o $ 5 5 0 F 6 X . . . >                                                                                                                                                                                                                                                                                                                                                                                           ",
"                                                                                                                                                                                                                            . . + O.@.O.d $ t e . . . -.6.1 x 7.=.x f ' j.6.C 1 > 2 > O + + O O O . . . . . . + & - . X % % $ I +.+.T P.#XXXU.J.H.*.%.O.; j O.Q ; . . . 2 1 u x x x x x x N C #.#.f 1 k < O + + ; i i r r t Q I.I.'.;XzXkXb . . O b ` b e * $ . $ g h y 5 7 + . M oXy.. . $.OXxX#.o y Y 0 % G &.*.i % Z.J.o.P.*X*X$XXX%X*XlXbXmX$XI.}.L.r r e . . . v C m =.:.-.-.-.-.' z k k < O 2 N #.-.#.m #.' V V B m 1 > . X X $ @ X 5 L 6 X @ 4 0 4 X . . . + + . . . . . . e Y I ! @.A.A.*XmXmX#XX . . $ 7 * X $ * < f k k 1 2 1 2 2 1 2 > 2 > > 1 1 2 > 2 2 * 4 7 % & & & * @ @ @ # @ @ X . X @ @ # # i m - o z V , X $ 6 D D K w X .                                                                                                                                                                                                                                                                                                                                                                                                   ",
"                                                                                                                                                                                                                            . . o T ~ T t . . . > O k 4XrX<Xk.a.7.1.=.V V k o O > > > 3 O O O O O O O > O O > 3 . . . . . . . r U U U F y U Z.A.o.{.-X-X`.XX&X&X%.. . . . . . k n x v v #.=.#.-.=.z k z f < < > . . . % t e y ( ~ o.FXJXJXk.. . @ 5 6 # X X . @ 4 4 5 0 w 6 . . r.HXJX2.M bXJXJXvXwX*XV.q . %.;X;X$XA.|.[.H.kXDXFXmXmXDXDX%X}.&XD.( C.o.o . . . . . m 4.5.1.-.-.-.-.=.' Z Z x + . . 2 ;.-.1 . c #.C B V z . . . . X X X X @ 4 X @ X X @ % $ . . . . . . . . . . $ U Y s U +.+.~ #XAXnX@XX . . % e e - > > 2 1 1 1 2 = = > > = O < f 1 > O > & O & & 6 D w * O O O $ % # # 4 # X X X @ @ @ # % M #.M M M V M 7 6 F J G K @ + .                                                                                                                                                                                                                                                                                                                                                                                                   ",
"                                                                                                                                                                                                                            . . o Q O.o.r . . . . X 1 x.7X5Xl.y.j.f.#.=.;.N > 2 > O O 3 O O O O O O O O > > = O . . . . . . . d T Y I T Y T Z.A.o.`.-X&X&X&X%X%Xh . . . . . . z N m B #.-.#.#.=.=.z f k 1 > > O . . . e y t I A.V.S.DXJXJXs.. . . 6 6 # . . . X 5 5 0 p p p . . X gXJXDX*XzXHXHXDXAXDX*XY P.&X%X%XZ.( [.H.C.XXbXbXbXDXHXDX;X%X&XU.V.G.Z.$ . . . . . 2 5.5.1.1.;.-.=.-.=.Z c = . X X + S 3 . + . a ' N k + . . . . . . . @ X . X . . X . . . . . . . . . . s r X X d T R s / +.~ *XAXnX*X. . . % e * > > > 2 u 1 f 1 = > > > = 2 f u f < - > > O & $ w D 6 & 3 O o $ $ @ # 4 # X X X @ # # @ # M M M M M #.M 0 0 F w % # . . .                                                                                                                                                                                                                                                                                                                                                                                                   ",
"                                                                                                                                                                                                                            . . + T / / y . . . f m > 4.<XOXx z s.=.O N C 2 O > > . + = O O > > > 3 O O = O O O . . . . . . + r I s U I U U O.@.o.L.%X$XU.$X%X`.- . g %.g X . k m x x #.;.=.#.=.#.z k z 1 & O O . . . ; y r I S.o.@.bXFXDXi.$ e ; X X X X X X % 0 5 6 p p e . . . wXHXDXlX*XFXFXmXmXnXbXG.}.|.}.A.Y Y G.'.F.U.kX*XkXmXbXbX%X{.%XZ.T +.! . . . . X . O V k 2 =.,.k k =.' 1 . . X . o . . & O + . . a = . i h M > . e *.e . . i wX] . . . $ ) ; . . ; W W W U.L.r X U T s r O.S.~ #XbXzX#XX . . $ * - > > > > 1 f f 2 > > > > > 2 1 f 1 > O > > $ $ $ 6 6 $ O & $ $ $ X X X @ @ . X , $ # 4 @ i M M M M ] M g 4 6 w @ . . 2                                                                                                                                                                                                                                                                                                                                                                                                       ",
"                                                                                                                                                                                                                            O . . $ o o e $ . $.+XOXs.;.1.3.c + 1 1 O + > O 3 O O O O O 3 > > 2 > > > > > O = = 3 O O + O > > o X . o ; X + j R s R Q T Q L.L.Z.*.XX*XlXlX#X. + O O . - #.;.=.-.;.' N N u $ & & . . . . $ U U s r r I.lXHX;X$X=X`.X . . D L G Y ! R 6 5 4 7 O . . $.dXDXvXo.Z.Z.A.lXzXlX}.J.F.H.H.J.F.%X;X=X*X*X=X=X$X{.$XA.o.o.r X X . . . o r r e X . . . . O . . . + . % XX&.. . . i %XP.@ F E $ o *.&XlXmX#X/ {.&XK.U Y @XJXLXgXh # (.;X*X&.@ K.U.P.P.(.XXK.F Y T y s L.L.+.I.%X&XP.. . . O - - > > O > > 2 2 > > > > > > > > 2 > O & > O @ @ $ X + + $ @ @ @ @ X X X . . . g #.b % # h <.#.#.#.;.M % # @ @ X . . .                                                                                                                                                                                                                                                                                                                                                                                                         ",
"                                                                                                                                                                                                                            + . . . . . $ t ] OX2X!.Q.3.C :.Z > 2 1 & + O O O O O O O O O > 2 > > > - > > O 3 = > O O O O > > . . . . . . . s R U ! Q I Q P.L.@.Z.%XlXlXlX;Xh . . . . . k ,.;.;.:.C m m < @ & & $ X . . + I I y r y [.AXJXlX&X-XXX. . . F L / / Q Q H 5 5 7 O . . m @XJXvX~ ( ( A.zXmXmX$XC.F.J.[.H.H.;XlXlXkX*XkXkX}.}.%XL.~ V.s . . . . . o r r s $ . . . $ 7 . . . X y D.mXvXi . i XX;X&X( P P &.$X&X-XmXAXmX%X|.|.`.D.C.vXJXJXJX .K %XlXlX$XG L.U.P.P.(.XXP.U Y T U s L.L.@.`.%X&XP.. . . O > > < < O O > > > > > > > > > > & & > > > > & @ @ $ X X X X @ @ @ @ X X X . . * ` ] #.b h $.$.$.$.-.' 7 4 # @ X X . . .                                                                                                                                                                                                                                                                                                                                                                                                         ",
"                                                                                                                                                                                                                            . . . . . . & u.OX!.2XoXz.C N ;.1 . 2 O . + O O O O O O O O O > 2 > > 3 O O O O O 3 > = O O O = > + X . . . . + R W R Q Q ! ! K.K.K.@.L.;XlXkXlXE.. . . . . + =.1.1.;.B v x , @ $ & % % X + + U I y r y H.;XHXlX%X&XK.. . . w K.U.+.Q O.y 5 5 7 O + . M +XKXZXV.V.V.D.lXnXnX`.C.D.C.D.F.C.*XlXkX=X*XlX=X[.[.{.L.( Z.s . . . X . . * Q A.s & . $ ^ M.5 e @.S.J.;XAXHX^.7 U.&X&X&XA.P K XX-X|.&XAXnXmX;X|. X`.A.G.bXJXKXFX_ 4 (.lX=XU.M.U.XXXX(.U.XX&.U Y Y r r Z.A.@.U.%X&XP.. . . O > 2 1 1 > O + O = = = > + O > & . O > - > > & @ @ @ $ $ X . X @ @ @ $ X X . . - M M ] ` $.,.;.#.m #.u # 5 4 X X . . 2 >                                                                                                                                                                                                                                                                                                                                                                                                         ",
"                                                                                                                                                                                                                        p.C . . . O 1 > 3.3Xk.j.s.3.=.. O 2 . . O O + O O + O > O O > > > > 2 1 > - 2 < > - > - O & * # % & & & % % X + 2 > ; ; & r R s r R Q Q O.O.O.XXlXlX=X#X#X#XM . . > z ;.:.' V B k > < > @ # # + . $ i W R W U.[.{.;XmXzX#Xy X 7 P.XX`.K.F w 4 5 4 , > . . M u.x.wX$X~ U Y Z.P.P.F.J.S.~ o.C.G.*X;XlXXX@.K.L.I.D.A.! e r $ . . % Y F U I.%X|.`.I./ L P P ^ U.[.G.=XzXmX*XY.M.Y.Z.U.L.( P K ^ U.{.$X%X$X$XU.K.A.+./ +.XXlXlXlXK.8 w K.+.q I / O.O.P.XXXXK.Q / y $ R XXXX(.U.`.$XK.. . . > > > < < 2 O . > = O > > O O > - O O = O X & $ @ @ @ $ $ X X X @ & 1 k & X X b M M M M e ; b $.< . & + X @ @ . . >                                                                                                                                                                                                                                                                                                                                                                                                               ",
"                                                                                                                                                                                                                      O . . . . . k n n 6.z.k.s.N A N - . . + + + O = 3 O O > 3 O O > > 2 2 2 < 2 < 1 1 1 2 2 > $ % 7 % # # @ * 7 7 * > 1 2 . . . . $ e r r r r Q O.F P.zX;X;X:XzXzX&.. . . . k :.=.#.#.m f c a @ # # X . . > ` R Q `.T.J.=XHXDXbXS.Y F U.XXXXK.8 5 4 4 # 1 = . . M u.$.+X*Xt % y ~ Y Y G.G.S.o.D.{.|.=X=XlX(.Y Y ~ @.S.A.y . . . X . y ( Y K.&X%X&X%XT.N.G G K ( U.A.Z.%X;X=XC.M.C.V.( ~ T / G F ( L.U.U.D.G.Y.( J Y T ~ T ~ %XzX=X/ D 8 8 q q w G G G P.XXXX(.O.O.j $ R *X*X#XU.I.{.K.. . + 2 > > > 2 2 > > > > - - > > > > > > - > O X @ @ @ @ @ $ @ @ @ & < 1 f a 1 & ` $.] M V f X # 4 - . . . . . . . o . 1                                                                                                                                                                                                                                                                                                                                                                                                               ",
"                                                                                                                                                                                                                    3.. . . . . . k k k ;.s.j.j.V Z =.k O O + + O O O O O O 3 = O O > > 2 > > > 2 < < < < 1 1 1 * % 7 % @ @ @ % % % , 2 2 > . . . . . . t U U U / O.T P.zXlX;X*X*X;XW . . . . 1 1.=.#.V m k c f 7 4 # X . . O h R Q [.[.H.lXDXDXbXS.o.F K.$XXX/ D q # # @ & O . . M u.2.+XE.@ @ y o.~ ~ A.F.S.S.%X%X}.;XlXzXXXT / o.Z.Z.D.d . . . X X @ Y Z.Z.{.%X$X+.^ G F G G L O.+.@.C.G.J.J.C.V.S.+.~ O.I w q ( G.U.U.U.U.K.( ( ( ( Z.Z.( Z.U.Q D G F F F G D G P P L.$X$XP./ O.R $ R #X#X#X`.I.{.K.. . . > 2 > > 2 2 > > > > - = > & & > > - > = O @ @ @ @ @ # # # # @ & u f < > < ; ` $.] M v O X 4 4 @ o . . . . . . . . >                                                                                                                                                                                                                                                                                                                                                                                                               ",
"                                                                                                                                                                                                                    k . . 1 7.N f Z N V ,.x k #.1 z C 1 O O O O O O O > 2 > = = O O > > 2 2 2 2 < < < < < < 1 > @ # % % # @ @ * * * 2 2 2 > . . . . . . O t r s Q Q ! Q U.$X$X=X=X;XW.8.p.5.. > B C n O < m n x e 4 # @ X . o e r j @.Z.+.#XzXzX*XS.S.+.W &.P.^ 9 4 @ & & > & . . g 2.2.E.E.I s U o.o.~ o.F.C.D.}.}.[.XXXX*XP.I I Q Q Q / ; X @ # 7 # @ K.$XL.L.`.L./ T Y F 6 % y O.O.O.@.A.@.+.A.C.+.! ! Q y w w F Q K.U.U.L.^ ^ E H / Y.Y. .G ( G y w w t 0 F D G F 0 / P.K.Q ! W r X y (.XXP.L.XX%XP.. . . 2 2 > + > > + o & O + O - O O > O @ & & @ @ X X X i t 4 4 7 i , f z u - * 4 4 b ] - . . X X X X . >                                                                                                                                                                                                                                                                                                                                                                                                                               ",
"                                                                                                                                                                                                                k . . + . #.1Xj.y.1.1.y.N o O + . . - O O O = > > O 2 1 1 1 > > O O 2 2 2 2 f f 1 1 1 1 2 % e % @ @ @ # % % % > > > > 2 2 > > > > + . . . . . e R d y R / Y / *XlX;XAXJXJXvX. . . . . . . < C X.7 4 # @ % 7 $ . . X y y 4 L.&X|.[.I.U.U.$ . q F # X X 1 k u - . . o 2.i.E.XXI.D.Z.S.S.S.A.C.G.|.}.[.}.Z.+.Z.! y U d . . . # 5 6 0 0 # R $X$X`.I.L.I.+.Y Y t . . e *.*.O.@.*.O . ! @.y h U y r w 7 . . e O.%.%.%.i + + y Y. .* $ ^ ( 7 . . . X 0 F % . X 0 F 0 7 r % $ X t A.D.o.P.@X*XE.. . . 3 < > + + + + + + . + > > > + + + $ @ @ @ @ X . , M ` w 6 ` ' M M M M ; # 5 5 4 $ . . . . . . .                                                                                                                                                                                                                                                                                                                                                                                                                                   ",
"                                                                                                                                                                                                              p.. . . . . x d.6.3.:.4.p.;.O > > O . + & O + O > > = > 1 1 1 2 2 O O > 2 2 2 1 1 1 u u 1 - # 4 # # # # # % % & 3 > > > 2 > > > > > + . . X + . * W R y I +.T O.;XlXlXmXHXHXqX. . . . . . + . z z 4 4 # # % 7 % . . X U U y `.-X&X{.G.H.U.e X # # # @ $ u f u . . . g i.i.E.`.C.F.G.V.S.S.F.J.{.%X{.}.`.Z.Z.Z./ U T y . . . # 5 5 5 5 @ F Y.L.U.U.U.`.O.I I % . % W *.%.*.&.%.. . o e . $ j h r X . + . . - [ %.` S O X 7 F o . . X t % X . . . X 7 o + + % U e $ r r % X % S.G.D.XX#X*Xi.. . . O > > O . + + o + . . O > = + + + X X @ @ @ X - b b b b ` ;.#.' ' ' g X @ 4 5 # . . . . . . . +                                                                                                                                                                                                                                                                                                                                                                                                                                   ",
"                                                                                                                                                                                              x               x . . . O + > 7.3.:.=.:.y.C . O > O + 2 2 O O + O - > > > 2 > O > > O = 2 2 > > 1 f u u < $ # 6 6 # # # # % & & > > > > > 2 2 2 > 2 O . + + . . + h R d U O.T / *X;X;XlXmXAX4Xa z . . x +XwXj . $ 7 # # 4 4 6 % . . X y y t P.&X&X}.H.'.U.e X @ @ # # * k l 1 . . . %.+XE.XXI.F.D.Z.o.S.o.C.|.%X|.}.`.A.Z.Z.Z.O.U ! r . . . 4 0 5 4 4 4 p  .N./ O.`.I.I y y X . @ W i > ` &.g . . . . . . - h ; . . + X . . h ` b V u X @ . . . . . . X X . . . . . o % $ X 7 . . ; ; $ o % ~ D.G.XX*X*X*.. . . O > O . + + + + + . . . O O & . + + X @ @ @ $ g b g b b b ] ;.;.$.< . . . $ $ . . +                                                                                                                                                                                                                                                                                                                                                                                                                                               ",
"                                                                                                                                                                                          ' + . . Z     z 1 2 . . . z :.#.C 8.3.:.1 1 z = . 2 k 2 > 2 > > = O O 2 1 2 > > > > > > > 1 1 1 2 u f f u i u e 5 K F 5 4 4 % u a 1 2 2 2 > > > > > 2 2 2 > 2 > . . . o O + R Z.@.O.@.@.+.U.&X}.$XSXGXuX#XbXAXAXwX- . . . . # 4 % $ X X . . . . I S.+.L.%X}.+.X @ @ X . . > x v > + , , #XlX;X&X X X-X[.C.C.F.{.=X=X`.A.A.A.~ T ~ r X X . @ # 4 D G D G  .N.^ q D q 7 s r X . . . . . X + 1 k > 2 k k 1 2 2 > > , o o O + . . . w H H H w @ @ X X X . . . . . . . . . X w G F % X . . . . . . $ / O./ XX*X;XE.. . . + & O . + . + O O O + O O , f > > , X . & b ` M b h b p 4 7 g #.u . . . . . . . .                                                                                                                                                                                                                                                                                                                                                                                                                                                 ",
"                                                                                                                                                                                          k . . . . =.>.. . . . . . m 1.=.;.1.4.1.2 > 1 2 > x k O O > > 3 O O 2 1 1 2 1 1 > > > > 2 1 1 1 f l k k u u , 7 D D D 5 4 4 i a 1 1 2 > 2 2 2 2 > > 2 2 2 2 2 > . . . . . . Q A.Z.Z.O./ ~ @.$X|.=XHXJXHXnXnXAXmX&.. . . . . X 4 $ X X @ X . . . I V.~ Z.{.}.L.$ @ @ . . . > z > . f l 1 XX;X&X&X-X-X-X XS.S.G.&X&X;X$XS.A.A.~ Y ~ r . . X 5 4 5 D G K M.B.N.^ 8 9 8 % X . . . . . . . . k N x 1 k x x z f u 2 > > & > > O . . % 9 F H w 8 @ X @ @ # % o + . . . . . . X F G F % X X . . . . . $ / O.T XX=X;XXXX . . O & + + . . + O O - - - - , g u u i * @ i $.] ` b h i % 5 5 4 $ . . . . O = .                                                                                                                                                                                                                                                                                                                                                                                                                                                     ",
"                                                                                                                                                                                          z . . + o . . . . . . . . z 1.#.;.1.6.:.> 2 1 1 x m k O + O > > O O 2 1 1 2 2 2 > > - 3 > 1 1 1 g l f f u i % 5 9 D w # 4 e < < 1 1 2 > 2 2 2 2 2 > 2 2 2 > > O . . . . . + Q S.S.S.+.O./ y O.%X=XHXHXHXlXmXAXdXX . . . . . . @ X X X X X . . . I Z.+.S.U.}.I.X . X . . . O : . . , f - P. XG.I.-X-X-X'.o.S.D.%X&X-X$XS.A.A./ T ( y . . X 5 5 4 D K K  .N.M.P 8 9 4 . . . . . . + + . > N x n m z z z z k k < - 2 > , < O $ * # 5 h ` w 5 4 @ X @ # * - O . . o . . . X F G F # . X . . . X + $ Q O.T XX;X;XP.. . . + + . . . . o o O o - & O , u u f & % e i ` $.` & ; + . % 0 5 @ . . +                                                                                                                                                                                                                                                                                                                                                                                                                                                             ",
"                                                                                                                                                                                          z . X O.@.$ . . . . O k n =.7.y.;.> k 1 . + u 1 z m k > > > = - - 3 > 2 2 - - > > > 2 2 > < f k g f k f w 8 4 5 0 h b g l f 2 1 1 1 k c z k < < 1 < > > 2 1 2 & + + O . . . O.}.[.`.L.K.K.y @ W *.XXXXXX;X;XlXbX8X6XOX*.P.P.; . . . . . . . . . 7 U s y Q @.Q % % @ . . . . . . ; @.S.V.*X;XH.J.[.}.].S.~ S.D.A.P.P.O.y I I $ % r $ . . . @ @ @ q D q D M.N.N. . .w . . . . . . N =.V V C V V V B V z f k k k u 1 , ; * 6 ^  .p p ) ` p 5 w ; & > > > > > O O O X X X # G J F 6 @ # . . + . . % &.*.Y U.=X%XL.. . . . . . X O 2 + O B l B M 1 v M v M u * 7 X - < O . . . + o $ @ . +                                                                                                                                                                                                                                                                                                                                                                                                                                                                 ",
"                                                                                                                                                                                          z . X Z.H./ e + . + C 3.8.4.6.s.1.+ . . . > z 1 1 k 1 > > > > = > > 2 > > O - > - > 1 1 1 k z l l g k i q q 4 6 b m v N N x 1 1 f z m m N k 1 1 1 < > > 2 1 1 2 > > > . . . *.>X X&XU.I.U.W % @ r o.o.( &X:X&XmXJXJXHX-X-X-Xj . . . . . + X . . $ % $ % r r r t % X . . . . ; $ d H.J.J.kXHXmX%XJ.J.J.A.o.Z.D.O.Y T I % % % . . . + + . . . . . 0 D 5 0 N.B.B.(.).E . . . . . . #.3.;.=.#.X.C V C C k 1 f f k l k ; 4 4 F  . . .) ) b w w i < < 1 2 > > > O O O X @ @ 4 G G F w 4 4 @ . . + . ; E.E.&.XX=X%XL.X . . . . . + 1 1 a C ,.#.C ' $.;.$.V m B i # . . . . . . . . + . . .                                                                                                                                                                                                                                                                                                                                                                                                                                                                   ",
"                                                                                                                                                                                          z . X @.I.I.Q . . + =.:.;.3.p.s.y.2 O o 1 N z 2 = - O > > > = = 2 1 2 2 > 2 1 > O = > 2 1 z z k l l i 0 q q 9 y m v v x x z 1 2 k m x x x k 1 1 < > > > 2 2 1 2 > > O . . . O. X.X|.U.L.I./ t r ! L.A.A.;XzX;XlXHXJXHX|. X|.r . . . . . . . + . % r t y U s y e X . . . . . % $ X V.F.C.kXJXJXbXH.T.].A.A.H.F.+.@.@.Q t t t X . . = o . . . + + 0 D 5 H Y.(.Y.(.(. .8 9 0 . . . k ,.;.=.#.' V V V V k 1 k k k k c e 5 4 w  . . .R p $ # t i < < < > - > > O O O X @ X X D G F w 4 4 X . . + . e E.E.&.XX*X&XP.. . . . . . O 2 > z :.#.' B V #.$.M ' #.M o @ X . . . .       . . .                                                                                                                                                                                                                                                                                                                                                                                                                                                                     ",
"                                                                                                                                                                                          z . . Q Z.Z.W + $ > =.:.1.=.C 3.Z O > O k k k 2 O + + 3 O O O > < 2 2 2 2 1 f 1 O O > 1 u g l l i w w q q w w p m m v x x x k 1 z x n m x k k z a > 2 < 2 2 1 1 > > > . . . *.;X;X=XU.L.I.Q 7 t y O.@.@.XX=X%XXX*XkXkX=X:X;X%.g %.h X # $ . . . @ 7 % t s y r $ . . X e $ % T T W U.$X$XlXHXnX*XF.H.H.o./ A.+.I Q O.R $ ; ; . O > > > = > X + + 5 9 4 0 ^ N.Y.K.Y.K.G P P % X X , V N V =.=.V m m m k k k k f i r 6 5 4 H  . . .E % @ 7 < 1 < 1 1 < > > > O O $ X @ @ @ F J D 4 # 4 $ + o + . % &.&.O.P.$X$XP.O . . + O o < k z B =.#.#.m v ] g . u ' - . X . O > O                                                                                                                                                                                                                                                                                                                                                                                                                                                                                   ",
"                                                                                                                                                                                          z . . r W R y e y ` :.:.3.k o 2 O O = O > > > > O O O - O O O > > & > a f f f 1 1 1 1 f g p h g w 9 q q 0 h v m m m m x m B N x z x m m m m m m x k k z a 1 1 1 2 2 2 + . . u.HXHXFXI.D.I.y . . X . . o s U r I Z.Z.D.FXHXAXlX&X;X$X6 D y . . . . . . X t e % . . . y ~ Y o.].H.`.AXDXDXlX&X XI.Y ~ o.~ y y y + . X . . . + 2 k 1 k k k k . . . X X . @ 8 8 J N.N.M.M.M.M.J D F 4 . . > ;.;.C k u k k k k z e 5 8 8 9 H } } }  .} 0 5 i 1 1 1 1 a 1 > > > & @ @ @ # @ 4 L L G @ @ # * 2 2 + . @ I I y K.XX`.P.S O . x N z m #.1.1.$.#.-.u X o . . . + . + .                                                                                                                                                                                                                                                                                                                                                                                                                                                                                           ",
"                                                                                                                                                                                          x . . r W R r . i V 8.1.1.1 + 2 2 > & O > 2 < > O O O O O O > - > - 2 k f f u 1 1 1 1 a b h p 7 6 w q 9 5 h ) b m m m x x N N z c z m m m m m n m k k k k 1 1 1 2 2 2 + . . i.HXHXFXU.D.H.U . . X X . . d I y Q L.D.I.DXHXDXzX&X;XXX7 0 w . . . . . . @ r t e . . . t F 6 T H.J.I.HXHXHX:X.X X}.~ ~ o.( U U U X . . . + + + 1 1 1 k a a 1 . . . . . . # D 8 G N.M.M.M.M.M.w 4 8 X . . 3 3.1.#.f 1 f k c c k 4 5 5 8 E _ _ } }  .} 8 8 i 1 1 a a a < > > > @ X X @ # @ # G G F X X @ & 2 > X . $ Y ! y K.XXXX&.3 O . x m z C 2.1.1.;.,.:.u . . . . . . . . .                                                                                                                                                                                                                                                                                                                                                                                                                                                                                           ",
"                                                                                                                                                                                          N . . e s s t > N N V =.#.1 O 2 z 1 O - O > 2 - O O = O > > O 3 2 2 1 f f f k 1 1 1 a 1 i p % # 4 6 0 8 7 h H b m m v x x m x z x k x N m m m N m k z x k 1 u 1 2 2 2 . . . r.FXDXmXP.Z.A.t . + + X . . y U s Q K.Z.L.bXDXFX;X&X;XXX6 0 7 . . . . . . X 7 t ; $ % . e %.{ ! C.'.`.mXDXAX$X}. X{.I Y o.~ y y y X . . o 2 > 2 f k f l z k u + . . . . . # D D K  . .^ M.M.M.@ . ) i & ; 1 =.#.m f f f f , i i 4 5 5 q E E E _ _ _ w 8 6 > 2 < 1 a 1 > 3 > - X X X @ @ @ @ D G 4 X @ @ & > > . . $ ! Q s *.`.`.&.O . . l m x m #.,.#.< #.-., . . . .   c 1                                                                                                                                                                                                                                                                                                                                                                                                                                                                                               ",
"                                                                                                                                                                                    x k > + . . ; g ; l 3.3.-.k k k k k 1 k 2 O = > & O O O O > 2 2 2 > > 2 2 1 a a k z l f f u 7 4 4 # 4 # # 5 0 m m v m N m m m m m m m N m n m x N B V V N C #.m z z k 2 > > + . . *.%X&XXXr $ o . > 2 > . . . . X . $ s U U K.&.*.%X-X=X$XZ.A.+.7 4 6 X . . . . X X @.C.~ wXLXFXkX$XzXnX%X|.|.o.Y o.U . X % $ . X . - 1 2 1 k k z z x z -.3.1.#.2 > > . . . X # @ w  .N.N.L P P P.dXGX*X`.$X&.. . . k m x e # # 4 5 5 8 G G K G E E H 4 7 e 2 2 1 < > > > > - - & X $ @ @ X @ G ^ F @ @ * > > > . . $ Y Y U K.`.U.P.;.O x V x m 2 . > O . + O . . . .                                                                                                                                                                                                                                                                                                                                                                                                                                                                                                       ",
"                                                                                                                                                                                    . . . . . . , u , m 3.3.3.x k x x 1 O O O - > > = O - > > 2 2 2 2 > > - < k f k z z x z u 7 5 5 4 4 4 # # 4 w m v x m N m m m m v v m N N m m n N V V C C C C m k k f > 3 > + . . %.|..X`.- . . + 2 1 2 . . . . . . X d y s +.( o.%X;X&X%XD.D.A.y 6 w @ . . . . . $ A.C.V.kXJXHXAXzXmXzX}.]..XZ.Y Y U . . . . . . . > 1 1 1 1 k k z z X.7.3.7.:.1 > > . . + O . . 7 / }  .J K G bXJXJXlX}.&XP.. . . c B x 7 # # 4 5 5 5 F G K G E H F * 2 < 1 1 1 2 > > > > > > O X $ @ @ X # L ^ ^ 6 & 2 > > > . . X I Y F K.XX`.P.y.1 V B m k o . . . + . . . . . 2                                                                                                                                                                                                                                                                                                                                                                                                                                                                                                       ",
"                                                                                                                                                                                    . + . . . . X u u N 6.6.:.1 k V z + . + O O O O > > > 2 2 2 2 > > > > - > k k k x x n l 0 8 8 8 4 4 4 # # 8 D b n z x v m x m m z z m N m x x A N V V m m V V z f f 1 O O 3 . . . *.&X X{.r . . + 2 2 > . . . . . . $ U s U Z.Z.Z.{.-X-X%XA.G.A.y 7 0 X . . . . $ . o.C.( dXJXHXmXzXnX;X'.}.|.G.~ Y I X . X X . . . O 2 > 2 1 a 1 1 N 3.1.1.3.:.1 > > . . - , . . * ^ F 8 J G J ZXJXJX;X'.|.@.. . . z V n < * # 4 5 5 5 D G K J w # # - 1 1 < 1 1 < > > - - > > X @ @ @ X . 4 L L L t > 2 > > > X . X U U y K.$XXXXX1.2 C ' f . . . + . . . . . . .                                                                                                                                                                                                                                                                                                                                                                                                                                                                                                         ",
"                                                                                                                                                                                  V . . . k Z < f $.#.#.=.#.1 . > k 2 O O O O O + O > > - > > 2 > > > 2 < > 2 k k a 1 v b 7 8 K L F # 4 4 e i i p l x x x x x n x z z x m m v v N N N N m x m V Z x c z k = > > + + . W I.L.@.$ . & - > 2 - + + . . . . o e e r Y Q I Q I.I.O.! @.Q $ X X % r $ h L.I.@.*XkXdX=XlXzX$XL.XXI.o.Z.D.O.t $ % . . X O 2 2 - k x k z =.;.C V 1.5.;.#.=.#.k f k > ; e r y t ~ U.D./ F q 5 (.kXdXkXkXlX#X*.i.i.1 > - O 2 - % 4 4 # 4 0 F F 4 4 4 * 1 1 2 > 2 2 > > > - = O @ @ @ # 6 4 F J J w & 2 < 1 k a + . o Q Q Q K.P.U.&.> + 1 1 . . . . . 1                                                                                                                                                                                                                                                                                                                                                                                                                                                                                                                     ",
"                                                                                                                                                                            ' + O . o . - :.3.;.1.5.y.;.f k 2 O O O - > O O O = = > > > > > < 1 > > > 1 1 1 k l c < i E J D K P J 5 @ # # i x k z z z x x x x v x x x N N x x N B B N x x x V V V N m m x 2 2 1 & o + r / O.y . . 2 1 2 > - O + + . . X X . . . % % & p H y r - i + . . . d o.U L.>X X XAXJXHX;X X-X`.~ V.o.y y F $ . . . . X o > z c k ' $.#.;.y.y.q.q.4.4.;.N V V m x x g d e s Z.+.G.{.|.{.F 4 7 A.H.F.vXJXJXDX:XzXlX, . . o , , * # # @ . X 7 6 5 5 5 < a f < > > > > > > - & & @ X X 4 D D F H G F , > 1 k x k + . $ &.i.E.P.P.P.*.. . . . . . . + .                                                                                                                                                                                                                                                                                                                                                                                                                                                                                                                       ",
"                                                                                                                                                                            ' . . . X . + V =.#.;.1.y.#.1 k k > O 3 O O O . + = O > 2 1 < < u 1 & & - 1 1 1 k k k H J ^ ^ P G G 5 # # @ # i z k l z z z x x x m x x x x v x x N B B N x x x N B V N m m x 2 2 1 - $ + d +.Z.Q . . O 2 > O O O + + . . X . . . + e t ; R Q ! R r ; . . . . % T U o..X].}.nXHXHX:X-X;X{.S.A.A.Y I I e . . . . . . > z z z ' #.C -.w.w.w.4.,.1.=.x N Z x x c - y r y ~ L.lX*X{.K.0 0 0 I.`.G.vXJXJXAX;X:XkX> . . . < < * # # @ X . . # 5 5 7 a S f 1 > > > > > > $ $ $ @ . . # q 9 w H J H , = 2 k x k o . $ &.E.E.P.P.U.*.. + + . . . . . .                                                                                                                                                                                                                                                                                                                                                                                                                                                                                                                       ",
"                                                                                                                                                                            x . . . > > . V :.;.N z >.c O k 1 + O > + + + . + = O > < 1 > > < 2 > > > 1 f 1 a k p J ^ ^ J D 8 5 4 # @ % % i x x z k z z z x v m x x x x x v x N V N m x z z m C V N m N x 2 < 1 & $ X r T / U + + > 2 > > & O O X X X X . . . + e ; & r s s j $ X . ; s % t o.T Y }.&X|.zXAXmX%X&X:XXX~ Z.Z.U s s $ . . . o & & - k a 1 B #.' -.5.q.5.5.3.1.#.V #.C m m x - e ; R L.U.lX;XL.U 7 % % O.L.A.*XFXbXlX;X:X*Xb i j r i p e # # @ @ @ X # 5 5 7 1 1 a 1 2 2 > 2 > - $ # # X X 6 5 w H p R R h 2 > 2 1 1 < X . $ &.P.&.P.I.U.*.. + . . . . O                                                                                                                                                                                                                                                                                                                                                                                                                                                                                                                           ",
"                                                                                                                                                                      2 . . . . . < #.N V s.d.1.1 1 k < + O O O > > O = O 3 > > > > > > > = O - 1 < 1 f f 1 f p D F E w 4 4 5 4 4 # i z z x m m x x v m z z N m N m x N V V N N B m v x m m C =.-.C N B m , , e @ @ # # X . + a a 1 1 2 < > o @ 4 7 % @ O + O + + + + . . . . . . - A.F.V.I.[.J.`.nXDXmX;X-X&XH.`.|.+.6 F y X + . . . . X r h W j . . . C 6.4.6.6.5.7.y.p.5.1.5.5.1.' ' #.g + . %.;X;X%XK.e . + + . . o % O.G.Z.`.;X;X;X%X&X&XI.I / ! . X @ # # # 4 5 4 ; k k f 1 1 1 < > & $ % # # 4 D G F } N. .b c k 1 1 1 & . . o - t I Y I U.$X$X*.. . . . . +                                                                                                                                                                                                                                                                                                                                                                                                                                                                                                                             ",
"                                                                                                                                                                      1 . . . . . 1 C m #.k.l.s.x 1 k u + + + O > > O 3 O > > > > > > > > - = 2 1 < < k c f p F q 0 4 # 4 5 5 4 # * z z z x m n x x m m m m m m m m x m V V N m B m v m V N ' -.-.#.N N v , * e X X # @ . . + m n f 2 2 2 > X # 0 r 7 @ o + O + . . X . . . . . . X S.C.V.'.[.J.%XAXnXAX;X&X%X[.H.G.T 6 y y . . . . . . . r U d t . . . #.s.y.a.q.5.6.p.a.u.5.3.q.5.v v ] i . . *.-X-X$Xt + > + . . . . . +.J.C.`.:X;X;X&X&X-XL.y Y y . . X 4 4 # 4 t , < f k k 1 1 1 < & & & % # # F L D G  .M.} v z k 1 2 1 + . . o & e I I y P.$X$XK.. . . . .                                                                                                                                                                                                                                                                                                                                                                                                                                                                                                                               ",
"                                                                                                                                                                      1 . . . . . & V m ' y.p.6.k < z 1 + O + + 3 > O O = + O O O - > > > = > 1 < < 1 1 i p y q w 6 # 4 5 6 7 @ # % u z l z m m x z m m x x m m m x z x N V N x m B N B B N V =.-.C m N x * * * . . @ X . . + B C m 1 2 1 > $ 4 w r * # @ + O + . . . . X . . r *.i XX%XD.J.[.J.`.zXzXlX&X&X&XI.o.V.~ t r % . . . . . . X t 7 s r . . . z p.y.y.y.q.6.y.y.y.5.1.q.,.f u l i . . *.&X-X*.. < l . . . . . X @.I.A.U.:XzX:X%X%X&XP.j ! r . . . # 4 4 4 i 1 1 f k k 1 1 1 - & & & # 4 4 6 G F D ^ } b x x k 1 2 2 + . . X o % I U y @.`.XXP.. . 2 1 .                                                                                                                                                                                                                                                                                                                                                                                                                                                                                                                               ",
"                                                                                                                                                                  :.1 + . . k n 1 m y.s.3.z N z > O > > O O O O > 2 > O O + . O > 1 2 1 1 2 1 < < 1 1 * 4 w w # 4 # # 4 6 b z & @ # u m x x x x z k z z x x x x x x x m N V B N V Z V V V V V C ' C C Z u # @ @ X @ # % u , i #.#.#.z 1 a , 4 4 7 * 7 % * > + . X . . I / y Q -XzXkXzXmXmX$XJ.H.J.'.{.[.D.I.U.I r U r X . . + . . $ e ; d O.&.vXwXo . . . > > k y.a.q.5.5.5.5.5.V + O o . $ $ . ; h R i 2 1 < O + + . . . ; r ; r L.P.U.%X&X&XkXvXbXdX/ T O.% X # % > > 2 f k k 1 < 1 - $ $ % 4 4 7 w F F R { ` N z k 1 f z k O . X d s s Y O.&.(.XXXX` . .                                                                                                                                                                                                                                                                                                                                                                                                                                                                                                                                     ",
"                                                                                                                                                                  + . . . . N V z =.g.x.a.x k x 1 + O O O = > > > > O . o + O > f k u f 1 1 1 < < 2 - # 4 4 # @ @ @ # 0 H M N x i i m m m m m c k k k k x m x x n x N V Z B B V V V C C V C C C C #.B i @ @ @ # # # # 4 i b ] #.#.#.z i 7 4 5 6 7 e 7 6 * . . . . . o O.S.~ I.:X:XmXzXzXAX*XJ.H.H.H.H.H.G.D.A.d $ $ . . O o + o . r s y y L.;XHXnX`.@ . . . . 2 d.s.y.5.3.1.7.5.N + . . . X X . . . . O x k 1 = = 3 . . . . + . e o.o.S.&X&X&XlXAXnXbX@.+.@.$ . . X 2 2 2 1 k f < 1 1 - % $ % 5 4 5 G G F _ ] Z C z 1 1 z N N & . $ I I U Q P.P.XX*XP.o . . =.                                                                                                                                                                                                                                                                                                                                                                                                                                                                                                                                  ",
"                                                                                                                                                                  . . . . . k x k =.p.d.s.x z z > O O O O > > > > > O + + O > < 1 u f f u 1 1 1 > $ @ # # # # @ @ # # 0 D b N N u u m n x x m n k k k c x x x x x x N V V B B V V V V V V C C C #.x 4 5 @ @ # # # @ # 5 b ;.;.' ' #.i 4 4 4 4 4 g l 7 7 X . . . . . . t Y ~ ~ [.&XmXnXnXnX{.H.[.[.T.H.H.A.D.I.R X . X e r e + . . e y r e Z.%XHXnX.X`.t . . . > p.j.a.y.5.1.1.-.;.N . X * X . . . . . & z z 1 O = O . . . . O . r A.V.A. X-X X;XnXmXlXO.~ I . . . . 2 1 1 f f 1 1 1 1 * # % # 4 4 4 F K D R ' C N k a f N V B > . X I I s I &.&.XX%XP.& . . +                                                                                                                                                                                                                                                                                                                                                                                                                                                                                                                                   ",
"                                                                                                                              f.f.                        6.d.d.z . + z k 1 y.p.x N ' =.C = 1 > + O O O O = > = > > O + O > > > f f f u l k 2 , $ X @ @ 4 6 # # 4 4 i b p x N l , i x N n n m x z c z x x m v x m N N Z V V V N V V V V V V V C #.b 6 4 # @ # 4 # 4 h ` #.,.$.] ' X.i # 4 4 * , k < $ * $ + . X R Q y r U.{.`.;XlXlX%X=X*XD.G.A.O.A.H.S.Y O.@.; . X t U Y ! o . . % r r h U.{.*X;XkXAXkX%.Q *.W > C 5.N k 1.x > < %.K.W t X < u , 2 2 u N N x > > > + O O + . . ; / T T D.`.I.`.=X=X=XXX$XXXW d t . . - > = 1 x f 1 < * @ @ @ % # # H E H b m N N < - < k z k & $ e I s U O.@.@.K.&.j X . . .                                                                                                                                                                                                                                                                                                                                                                                                                                                                                                                                   ",
"                                                                                                                              . . 1       C Z           O . . . . . 1 ;.#.1.5X3X:.k 1 u k 2 + + O O O & > > > > = > O + > i , u l k k u f u % 4 # 4 @ 4 K D 4 # 5 p V Z N N m z 1 k N m n m x k z x v x N C C N N N N Z C C C B V C V V V V V V V #.` 7 4 # # 4 4 ` 3.;.] $.#.V C u @ # # * a 1 1 X . o + + . X @.S.o.%XzX:X:XmXnXlXT.T.H.S.o.~ I S.C.S.U U U $ X ; U ~ o./ + . . ; U y Q $X{.H.%XJXJXJX;X[.&XP.. . O . . z < . . O.|.j . O 1 m x z z x N N n 2 > > > 2 1 O . . & r t r Q T U @.'.J.`.zXzXzX{.{.@.. . . . . + 1 u 2 > & @ @ @ @ @ 4 E ) x z x m x + X . O + + e I I U y U Z.Z.Z.T % . . . . .                                                                                                                                                                                                                                                                                                                                                                                                                                                                                                                                   ",
"                                                                                                                              . . + 8.  z . . k         2 . . . . . - N N :.6X1.k z z z z O + O O O O O > > > > > > > > > i g l k f f u 2 $ 4 D 5 4 5 G G 0 4 4 8 w m N Z N m n z z m N m x z z z x x x Z X.C C N n N V C C C V C C C V V C V V B #.$.r 4 4 4 4 4 ] 8.=.) ` ' M i # # # @ , S 1 2 . . . . . . . ~ o.o.`.:X;X:XnXAXzX].].].A.~ o.O.G.H.G.! ! Q ; + % y T ~ T . . . d Y U I `.%X[.%XJXJXJX%XH.{.@.. k . . . . . . X +.I.$ . . . N V 1 f l N N z > 2 2 > > 2 + . . X % % y Q Q I Z.[.'.{.zXzXzX[.J.G.t . . . + X . > < * @ @ @ @ @ # q E b l l x m x - + O . . . t s y U I T @.Z.Z.I . . . . .                                                                                                                                                                                                                                                                                                                                                                                                                                                                                                                                     ",
"                                                                                                                            3.. % ; . . . . . . C       O . . . 1 1 x 6.3.#.C c z k k m 2 . . + + O O > > > > > > > > > > < u u f u p E y # D L G 8 9 K D 4 # 4 w w v N m m m n x x x n m z z z z m N m V C C C B m N V V C V V V C C C V C V V C b t 4 4 4 4 4 p ;.=.M H R b e # 4 # # @ - > > O . + . , %.$.i.U.C.~ K.=X;X=X%X*XXXG.G.G./ T o./ Q +./ t r r ; ; % s @.Z.Z.W j & e U I U @.U.I.I.dXvXkX$X%X=XE.1XLXv.& X ; Q O.@.L.#X, . + k >.#.x x m N N k - > > - * ; $ X . . . . $ W Q R +.G.D.I.=X;X;X`.XX%XP.; *.*.. X X O & X @ @ @ @ @ # 8 R v z x z x N 2 . O . . . X s y d y I L.L.L./ & j ; .                                                                                                                                                                                                                                                                                                                                                                                                                                                                                                                                       ",
"                                                                                                                      > . . . $ Q / % . + . . . . . . . . . . k :.#.6.3X1Xj.n z N k + > + + + . + > > > > > > > > O 2 < 2 1 1 u < * J } E G G L L D 8 5 4 4 # l m N N m m x x v m m z z x x x x x C C C C C C C V V B V C C C C C C C C C C C ' #.i 4 4 4 4 4 6 $.,.' ) H ) b @ # # # # % o . . . & r $ @.:XnXAXmXbXU.%X;X:X%X~ C.C.T U F t U Y I e e t X . . ; d e Q {.`.`.{.L.t . X t s Y Y Y ~ C.C.o.$XmXzXnXJXJXJX#XT S.}. X|.bXKXV . 1 :.>.;.:.;.#.m m x < 1 > 7 6 7 4 % # X . . . h R Q Q Q W Q U.[.J.=XFXFXbX%X-X%X& . X . . . @ @ @ # 4 4 5 b C N B k x k + . + . . . t +.O.s X y U.U.`.K./ {.P.O                                                                                                                                                                                                                                                                                                                                                                                                                                                                                                                                       ",
"                                                                                                                      < . . . e T ~ X . + + . . . . . . . . . m #.m 4.3X7X3X6.z Z 1 . + + O O . O 2 > > > > > > > > < 1 1 1 1 1 p H ^ ^ J F G J w 4 4 4 4 # e N N N N N n n m m m x z z z z x z z V C C C C C C C V V C #.' ' ' C C C C C C #.V X.g 4 4 # @ 6 E $.<.-.] ` ' b # @ # % e i O . . . o % + r J.lXAXDXDX&X&X:X:X%XC.G.Z.I T I U U I s @ @ X X . . e y 7 Q `.`.U.'.O.. . . . % ~ ~ Y / G.G.C.%XzX:XmXJXJXLXK.( V.H.[.%XHXJX$.. 1 ;.:.;.=.=.V m N V z k , # 6 6 % @ # X . . . h j R / O.O.+.[.}.T.;XAXAXmX|..XI.X . . . . . X @ @ @ 4 4 5 ` =.V m z 2 . . . . . . . r +.+.s . r L.U.I.G.H. X{.i +                                                                                                                                                                                                                                                                                                                                                                                                                                                                                                                                     ",
"                                                                                                                      z . . % y U U R h % $ $ $ $ . . . o f 1 #.;.V 1.p.j.c.N z x + . . O > > O > > > > 2 > 2 > 2 > 2 < < 1 1 i L ^ ^ ^ G G J w @ # 4 5 6 5 p n m N N v v n m m n x z z z x z k z V C C C C C C C C ' V V C ' ' #.X.C C C C p w i e 4 4 # # R [ [ $.] ` ` b 7 # # # X O + . o o e Q ! d s U.mXAXbX#XL.%X-X{.D.@.Z.O.y U d U Y I / K.@.O.; . . t U r ! I.I.I.{.`.h X . . X U Y U s @.Z.~ `.=X$X*XbXbXbXK.A.A.J.H.{.GXFX` . & 1 k C -.#.V v m V g w 0 5 5 4 # # 4 X . . & ! T Q O.O.Q W U.[.J.$XlXlX=X}. XI.e r R ; . . . X X X @ # 4 i x V z O . . ; t ; O . . ; T T d % r Z.I.h O.[.[.}.~ X                                                                                                                                                                                                                                                                                                                                                                                                                                                                                                                                     ",
"                                                                                                                      x . . % U y U @.@.O.I y U y + . . z u.y.k.j.p.#.= k k O > O . . . + > 3 > > > > > 2 1 1 > > > > ; % e t 8 G  . .H 5 F w @ @ # # 4 6 5 p N m N N n m x v x x n x x x x x z m V C C C C C C ' ' #.V N ' #.#.#.#.C C #.' 6 5 5 4 4 5 q E [ [ { J J F 7 4 4 4 4 % . . . . h I Q G.I.D.$XnXnXbXG.( Y o.V.o.T 7 y y e % X s ~ Y L.;X-X-Xr . . t U y Q L.A.L.&X:X-X*.. . . . X X . X o X t Y F ( H.J.*XHXnXmX$XJ.U.#X*Xh . X . . f ;.#.V x N b q 9 D 9 5 4 4 4 4 @ . @ T +.+.S.W r r r y s r ~ H.F.I.-X;X&X[.]. XQ . . . . . . X @ @ . . < O . . . O.U.@.o . . % I I R Q U ; ; . X $ r J.( X                                                                                                                                                                                                                                                                                                                                                                                                                                                                                                                                     ",
"                                                                                                                      x . . % U y d / / O.I y I y . . . #.y.1.s.j.y.N 2 1 1 2 O + + . . . O > - > > > O > 1 2 > > > - # # # 4 9 D J F 4 4 # @ @ # # # 4 4 4 i Z N v x n n m m x x x x x x x N N V C C C C C ' X.' ' ' C C #.' #.;.-.#.C #.=.h 5 5 # # 5 G E { _ J G P G 6 6 6 6 0 7 . . . . s T U +.D.F.%XnXnXmXI.o.~ o.V.V.~ r r % % t % I ~ Y K.-X-X%Xo . . t U y / I.L.L.&X-X-X*.. . . . . . . . . . s Y Y o.T.H.`.HXJXJX*XH.'.*XFXl . + . . k ,.-.B n N p 9 8 5 4 # 4 4 @ 4 @ . r ( o.o.o.s $ e r t t @ / T.J.H.-X;X-X].]..XI . . . . . = < - . . . o + . . o P.{.`.; . . $ Y I U ! r . . . . . . y o .                                                                                                                                                                                                                                                                                                                                                                                                                                                                                                                                     ",
"                                                                                                                      z X . X y U s T Q Q r ; r i 2 > 1 5.y.5.;.V B z < 1 k 2 O O + + . . O > > > > O - 1 1 > > > > $ # # 4 0 q D D 8 4 4 # # # # # 7 7 e i z N n x x n m x x x v x x x x N Z B V C #.C C #.#.X.V C ' C C C C C =.#.V N V C i 4 5 # @ D G _ } E J P P D 6 0 6 % $ & o $ ; r @.Z./ L.`.`.U.XX*X*X+.Y ~ T T o.T ; X . $ % o I V.( P.lXmXkXo . . $ y y ! A.Z.L.lXzXzX*.$ j - . . . . . . . s U s / G.G.Z.*XkXdX*X=X*XlXnXE.j + . . k -.C m m p q 8 8 6 X # q 8 5 5 @ . t ! L.G.D.! r U U % % @ I Z.o.A.|.%X%X{.$X|.! j W o . . O O O . . . + r r % s U.`.$XW e d s T I I Q s . . . . . . :                                                                                                                                                                                                                                                                                                                                                                                                                                                                                                                                         ",
"                                                                                                                      n . + % / / ! U s U $ . . > C V =.y.q.y.C m V V k < k > + + + > > & > > > > = > 1 1 1 1 > > 2 - % # 4 q D D q 8 5 4 # # # 4 4 7 v N N n n m m x n x x x x x x x x x N V V V #.C C C C C C N C C C C C C C C C m l v g @ 4 5 # D ^  . .} ^ ^  .^ 5 5 5 4 + . . % U d O.}.`.`.%X&X-XK.U ( ~ Y Y T $ . e $ . . . . . . I G.C.XXJXJXZX, . . . X % U @.~ S.FXJXDXXX~ Z./ + + O . . . X + X . % I I y o.C.( *XHXAXnXmX:X&Xj . . . - O u p 9 8 8 ^ ^ # q G P G 5 # X . j {.}.{.K./ / T . . . % y 7 U G.J.G.=XlX;X{.{.|.O.. . . . . . . . . T ~ Y / U.XX$XP./ / +.@.T Q / Q o . . . . .                                                                                                                                                                                                                                                                                                                                                                                                                                                                                                                                           ",
"                                                                                                                      z . . y / / ! U d s $ . . + N N V y.p.:.=.#.=.#.1 . + o + . + O O 3 > > > > O > 1 u f 1 > > , , e % @ 4 q q 8 5 4 # # # # 4 4 4 v A x x x m m x x x x x x x x x x x N B N N ' #.C C C C C C C C C C C C ' C C V v u * @ @ # 4 L N.&. . .} ^ ^ w 4 5 5 4 . . . . t 7 I [.H.U.&X-X}.+./ o.o.T ~ Y $ . . . . . + O . . ! G.V.XXJXJXVXO . . . . . r S.o.A.HXJXAXP.G ( T + + O o . . . . . . % Y U y Z.D.V.*XJXHXJXmX&X&Xj . . . . X % D D 5 J N. .^ G G G 0 5 4 % . p `.{.`.@.T ~ Y . . . 7 y 6 Y H.H.J.lXzXlX&X'.'.O.. . . $ P.I.W e d / Y U U P.$X$X@.I I Q / Q O.+.Q X . . . . .                                                                                                                                                                                                                                                                                                                                                                                                                                                                                                                                           ",
"                                                                                                                  6.2 . . . r / / Q U U U $ . . O N V V =.#.1 x V C z . . . . . . + > > > > > > > > > 1 f a 1 < > , * % # # @ # 5 7 i % $ # # 4 7 i l x x x n n n m x x x x x x x x x x x m V B V #.#.' C C C C C ' ' C C C C V V ' V i # @ @ 4 w F ^ }  . . .H F 0 4 4 # # @ + . . r @.O.O.[.'.'.I.K.~ I W R O.I U U X . . . . o - 2 O . d S.~ P.bXAXbXg g x - g h R o.~ Z.bXDXAXXX&.K.d . . > > o + + o . . $ s y t O.A.o.XXkXdXkXmXzXlXj . e $ . o % 8 8 4 w  .N.E D G 8 4 8 4 X . e I.`.I.@.T / U . . . % t % U G.J.F.$X*X%X{.`.U.Q e ; * P.&X X[.L.O.~ I U s Q K.P./ T T r r ! Q Q t . . . 2                                                                                                                                                                                                                                                                                                                                                                                                                                                                                                                                               ",
"                                                                                                                1 . . % s r T +./ O.T I ! $ . . > Z V Z 1 1 x 1 3 - + . . . . . O > > > > > > > 2 1 1 1 f u 1 f 1 > @ # # # # # # u k u 1 & % i x n x x N m n x x x x x x x x x x x N m n N X.X.#.#.#.' X.C ' C m N ' ' C C C m M B p 4 4 4 0 G J L J }  .E 0 4 4 4 4 @ . . . * - X P. X}.}.}.&X%X/ 7 F r . . & o . X + + . O < > > - - + t T F &.:X:X;XFXHXGX*X=XzXXXU Y Y '.&XlXmXAXnX@X. + 1 1 2 2 > O . . + . . . t y r T S.o.A.mXAXnXU.~ G.Q . X X . . . X F  .q q K q 5 0 % . . ; @.L.`.K.T / y . . . . . . $ Y U U S.V.o.D.{.%X$X`.I.`.%X}.|.U.G.I.Z.U U I t # t / @.+.d $ t . . . . . +                                                                                                                                                                                                                                                                                                                                                                                                                                                                                                                                                 ",
"                                                                                                                > . . s T F ~ O.O./ I I T ; . . 2 C V N z x N 1 > > + . . . . . - > > > > > > > 2 1 1 1 1 1 1 u 1 2 $ # # # # # ; f u u u - f g g l l x n m v x x x x x x x x x x x n n x N #.C C #.#.' #.#.#.C N C #.#.C C C B m V p 5 4 4 F J G G G ^ _ 7 4 5 4 5 5 @ . . . o O . K.}.H.[.&X&X&X@.y T r . . . . . O > + . O 1 > - - - + d o.Y P.nXzXzXJXJXHX=X;XzX$XY Y ~  X.X&XmXnXnX*XX . > 2 > > = . . . . . . . r y t O.L.o.L.mXnXmXU.S.H.Q . . . . . . @ 6 w q D K D 6 0 % . X t O.+.`.K.Q o.T . . . . . . % Y U y +.S.o.I.%X%X%X{.{.{.%X|.%X`.L.I.Z.Y Y Y y y t / +.@.T r t + . . . . .                                                                                                                                                                                                                                                                                                                                                                                                                                                                                                                                                 ",
"                                                                                                                > . . ! / U T / / T Y T / t . . > V Z N z c m 1 3 > O . . . . - & O > > > = 3 3 2 f 1 1 f 1 u u 1 1 * # # # @ - f l l i i i x p p z z x x x x x x x x x x x x x x x m N n B X.C C C ' #.#.C C C C #.#.#.C C C m x b p 4 4 # H ^ G G G G w # 4 4 4 4 5 @ . . . r r ; @.[.H.I.`.|.&XQ t U r . . . . 1 Z k k a a f a < > > O t Y F &.zXzX;XdXNXcX%.*.XX*.U I T }.}.[.kXAXAX@X. X $ & - O O . . . . . . . r s r ! @.@.K.*XlXlXL.~ Z.I X X . . . . X @ 4 9 q D q 7 7 $ . X e O.K.`.P./ o.Y . . . . . . % U U y I +.o.I.$X$X{.|.`.O.`.%X$XL.Z.@.I I T U t t % I O./ I $ o + . O                                                                                                                                                                                                                                                                                                                                                                                                                                                                                                                                                       ",
"                                                                                                                > . . Q Z.@.Q y r d / +.@.d . . O 1 1 k 2 > 1 2 > O O & O O & > 2 > O O O O 1 1 1 a 1 f f k 1 1 2 & # # ; - < k l m N g i x N v v x x x n x x x x x x x x x x x x x Z V V C C X.C C ' #.C B V Z ' #.C C C C C i 4 4 4 4 # w  . .} L G G G 6 # # @ @ @ X . . ; Z.D.Z.A.D.[.I.Y ~ ~ $ . X . . . o Z :.:.,.q.q.1.m m x > > > . X . d H.[.I.; < < . . . . X o o y ~ ~ @XHXHXvXt 5 0 4 O + O + + O . . . + o o X e d y y O.@.@.T D D D q D 4 . . . . . + 4 5 4 * > > o . @ t U.$XXXP.I F $ . . . . . . X X X o d I Y / +.+.+.O.Q t U Z.@.U U I s e r % . . . $ r r % . . . .                                                                                                                                                                                                                                                                                                                                                                                                                                                                                                                                                         ",
"                                                                                                                > . . / Z.Z.Q e t U o.+.Z.s . . + 1 1 1 > > = > O O + O > > 2 2 1 2 O + + 1 1 1 a 1 1 a k k f > % 4 # * a 1 1 k z m m n x N m n n x x x x x x x x x x x x x x x x x V C V C X.C X.X.#.#.V Z V V C ' X.#.#.#.#.e # # # # 6 }  . . .F G L G 5 4 # @ @ @ X . . t A.F.A.F.H. XU.Y Y Y % . . . . . . =.1.:.4.w.q.1.m m x > > > . . . y H.T.G.$ . . . . . . . . . t 7 U dXJXJXvX7 8 q 6 . + & O O O + + = > . . . e i e r Q / Q F D G K D D 4 . . . . + + # 5 # & > 3 + X X t `.$X$XP.q q X . . X . . . . . . X I U U Y / +.! y U T T / O.! U I I % $ X . . . X o y y . . . .                                                                                                                                                                                                                                                                                                                                                                                                                                                                                                                                                         "
};
