/* XPM */
static char *cb1e5130f9944edfdf69dfa9c1a779c9n3c3TTngEQIBigRB[] = {
/* columns rows colors chars-per-pixel */
"600 399 256 2 ",
"   c None",
".  c #020202",
"X  c #0A0502",
"o  c #0B0905",
"O  c #030509",
"+  c #06090A",
"@  c #0C0D0C",
"#  c #070807",
"$  c #130501",
"%  c #1C0501",
"&  c #140B03",
"*  c #1B0C03",
"=  c #120E0C",
"-  c #1A0D0A",
";  c #0F100F",
":  c #1D1105",
">  c #11110E",
",  c #1B130B",
"<  c #191409",
"1  c #0E0F10",
"2  c #040B11",
"3  c #100F10",
"4  c #0F1011",
"5  c #0E1318",
"6  c #131312",
"7  c #191613",
"8  c #171815",
"9  c #1A1A16",
"0  c #1C1D1A",
"q  c #151819",
"w  c #240501",
"e  c #2C0401",
"r  c #230B03",
"t  c #2C0A03",
"y  c #270D09",
"u  c #330500",
"i  c #360A03",
"p  c #241305",
"a  c #2B1505",
"s  c #2C1A06",
"d  c #23140B",
"f  c #2C1B0A",
"g  c #27170A",
"h  c #331C05",
"j  c #331D0A",
"k  c #381A06",
"l  c #211F1A",
"z  c #271B13",
"x  c #341B14",
"c  c #1F201C",
"v  c #3C2206",
"b  c #35210B",
"n  c #3C230B",
"m  c #3A260A",
"M  c #23231D",
"N  c #2A241D",
"B  c #2B2417",
"V  c #372617",
"C  c #322810",
"Z  c #262621",
"A  c #282722",
"S  c #272822",
"D  c #2B2A24",
"F  c #2D2D2A",
"G  c #262728",
"H  c #312E26",
"J  c #312F28",
"K  c #3A2B22",
"L  c #333027",
"P  c #35322A",
"I  c #3A362C",
"U  c #3C392E",
"Y  c #3A3426",
"T  c #3A3731",
"R  c #3E3A32",
"E  c #373736",
"W  c #2E3029",
"Q  c #1E2121",
"!  c #441B05",
"~  c #432406",
"^  c #43250A",
"/  c #442A0B",
"(  c #4B2C0B",
")  c #4A2806",
"_  c #522E0B",
"`  c #552B05",
"'  c #4C320D",
"]  c #54320C",
"[  c #5B340C",
"{  c #5D390D",
"}  c #593307",
"|  c #462C12",
" . c #4B3415",
".. c #5C3B13",
"X. c #563816",
"o. c #633B0D",
"O. c #68390A",
"+. c #643D12",
"@. c #713906",
"#. c #45382A",
"$. c #413D35",
"%. c #433F38",
"&. c #4B3D32",
"*. c #4C3526",
"=. c #5B4219",
"-. c #5D4B16",
";. c #6C420D",
":. c #67420E",
">. c #73440D",
",. c #7A480C",
"<. c #6C4412",
"1. c #664517",
"2. c #724511",
"3. c #744A13",
"4. c #7B4C13",
"5. c #764B18",
"6. c #7B5318",
"7. c #755212",
"8. c #444037",
"9. c #45423A",
"0. c #4A453C",
"q. c #4D493E",
"w. c #4A4236",
"e. c #52493D",
"r. c #564528",
"t. c #684A22",
"y. c #785828",
"u. c #6F552A",
"i. c #79642F",
"p. c #7E621F",
"a. c #4E4A41",
"s. c #484744",
"d. c #534D42",
"f. c #574E44",
"g. c #565145",
"h. c #5A5346",
"j. c #5D5549",
"k. c #5C564A",
"l. c #575756",
"z. c #61594B",
"x. c #625748",
"c. c #665C51",
"v. c #6B6760",
"b. c #3F403E",
"n. c #854C0B",
"m. c #89530D",
"M. c #96580C",
"N. c #824E12",
"B. c #845314",
"V. c #8C5A14",
"C. c #885717",
"Z. c #935C14",
"A. c #975C15",
"S. c #944D0A",
"D. c #9C6314",
"F. c #986519",
"G. c #926317",
"H. c #A36C1B",
"J. c #A66916",
"K. c #AC731B",
"L. c #A97319",
"P. c #BB7C1C",
"I. c #B57619",
"U. c #B16B0F",
"Y. c #845D26",
"T. c #87642A",
"R. c #966B26",
"E. c #896933",
"W. c #997739",
"Q. c #95722D",
"!. c #A77726",
"~. c #B67C23",
"^. c #A37C38",
"/. c #A56F23",
"(. c #A45D0B",
"). c #C47D19",
"_. c #C57809",
"`. c #C17C21",
"'. c #977B44",
"]. c #A17E42",
"[. c #813B00",
"{. c #BD821D",
"}. c #B98526",
"|. c #A8843A",
" X c #B48D32",
".X c #A48F35",
"XX c #C7861C",
"oX c #D48B1B",
"OX c #D9941D",
"+X c #D08B13",
"@X c #E4981A",
"#X c #C78A24",
"$X c #D38D23",
"%X c #CA9427",
"&X c #D79726",
"*X c #CB9835",
"=X c #E49C26",
"-X c #E49E34",
";X c #D9A736",
":X c #D4A932",
">X c #E8A72A",
",X c #F5B62B",
"<X c #E9AA34",
"1X c #EAB638",
"2X c #F5B937",
"3X c #F1AD2B",
"4X c #EFA71C",
"5X c #FAC739",
"6X c #F8CD38",
"7X c #FFE33C",
"8X c #A78544",
"9X c #B2934B",
"0X c #AE9B5D",
"qX c #D0B04E",
"wX c #EAB849",
"eX c #D1B46B",
"rX c #D5A856",
"tX c #D9C655",
"yX c #F6C848",
"uX c #FBD749",
"iX c #F8D757",
"pX c #EBCE52",
"aX c #FDE549",
"sX c #FCE858",
"dX c #FDF559",
"fX c #D9CA6C",
"gX c #EED56D",
"hX c #FAE968",
"jX c #FEF769",
"kX c #FCEE7C",
"lX c #FAEB75",
"zX c #FDF27C",
"xX c #FEF977",
"cX c #EBE473",
"vX c #CCB78F",
"bX c #EDD38D",
"nX c #F9EB85",
"mX c #FDF283",
"MX c #FEFA88",
"NX c #FEF997",
"BX c #F3E890",
"VX c #EAD7AE",
"CX c #FDFAA7",
"ZX c #FDFAB7",
"AX c #F6E9B1",
"SX c #D7C8A2",
"DX c #FDFAC8",
"FX c #FDFAD7",
"GX c #F2E8D0",
"HX c #FDFBE8",
"JX c #FDFCF5",
"KX c #FEFEFC",
"LX c #F9F7F6",
"PX c #F1ECE2",
"IX c #E1D8C8",
"UX c #AFA58F",
/* pixels */
"                                                                                                                                                                                                                                                                                                                                                                                                                                                                                                                                                                                                                                                                                                                                                                                                                                                                                                                                                                                                                                                                                                                                                                                                                                                ",
"                                                                                                                                                                                                                                                                                                                                                                                                                                                                                                                                                                                                                                                                                                                                                                                                                                                                                                                                                                                                                                                                                                                                                                                                                                                ",
"                                                                                                                                                                                                                                                                                                                                                                                                                                                                                                                                                                                                                                                                                                                                                                                                                                                                                                                                                                                                                                                                                                                                                                                                                                                ",
"                                                                                                                                                                                                                                                                                                                                                                                                                                                                                                                                                                                                                                                                                                                                                                                                                                                                                                                                                                                                                                                                                                                                                                                                                                                ",
"                                                                                                                                                                                                                                                                                                                                                                                                                                                                                                                                                                                                                                                                                                                                                                                                                                                                                                                                                                                                                                                                                                                                                                                                                                                ",
"                                                                                                                                                                                                                                                                                                                                                                                                                                                                                                                                                                                                                                                                                                                                                                                                                                                                                                                                                                                                                                                                                                                                                                                                                                                ",
"                                                                                                                                                                                                                                                                                                                                                                                                                                                                                                                                                                                                                                                                                                                                                                                                                                                                                                                                                                                                                                                                                                                                                                                                                                                ",
"                                                                                                                                                                                                                                                                                                                                                                                                                                                                                                                                                                                                                                                                                                                                                                                                                                                                                                                                                                                                                                                                                                                                                                                                                                                ",
"                                                                                                                                                                                                                                                                                                                                                                                                                                                                                                                                                                                                                                                                                                                                                                                                                                                                                                                                                                                                                                                                                                                                                                                                                                                ",
"                                                                                                                                                                                                                                                                                                                                                                                                                                                                                                                                                                                                                                                                                                                                                                                                                                                                                                                                                                                                                                                                                                                                                                                                                                                ",
"                                                                                                                                                                                                                                                                                                                                                                                                                                                                                                                                                                                                                                                                                                                                                                                                                                                                                                                                                                                                                                                                                                                                                                                                                                                ",
"                                                                                                                                                                                                                                                                                                                                                                                                                                                                                                                                                                                                                                                                                                                                                                                                                                                                                                                                                                                                                                                                                                                                                                                                                                                ",
"                                                                                                                                                                                                                                                                                                                                                                                                                                                                                                                                                                                                                                                                                                                                                                                                                                                                                                                                                                                                                                                                                                                                                                                                                                                ",
"                                                                                                                                                                                                                                                                                                                                                                                                                                                                                                                                                                                                                                                                                                                                                                                                                                                                                                                                                                                                                                                                                                                                                                                                                                                ",
"                                                                                                                                                                                                                                                                                                                                                                                                                                                                                                                                                                                                                                                                                                                                                                                                                                                                                                                                                                                                                                                                                                                                                                                                                                                ",
"                                                                                                                                                                                                                                                                                                                                                                                                                                                                                                                                                                                                                                                                                                                                                                                                                                                                                                                                                                                                                                                                                                                                                                                                                                                ",
"                                                                                                                                                                                                                                                                                                                                                                                                                                                                                                                                                                                                                                                                                                                                                                                                                                                                                                                                                                                                                                                                                                                                                                                                                                                ",
"                                                                                                                                                                                                                                                                                                                                                                                                                                                                                                                                                                                                                                                                                                                                                                                                                                                                                                                                                                                                                                                                                                                                                                                                                                                ",
"                                                                                                                                                                                                                                                                                                                                                                                                                                                                                                                                                                                                                                                                                                                                                                                                                                                                                                                                                                                                                                                                                                                                                                                                                                                ",
"                                                                                                                                                                                                                                                                                                                                                                                                                                                                                                                                                                                                                                                                                                                                                                                                                                                                                                                                                                                                                                                                                                                                                                                                                                                ",
"                                                                                                                                                                                                                                                                                                                                                                                                                                                                                                                                                                                                                                                                                                                                                                                                                                                                                                                                                                                                                                                                                                                                                                                                                                                ",
"                                                                                                                                                                                                                                                                                                                                                                                                                                                                                                                                                                                                                                                                                                                                                                                                                                                                                                                                                                                                                                                                                                                                                                                                                                                ",
"                                                                                                                                                                                                                                                                                                                                                                                                                                                                                                                                                                                                                                                                                                                                                                                              . 8 Z 8 @ 0 0 0 0 0 0 0 0 0 c                                                                                                                                                                                                                                                                                                                                                                                                                     ",
"                                                                                                                                                                                                                                                                                                                                                                                                                                                                                                                                                                                                                                                                                                                                                                                            W . . . . . . . . . . . . . . #                                                                                                                                                                                                                                                                                                                                                                                                                     ",
"                                                                                                                                                                                                                                                                                                                                                                                                                                                                                                                                                                                                                                                                                                                                                                              . . . . . . . . . . . . . . . . . . . . . . .                                                                                                                                                                                                                                                                                                                                                                                                                     ",
"                                                                                                                                                                                                                                                                                                                                                                                                                                                                                                                                                                                                                                                                                                                                                                              o @ @ @ > Z Z 0 M 0 M D D P J 9 9 9 0 M 0 0 @ 0                                                                                                                                                                                                                                                                                                                                                                                                                   ",
"                                                                                                                                                                                                                                                                                                                                                                                                                                                                                                                                                                                                                                                                                                                                                                Z @ O . . . . 0 U I P P R R R R I $.q.q.g.d.D A Z F P P J 0 8 9 @ @ 9                                                                                                                                                                                                                                                                                                                                                                                                           ",
"                                                                                                                                                                                                                                                                                                                                                                                                                                                                                                                                                                                                                                                                                                                                                                9 . . . O . O Z U I I I I P T I P R w.0.d.q.A Z M A J F F 9 9 9 . . 6                                                                                                                                                                                                                                                                                                                                                                                                           ",
"                                                                                                                                                                                                                                                                                                                                                                                                                                                                                                                                                                                                                                                                                                                                                                M o @ = > @ > Z F D F F F D F H D I %.%.0.8.Z Z M N A A Z 0 0 M @ o 6                                                                                                                                                                                                                                                                                                                                                                                                           ",
"                                                                                                                                                                                                                                                                                                                                                                                                                                                                                                                                                                                                      G A A A A A @ . O O @ A A A A 6 @ Z A F                                                                                                     6 9 6 Z 0 @ 0 9 9 Z T Z M D F D A D D F A 0 8 8 0 D D D D D S S M 8 6 6 Z D F D S M @                                                                                                                                                                                                                                                                                                                                                                                                         ",
"                                                                                                                                                                                                                                                                                                                                                                                                                                                                                                                                                                                              . . . . . . . . . . . . . . . . . . . . . . . @                                                                                                     . . . . . . O 8 N U T S A F F D D D D D S 9 8 8 0 S S Z A D A D M 8 7 6 Z F F D S Z o s.                                                                                                                                                                                                                                                                                                                                                                                                      ",
"                                                                                                                                                                                                                                                                                                                                                                                                                                                                                                                                                                                              . . . . @ o @ @ o @ > > > > > @ O O . . . . . 6                                                                                                     . @ o o . . @ 0 P I P S D D D A S A D A Z 0 9 9 M D D S A Z S D Z 9 8 8 Z F F Z M M @ . .                                                                                                                                                                                                                                                                                                                                                                                                     ",
"                                                                                                                                                                                                                                                                                                                                                                                                                                                                                                                                                                                      0     . . . . o I P T 8.$.9.q.q.q.q.q.T D D M 9 0 0 9 0 0                                                                                                 9 J P I M 8 8 7 8 9 9 0 S A A A A A Z A Z Z Z Z Z Z A D S S S S Z Z Z Z Z 0 0 c D D D 7 . .                                                                                                                                                                                                                                                                                                                                                                                                     ",
"                                                                                                                                                                                                                                                                                                                                                                                                                                                                                                                                                                                    . . O . O . . O M 0.0.w.d.e.d.d.d.d.d.d.$.T I A M M Z Z Z @ . . .                                                                                 @ . . . . 7 $.$.9.D 0 0 8 8 8 8 0 Z A A A S Z Z Z Z Z A A A A S D S A A S Z Z D D D 0 8 8 A F F 9 . O                                                                                                                                                                                                                                                                                                                                                                                                     ",
"                                                                                                                                                                                                                                                                                                                                                                                                                                                                                                                                                                                    . . . . . . . O M %.q.q.q.d.f.q.w.0.0.0.R I I A M M Z Z S @ . . .                                                                                 @ . . . . 7 R R 8.Z q 9 8 8 8 M A A S A D S Z Z Z Z S D A S A A A D A A S Z Z S D D 0 8 7 A D F 9 . O                                                                                                                                                                                                                                                                                                                                                                                                     ",
"                                                                                                                                                                                                                                                                                                                                                                                                                                                                                                                                                                                    8 9 l D D 9 . @ D J P I I I T J D D D F F A D M M M N Z Z 0 9 0 0                                                                                 @ o l M l l c Z D M c c 0 M M A Z A S A A Z Z Z Z Z A D A A S S S A A Z A A Z S D D 0 7 7 Z D W 0 . O                                                                                                                                                                                                                                                                                                                                                                                                     ",
"                                                                                                                                                                                                                                                                                                                                                                                                                                                                                                                                                                            8 @ @ 7 f.e.d.g.z.I O 6 P F A M 0 9 0 Z D D D Z 0 0 0 0 M M M M M W T I T 8 @ 9                                                                   Q . . . @ 8 0.q.q.A @ @ > M A A S A S Z Z Z S A A S S Z Z S S Z S S S D S D A A S Z Z S S S 9 8 7 Z F P 0 . O                                                                                                                                                                                                                                                                                                                                                                                                     ",
"                                                                                                                                                                                                                                                                                                                                                                                                                                                                                                                                                                            . . . l g.q.q.d.g.H # > J P F Z M M M A D A A N M M M M M M M M M D P P P > . 6                                                                 O . O @ @ @ 8 0.q.q.A @ > 6 0 Z Z Z Z Z Z Z Z Z Z S Z A S Z Z A Z A Z A D D A A S Z Z Z S Z Z 9 7 8 D P T M . O                                                                                                                                                                                                                                                                                                                                                                                                     ",
"                                                                                                                                                                                                                                                                                                                                                                                                                                                                                                                                                                            . = @ D f.q.0.9.0.A O > F F F S Z Z M S A S Z M M M M M M M M M M D F F F 7 O @                                                                 @ . @ 9 9 8 0 R 9.9.Z @ 7 7 c Z N Z A A A A A A D D A A D A A S A A A Z D D D A S S S Z Z Z Z 9 8 9 F I T M . .                                                                                                                                                                                                                                                                                                                                                                                                     ",
"                                                                                                                                                                                                                                                                                                                                                                                                                                                                                                                                                                    6 A G Z w.g.g.g.d.e.0.9 @ @ @ 0 F D A D A S S S S Z S Z Z Z A Z S Z Z Z Z Z c 0 0 M N 9 = 9                                                         W A @ M F 0.q.q.8.9 8 9 0 M M M A D D F I I U U P P P P P F F D D D A A A S D S A A S S S Z N N M 9 8 9 A F P 0 . .                                                                                                                                                                                                                                                                                                                                                                                                     ",
"                                                                                                                                                                                                                                                                                                                                                                                                                                                                                                                                                                    . . . 7 g.z.z.j.e.d.q.8 + 1 > M D D A D D D A A S Z S Z A S D A A S A Z A Z 0 9 9 N D N O . @                                                     @ . . A H P 0.q.d.9.8 6 6 0 A N N D F F H I R R R P P P P P H F F D D A A A S A S A A A A S Z M M M 9 8 9 Z A F 9 . O                                                                                                                                                                                                                                                                                                                                                                                                     ",
"                                                                                                                                                                                                                                                                                                                                                                                                                                                                                                                                                                    . . . > a.g.k.k.g.g.f.0 @ 6 6 0 D Z Z D D A A A Z Z Z S D S A S S S S S Z M 9 9 9 Z D N o . 6                                                     6 . 7 D N N 9.e.d.9.8 6 8 M D Z N D F D D I U U I P H H P P F F F F D A Z S S S S A A D A A S M N M 8 6 8 N A F 9 . .                                                                                                                                                                                                                                                                                                                                                                                                     ",
"                                                                                                                                                                                                                                                                                                                                                                                                                                                                                                                                                                  D > 6 7 A q.f.j.0.T R R 9 8 0 9 M A Z Z A A D A Z A A A Z Z A A Z S S Z Z Z N 0 9 8 M S M o . 6                                                     9 9 H $.I P F F J D 7 9 0 A P J H P P P P I U I I I I I I P J H J J H D A F D A A A D Z Z A M 0 0 0 9 9 9 7 8 7 O Z l.                                                                                                                                                                                                                                                                                                                                                                                                    ",
"                                                                                                                                                                                                                                                                                                                                                                                                                                                                                                                                                            O . @ J $.R 9.f.e.f.j.M + 6 6 7 M D Z S Z Z Z S A D A Z A S A Z A A A Z S S Z Z Z Z M 8 6 9 M M O . =                                               @ . . M g.j.k.z.g.6 . O O 0 M Z P $.R R $.$.$.$.R I I U 8.9.9.I P P I I P P P L P H A D D Z Z S A 0 6 6 6 M A M . . . .                                                                                 8 @ @ O 8 O . . @ @ . . O . @ 0                                                                                                                                                                                                                                                                                         ",
"                                                                                                                                                                                                                                                                                                                                                                                                                                                                                                                                                            O . . I 8.R 9.f.f.g.k.M # 6 6 6 c D Z Z Z Z Z S A S S A Z S A S A Z A S Z Z Z A A S M 8 6 8 M M O . 6                                               O . . M g.k.z.c.j.8 O # @ 9 M M L R I I R R $.$.R I I I %.8.9.I P P P P P I I P P H D D D Z Z S A 0 6 6 8 N D S @ . .                                                                                   @ . . . . . . . . . O . . . . 8                                                                                                                                                                                                                                                                                         ",
"                                                                                                                                                                                                                                                                                                                                                                                                                                                                                                                                                            O . o U q.$.w.d.0.0.d.0 O 6 8 8 M A Z Z Z Z Z S A A S Z A A S S Z S Z Z Z Z Z Z Z Z c 7 6 9 Z M O . 6                                               O @ @ N e.g.j.g.d.9 @ @ @ 0 M M L U I I U R R R I I I R %.%.9.I P P P I P P P L P H A A Z Z M N A 0 7 8 9 Z F D @ . O                                                                                   6 O o o @ @ @ 6 > O O O O o O 8                                                                                                                                                                                                                                                                                         ",
"                                                                                                                                                                                                                                                                                                                                                                                                                                                                                                                                                          0 > 0 Z q.h.d.f.w.7 6 6 6 7 9 0 N D Z M M M M M Z A S Z A S D S A A Z S N M M M 9 8 8 9 9 9 9 0 9 O . 6                                             # @ 9.q.q.d.j.0.0 0 9 9 8 9 D F A I $.R $.I I I I H D I 9.8.9.%.U P I I I U I F A D A M M M 0 7 7 8 9 9 0 M M M M @ . @                                                                                 > = H T I R $.8.w.w.P A A D F A M 9                                                                                                                                                                                                                                                                                       ",
"                                                                                                                                                                                                                                                                                                                                                                                                                                                                                                                                                      @ O o M A D d.j.g.k.0.@ O O @ 9 9 0 N D Z Z 0 0 9 0 Z A A A S S S A A A S S M l M 0 7 6 7 7 9 0 9 0 9 . . 6                                         . . . = f.j.f.e.j.$.@ @ 8 0 0 M W F D P $.$.8.U I I P A N I 9.%.9.%.U I I I I U R D S A Z M 0 M 0 6 6 6 9 0 M Z M 0 0 O . @                                                                       E . . . . O > R q.q.0.$.J A A I P D P I P A . # . . v.                                                                                                                                                                                                                                                                              ",
"                                                                                                                                                                                                                                                                                                                                                                                                                                                                                                                                                      @ . @ N A F e.k.k.g.$.7 @ @ > 9 9 9 c S S S 0 7 7 9 Z S S S S A S A D S A A N M M M 7 6 8 8 9 0 c M 9 o @ 0                                         . . . > f.g.f.d.w.D @ ; 8 9 9 M P F A P R $.8.I I I P F D R 9.$.%.9.R I I I U R R F A D S M M M 0 8 8 8 0 M N N 0 0 8 @ @ @                                                                       A . . . O @ 7 I 9.9.J 9 9 9 9 9 0 0 A J D Z o . . . l.                                                                                                                                                                                                                                                                              ",
"                                                                                                                                                                                                                                                                                                                                                                                                                                                                                                                                                    G . . R g.g.g.w.%.0.P 6 6 6 8 0 M M 0 A F P P 0 8 9 0 Z A A A Z S D D Z Z M M 0 9 9 8 9 0 0 0 0 9 9 @ 0                                             W = P I R j.d.8.%.0 @ = 6 0 M M S P P D I w.0.q.0.0.I A P P P P R %.9.$.R R I P P P A Z Z M 9 9 9 9 9 9 9 9 9 0 9 @ O 9                                                                             A > @ 0 N N A A Z Z 9 9 9 9 9 9 9 9 0 Z Z M 0 9 0 9 O O @                                                                                                                                                                                                                                                                           ",
"                                                                                                                                                                                                                                                                                                                                                                                                                                                                                                                                                    . . O q.z.k.z.R F I A 6 6 6 0 A Z Z M H I R R 0 6 0 A D A A A A A A D M 0 0 0 8 4 4 = 0 M M M 0 9 7 . E                                       s.. O . I g.g.k.k.q.F 9 6 6 6 7 M A D F I P F R a.a.d.g.k.I M D D Z Z R 9.9.9.9.9.I A F F M M M 0 6 6 6 8 0 c M 9 6 7 6 O . Z                                                                     9 . O 7 Z A M Z A A F M 9 9 9 9 0 M M 9 9 9 9 0 0 0 A F P W @ . @                                                                                                                                                                                                                                                                           ",
"                                                                                                                                                                                                                                                                                                                                                                                                                                                                                                                                                    . . O q.j.g.g.P A P A 6 6 6 c D A Z M F I I T 0 8 M A A D A A A S A A M 0 0 0 7 6 6 > 0 M M M 9 9 8 . W                                       s.. . @ 0.q.q.d.j.q.F 6 6 8 6 7 M Z Z A P P F $.a.a.d.d.k.T M D D N Z R %.8.9.9.0.R F F F M c M 0 6 6 6 7 0 0 0 9 6 8 8 O . G                                                                     6 . . 0 D Z M 0 0 0 M 0 0 9 0 M N S Z 0 0 0 0 0 0 0 Z D W F @ . O                                                                                                                                                                                                                                                                           ",
"                                                                                                                                                                                                                                                                                                                                                                                                                                                                                                                                                    . . o d.z.k.k.I A P N @ @ @ 0 D D A Z F I I P 9 7 l A A D D Z Z Z Z S M c c M 8 6 6 6 0 M M 0 8 7 @ . F                                       s.. . @ 8.a.0.q.k.g.P @ 6 7 6 8 M Z Z Z L P F 8.g.g.g.k.g.P 0 M M 9 0 P R R %.9.0.R H J F N M M c 8 6 7 7 0 0 0 8 6 @ . . . Z                                                                     8 . . 0 D Z N 0 8 9 9 9 9 9 0 S S A Z M M Z c 9 0 0 D F F A O . .                                                                                                                                                                                                                                                                           ",
"                                                                                                                                                                                                                                                                                                                                                                                                                                                                                                                                                  s.D A D d.g.g.d.M 7 9 7 6 6 7 M A D D S I $.R U M 9 M D F F F F A Z Z Z 9 8 9 9 9 9 9 8 8 9 8 6 @ .                                             A @ 6 9 0.q.q.0.J D 9 @ 9 M 0 M F F D F I I I T R $.$.R 0.0.$.R I I I A A F R a.d.$.A A Z 9 7 9 8 8 8 8 7 6 > > @ O                                                                             s.9 > 7 0 0 0 0 0 0 0 c M M M M S Z A A D A A N M c 0 M A F A > @ @                                                                                                                                                                                                                                                                           ",
"                                                                                                                                                                                                                                                                                                                                                                                                                                                                                                                                              @ . P g.q.e.f.d.f.0.4 O O @ 9 0 0 Z F A D S R q.8.9.F 0 N H L H H H A Z Z Z 8 6 6 6 9 0 0 0 6 6 6 @ . .                                         9 . O M Z D d.q.q.$.@ + @ @ M Z Z A P P H P U R R P A D D Z I j.j.f.d.f.q.A M Z R f.f.$.M N M 6 @ @ 6 8 9 9 6 @ # O . O                                                                       . . . = A Z Z 0 8 8 8 M D S S S A Z S S A S S D S A A A N 9 9 0 A A 0 9 0 > . O F                                                                                                                                                                                                                                                                   ",
"                                                                                                                                                                                                                                                                                                                                                                                                                                                                                                                                              @ . H 0.8.w.f.g.k.d.8 @ @ ; 9 0 0 M A A D S U q.9.w.F 0 N H P L H H D Z Z Z 7 6 7 8 9 0 0 0 8 8 8 > . .                                         9 . @ M M D f.q.a.$.6 @ @ @ 0 M M N H P H H I R R P D F D Z I f.g.d.q.d.q.F A A $.d.f.R M Z Z 7 6 6 6 8 9 9 7 @ @ O . @                                                                       O . O 8 A N M 9 7 8 8 M D Z Z Z Z Z A S S S D A S A S S N 0 9 0 A A 0 9 M 6 . . F                                                                                                                                                                                                                                                                   ",
"                                                                                                                                                                                                                                                                                                                                                                                                                                                                                                                                              @ . D 8.R %.f.g.k.d.9 @ 4 6 9 0 9 N A A S N I q.0.0.P M Z L P P L P A Z A A 9 6 7 6 8 0 M M 0 9 9 > @ 6                                         0 . @ l M D h.g.g.9.@ @ @ @ 0 M M M F H H H T R R P D D A M P g.g.d.d.f.a.D Z S P %.q.I M S S 8 @ 6 6 9 0 0 7 O O                                                                             6 . . 7 F A N 8 6 8 8 M D S Z Z S Z Z S D D S A S S S S Z 0 9 0 A D 0 0 Z 6 . . F                                                                                                                                                                                                                                                                   ",
"                                                                                                                                                                                                                                                                                                                                                                                                                                                                                                                                              . . P d.q.q.D Z D D 8 8 8 9 N M N A P I P L P I I P P I I U P F H H M 9 0 0 8 6 6 6 > 6 6 6 @ @ O E                                             @ O T 0.8.0.I D D M 9 9 9 9 A H D D P I I I R R R T I P P Z A P I I T 0.d.0.9.8.P D P A 8 9 9 6 @ 6 6 = = > @ . O                                                                           s.7 > 9 0 M 0 0 c M M M Z S A S S S S A D D S S S S S S Z S N 9 9 0 M D P I l . . G                                                                                                                                                                                                                                                                   ",
"                                                                                                                                                                                                                                                                                                                                                                                                                                                                                                                                            8 . . R g.f.d.6 @ @ @ 8 9 9 0 A A A F R R I I L A F A P R $.R P F J P M 8 8 8 8 8 7 6 @ @ @ . . . .                                           9 . . @ s.k.g.g.0 @ > ; 0 M 0 M H P L L R R R R R R R R R U U D N N N A P q.d.f.d.f.I M D c 6 8 6 6 6 6 6 O . . O                                                                         0 . # O 0 M M 0 9 9 9 M D S S Z S S S S S S S D S S D D S S A Z A Z 9 9 9 0 P T R N . . G                                                                                                                                                                                                                                                                   ",
"                                                                                                                                                                                                                                                                                                                                                                                                                                                                                                                                            6 . . $.k.k.f.7 @ 6 6 8 8 8 0 D A D P R R I I F A A A H I R R P F H P M 8 8 8 8 8 7 6 @ @ O . . o                                             8 . . @ 9.g.g.f.l 6 6 6 c M c M F P L L R $.R R R R R R U R R F S A A F U d.d.d.a.a.I N F M 6 8 8 7 6 6 > . . . .                                                                         9 . . O 0 0 M 0 9 9 9 M A A Z S A S S A D S S D D A D D S A A S A S 0 9 9 c P T E M . . G                                                                                                                                                                                                                                                                   ",
"                                                                                                                                                                                                                                                                                                                                                                                                                                                                                                                                            . . . %.z.z.k.0 @ 6 6 7 7 7 0 A D A P R R I I D Z A N F U U R P F P P M 8 8 8 7 8 8 8 = @ @ 6 6 Z                                             6 . . # %.f.f.f.0 @ 6 8 M N M M H P H P R $.R $.R R R R R R R A Z A D W I q.a.d.d.d.T A H M > 6 7 8 8 8 6 6 6 @                                                                           8 . . # M M M 0 9 9 9 Z D S S A D A S S D D D D D D D D D D A A A A 0 9 9 0 P I T 0 . . G                                                                                                                                                                                                                                                                   ",
"                                                                                                                                                                                                                                                                                                                                                                                                                                                                                                                                      l.v.l.J P R P F P J 9 6 > > 0 0 0 N P P P $.0.9.$.$.$.R R R T I R $.P A F F c 8 8 7 6 ; = 6 @ O 9                                             v.v.l.A A D A 0 0 M Z 0 9 0 M F F D F I U I I $.$.$.$.$.$.$.$.$.$.R P P I I P P R R I I T D 9 0 7 > 7 8 @ @ @ @                                                                           l.v.s.O 9 Z 0 9 9 0 M Z N N S D S S A D D D A D S A D D S D D D D A A A A 0 9 9 0 I R R M . . G                                                                                                                                                                                                                                                                   ",
"                                                                                                                                                                                                                                                                                                                                                                                                                                                                                                                                      . . @ d.f.j.F @ 8 7 8 8 6 6 M Z Z A P I I 9.a.0.0.0.0.0.0.0.8.U R $.P A A A 9 7 7 7 @ @ @ @ O @                                             0 . . . R 0.0.$.@ O @ @ 0 M M Z P P L L U R U R %.%.$.8.%.$.%.9.9.%.$.$.R $.R F H P L S Z D M 6 > > 6 6 7 O . . O                                                                         Z . . . > F R F 8 8 8 M D A A A S S S A A S D D D D S D D D D D D D D S Z Z 0 9 9 0 R $.$.M . . G                                                                                                                                                                                                                                                                   ",
"                                                                                                                                                                                                                                                                                                                                                                                                                                                                                                                                      . . > 0.q.d.D 6 9 9 8 8 6 6 M A Z D P I P $.a.0.0.9.w.9.9.9.$.R $.$.P A D A 9 6 8 8 @ @ @ @ . O                                             A . . @ R 9.8.R @ @ 6 6 0 M 0 M L P H L U R U R $.$.%.8.$.%.%.%.9.8.$.$.R R T F F P P F D F M 6 6 6 6 6 6 . . . @                                                                         A . . @ J P I F 8 8 8 c A Z S A D D A D A A D A D D A D D A D D D D D A S Z 0 9 8 0 R $.$.M . . G                                                                                                                                                                                                                                                                   ",
"                                                                                                                                                                                                                                                                                                                                                                                                                                                                                                                                      O . 6 a.d.d.A @ 8 9 8 8 7 7 Z D Z D P I P R 9.9.9.9.9.9.9.0.%.R $.$.P D D A 9 6 8 9 6 @ # O Z W                                             q . . @ %.q.0.%.6 @ 6 6 0 M 0 c F H H H U R R R $.$.9.9.8.%.%.%.8.$.$.$.R R U F H I I F D F M 7 7 6 > @ @ @ @ O                                                                           Z . O 6 P P I D 8 8 8 0 A S S S D A S D A D D A D A S S D D D D D D S S S Z 0 9 8 0 T $.$.M . . G                                                                                                                                                                                                                                                                   ",
"                                                                                                                                                                                                                                                                                                                                                                                                                                                                                                                                      @ . 6 R T I 9 @ 6 6 M M M M F F F H I I I P I I I I I 9.0.e.9.T R $.P S Z N 9 6 8 8 @ . .                                             l.l.s.M M M P d.d.D 9 9 9 9 9 A A N Z P I I I 9.0.w.0.0.0.0.0.9.9.9.8.9.8.%.R U U I D A H F M c M 0 6 8 = O . O                                                                           l.l.s.A A F D M M M M N M M A P P P D A D A S D D A D S D S S D D D D S D S Z Z Z 9 9 8 8 F P I 0 . . G                                                                                                                                                                                                                                                                   ",
"                                                                                                                                                                                                                                                                                                                                                                                                                                                                                                                                      O O > I J D 7 @ @ 4 M Z Z Z F P F J I I P P P I P P I 0.q.e.8.I R R F M N M 8 @ 7 8 o . .                                             . . . Z P J T f.d.9 # 9 l 0 c F F A A I U U U 9.0.0.0.0.0.0.0.9.9.9.9.8.9.9.R I I I D A A A 9 9 0 9 6 8 @ O . @                                                                         E . . . P T T F 9 0 9 M F A Z H I I I F Z A A D D S D A D D D D S D A D A D A Z N N 9 8 7 8 S F P 0 . . G                                                                                                                                                                                                                                                                   ",
"                                                                                                                                                                                                                                                                                                                                                                                                                                                                                                                                      . . > I P F 8 @ @ 1 c Z M Z F J F J I I I I I I I I I 0.q.q.$.P T R D M N Z 7 @ 6 8 . . .                                             . . O Z F Z P d.d.l @ 9 0 9 0 F W A F I I I I 9.9.9.w.0.0.0.0.%.9.9.9.9.9.9.R I U U F A A N 9 9 0 9 6 8 6 @ . @                                                                         s.. . @ J P P D 8 0 9 M D D Z F P P I F S D D D D D D D D A D D D D D D D A S S Z N 9 6 6 6 F I R l . . A                                                                                                                                                                                                                                                                   ",
"                                                                                                                                                                                                                                                                                                                                                                                                                                                                                                                                      @ O > D F A 7 @ @ ; M Z M Z F J F P I I I I P I R R R q.d.e.9.P I I A c M M 7 @ @ 6 A 6 9                                             . O @ P P F J $.%.9 # 9 0 9 0 F P F P R R U U 9.0.0.0.%.%.8.8.%.0.w.9.9.9.9.R I U U F Z A M 8 7 9 9 6 8 8 @ 7 9                                                                         9.. o @ Z D D Z 9 M M Z J F A F I I I F D D D D D D D A A A D D D D S D D A Z Z N M 9 7 7 8 Z D F A Z Z                                                                                                                                                                                                                                                                     ",
"                                                                                                                                                                                                                                                                                                                                                                                                                                                                                                                              A q @ D R R H @ @ @ @ > 6 7 Z D S A P I I I I I I I L H 0.a.q.d.e.d.8.L L L N 0 M M 6 . . 9                                                 F @ 6 9 a.e.e.R @ @ @ 6 N N Z A P U U R 0.0.9.9.0.q.d.0.x x z V e.d.e.0.9.9.9.I P I I S M M 0 ; 6 6 6 6 8 @ .                                                                     F 9 0 9 Z P P A 6 ; ; 9 L P P P R R I R 9.9.9.I P P P D A D A D D D D D D D D D D D Z 9 9 8 M N S Z @ . @                                                                                                                                                                                                                                                                           ",
"                                                                                                                                                                                                                                                                                                                                                                                                                                                                                                                              O . . M 0.8.P @ @ > 6 6 6 7 Z D S D P I I I I I I I H H 0.a.q.d.a.f.0.L P P N l M Z 7 . . 6                                             E G o 8 6 0 f.g.f.$.@ @ 4 8 Z A S A I U U R 0.0.9.0.0.q.d.w.x x x V e.d.d.0.9.9.9.I P I P Z M M 0 6 6 6 6 6 6 @ .                                                                   G . . . . N I P D > @ @ 9 P P P P R R U $.9.0.9.R I I P F S D D D D A S D D D D D D D Z 9 8 7 M A A Z O . @                                                                                                                                                                                                                                                                           ",
"                                                                                                                                                                                                                                                                                                                                                                                                                                                                                                                              @ . . M 9.8.P 6 6 7 6 6 6 7 Z D Z S P I I I U R R U H H 0.0.q.a.d.f.0.P P P Z 0 N D 8 O . @                                             . . . @ @ 9 h.j.j.9.6 @ 6 8 Z Z Z Z P I I U 0.0.9.9.q.d.g.e.i x x x 0.a.q.0.9.0.0.I P P P S M M M 6 6 6 1 @ o . .                                                                   E . O . . Z P P D 6 6 > 9 H H H P I I I R 9.0.9.I P P P D S D D D D A D S D S D D D F Z 9 8 6 N D F Z O . .                                                                                                                                                                                                                                                                           ",
"                                                                                                                                                                                                                                                                                                                                                                                                                                                                                                                              @ . . D 0.0.T 6 6 6 7 8 8 8 Z D S A P I I U $.$.$.U H H 9.0.q.d.d.f.9.H L P M 0 M Z 8 . . E                                             O . @ 7 6 0 a.d.d.R 6 6 8 9 A D A A P U U R 0.0.0.0.0.e.e.&.x V V V 0.a.d.0.9.0.0.I P P L N c M 0 6 6 6 @ O . A %.                                                                  Z o 8 7 7 A H F D 9 9 9 0 J P L P R T I R %.9.8.I P P P F D D D D D D S D S D D D D D M 9 9 9 A F F D O . 0                                                                                                                                                                                                                                                                           ",
"                                                                                                                                                                                                                                                                                                                                                                                                                                                                                                                              @ . 9 I 8.0.I 4 6 6 0 M c c F H F F T $.R $.$.8.$.R I V w.d.e.e.d.d.R A D H 0 8 0 0 @ . 0                                           O O . . D $.$.R 9 q q 9 Z Z M M H P P I $.9.9.0.d.d.d.d.V i a x e.g.d.e.d.d.g.8.U $.$.P D D A c 0 0 9 6 6 6 O . 8                                                                   @ @ . P d.d.0.0 6 6 9 S A N D $.$.R $.0.0.0.I D H F P U I T P P P P D D D D S S D Z 9 0 9 8 8 A F 0 8 9 7 . 6                                                                                                                                                                                                                                                                             ",
"                                                                                                                                                                                                                                                                                                                                                                                                                                                                                                                              @ . l I $.%.P 6 6 6 0 Z c c D H H H R $.$.$.9.9.$.$.I V w.d.q.d.d.d.R A D F M 8 9 9 o . G                                           . O . . J $.$.R 6 1 6 8 D A M N J I I I 9.9.9.0.d.f.f.g.x u u i d.k.g.g.d.d.g.%.I R $.F D D S 0 0 0 9 6 6 7 o . 9                                                                   . O @ R f.d.a.0 @ 6 8 D F Z F $.$.$.8.0.0.a.I A D A P I I T I P P P D D D D A S D N 9 9 9 6 7 A F 9 6 > # @ F                                                                                                                                                                                                                                                                             ",
"                                                                                                                                                                                                                                                                                                                                                                                                                                                                                                                              @ . 7 L $.$.P 6 6 6 0 M 0 0 A F F H R $.$.$.%.9.8.0.$.K %.q.q.a.q.d.R A H H N 9 9 9 o . c                                           . . . . P 0.8.$.6 1 6 8 D Z M M H P I P $.9.8.9.d.f.f.g.x e e t q.g.g.f.g.g.g.8.I R $.F A D A c 0 0 0 8 8 8 . . @                                                                   . . @ T g.d.q.9 @ 6 8 D D M D 8.8.8.9.q.q.d.I M M M P R U R I P P P F D D D D A D Z 9 9 9 6 > Z A 9 ; . 7                                                                                                                                                                                                                                                                                 ",
"                                                                                                                                                                                                                                                                                                                                                                                                                                                                                                                              @ @ M F P R P 6 6 6 0 Z M 0 D L H L R $.$.%.9.9.0.$.Y H $.0.q.q.q.a.U A F P Z 9 7 7 . .                                             o 7 7 > J R R I 6 6 8 9 D D S A I U I I $.0.9.0.d.f.g.d.x t t x e.g.g.g.f.f.f.8.I I I Z N S Z 0 9 0 0 6 6 6 E s.s.                                                                  @ 6 9 F R $.R 0 8 9 0 D D A F $.%.$.8.d.d.f.$.D D F L P I I P P P J D D D A Z Z Z M 9 8 7 7 0 N N > O . A                                                                                                                                                                                                                                                                                 ",
"                                                                                                                                                                                                                                                                                                                                                                                                                                                                                                                        6 9 @ Z I R D M S M 8 6 6 Z J D A I U I I $.8.$.9.9.0.0.k i w.q.0.0.0.0.0.P N A F 0 @ @ @ .                                         Z 8 @ J 0.9.9.0 @ 3 3 9 0 0 N P P L I 0.0.9.9.a.d.d.a.w.q.d.#.V #.I U d.g.j.g.0.9.0.R H H D 0 9 0 0 8 6 8 8 @ . @                                                                 8 . 6 0 I R $.M 6 9 9 N D F F P P P P F F A P f.f.d.d.f.g.g.P M D D A A A A A S A M 0 0 0 9 6 8 9 0 M 0 9 O . . G                                                                                                                                                                                                                                                                                 ",
"                                                                                                                                                                                                                                                                                                                                                                                                                                                                                                                        . . O R $.$.P Z S M 8 6 6 Z P F D I U I U $.$.$.8.9.0.0.i i q.e.0.q.0.w.0.P Z D F 0 @ @ # .                                       9 O . o P a.w.0.0 @ @ @ 9 c 0 M P P I U s.s.0.0.q.d.d.0.V I $.| | 8.$.$.d.g.g.g.0.9.0.R H H D 0 9 0 0 8 6 8 8 @ . @                                                                 Z . . N I T %.M 6 9 9 Z A A F I P P H A A N F q.q.0.d.j.z.k.P M A A A A A A S S S N 0 0 0 q 6 0 F N 9 9 9 O . . G                                                                                                                                                                                                                                                                                 ",
"                                                                                                                                                                                                                                                                                                                                                                                                                                                                                                                        . . = $.9.9.P Z D M 6 6 6 Z F D D I R U U $.8.8.9.9.0.q.k i q.q.0.0.0.w.0.P N A F 0 @ @ @ .                                       . . o o P q.w.w.0 ; 6 6 0 0 0 c H P P U 0.s.0.0.q.d.d.&.x H R V | &.$.$.f.g.g.f.9.9.0.R L L F 0 9 0 0 8 6 8 8 O . 0                                                                 6 . 6 R $.P M 9 7 9 0 A A S A I P P F A A M D 0.0.0.d.k.k.j.P N D D A Z Z A S Z Z M 0 0 0 8 4 8 D N 9 0 0 O . . A                                                                                                                                                                                                                                                                                 ",
"                                                                                                                                                                                                                                                                                                                                                                                                                                                                                                                        . . 6 d.d.d.I N A M 6 @ @ M F D F R $.U R 8.9.%.9.w.q.e.k i d.d.q.q.0.0.q.P N A F 0 6 6 # @                                       . . . . P d.q.q.M 6 7 7 0 l 0 c H P L I 0.s.0.0.d.d.d.9.x H I V V w.$.8.g.g.g.d.%.9.0.$.P P H 0 9 0 9 6 6 8 6 @ 1                                                             . . . . . 0 0.d.A . @ 7 9 0 A A S D I I P H Z N 0 A w.0.w.d.j.k.z.I Z A A M M Z Z Z Z Z M 9 9 0 8 @ 6 S M 0 M 0 8 8 6 E                                                                                                                                                                                                                                                                                 ",
"                                                                                                                                                                                                                                                                                                                                                                                                                                                                                                                        . . 7 g.f.f.D 6 9 8 8 8 6 M H H P 9.0.9.8.R R R I x x x V &.g.f.f.q.8.$.8.H c N Z 9 @ @ @                                   v.v.6 > Z Z A Z A A D M 0 0 0 Z Z M N P I I R 0.0.0.0.w.w.w.$.f a i i #.h.h.h.d.d.a.9.I I $.I F F A 9 8 9 9 @ O @ 6                                                             v.W O O = D F R R J M > 9 M M A I I P I R R R U P F D A H H F $.g.g.g.0.9.8.$.P H P P A Z S M 8 8 6 7 7 9 M 9 @ @ 9                                                                                                                                                                                                                                                                                         ",
"                                                                                                                                                                                                                                                                                                                                                                                                                                                                                                                        . . 6 d.d.a.M # @ 6 0 0 8 A P P I s.a.s.0.R I R K e e e #.k.g.g.g.q.$.$.$.A 0 0 M 7 . . 8                                 A . . . A 0.%.8.0 @ 4 @ M Z Z Z F D Z A T R $.$.9.w.0.q.&.#.$.Y i e e e w.z.c.z.a.0.0.$.H H I F Z S Z 9 7 9 7 . . .                                                             . . . @ @ 9 0.a.f.T 9 0 0 Z D F P $.%.$.$.R $.$.$.U I I F c c c T f.d.d.g.j.g.f.$.I $.$.D Z A M 6 6 4 7 M M Z 6 . . 9                                                                                                                                                                                                                                                                                         ",
"                                                                                                                                                                                                                                                                                                                                                                                                                                                                                                                        . . > a.q.d.M + @ 6 0 0 9 A I P P 9.0.0.0.$.U $.K t u e #.f.g.f.g.d.$.$.$.A 9 0 c > . . 8                                 F . . . A 0.R R 9 @ 6 6 0 M M M D D A F R $.R $.w.0.0.q.| ^ | n i u e e &.k.x.x.d.a.s.9.P H P D M S D 9 8 9 9 O . . 4                                                           . . O o . 6 $.w.q.I 0 M 0 Z D D W $.$.$.R $.$.R R I I I H M Z Z R g.f.d.f.d.d.d.$.I $.R D M Z M 7 6 6 9 Z M Z > . . 8                                                                                                                                                                                                                                                                                         ",
"                                                                                                                                                                                                                                                                                                                                                                                                                                                                                                                        . . = d.q.d.Z + @ 6 0 0 9 A I P P 9.0.s.a.$.$.$.K u u e #.d.f.f.g.e.%.$.$.A 9 0 c @ . . 8                                 G . . . A 0.$.R 8 O @ @ 9 c 0 M D F D F $.$.R $.0.0.0.0.! ! ! ! i u e e &.k.x.x.d.s.a.0.P H P A M Z A 9 8 0 0 O . . @                                                           . . o O . @ $.9.0.P 9 M 0 Z A A F R $.R R R R R R I I I P Z A Z R g.f.d.d.d.e.d.%.U $.$.F M Z M 6 6 6 0 D S S > O O 0                                                                                                                                                                                                                                                                                         ",
"                                                                                                                                                                                                                                                                                                                                                                                                                                                                                                                  v.v.R A D D P J P 9 @ 1 6 l c 0 D I I P %.w.w.#.#.0.q.#.i e e #.g.h.h.g.0.$.$.$.A 8 0 0 @ . . 8                           v.v.l.D M Z N N M l 0 > @ 6 6 0 M M Z P P P I 9.%.$.$.8.w.0.#.i i ! ! | *.| K e.j.j.j.9.8.0.9.P D A 0 8 0 0 9 8 0 9 O . l.                                                      v.v.s.7 7 A I P A 0 M M Z D F D P P P P R $.$.$.R R $.R P P P P P P P P I P P $.9.8.9.R U R R Z 0 0 8 @ 7 9 0 9 6 8 P                                                                                                                                                                                                                                                                                               ",
"                                                                                                                                                                                                                                                                                                                                                                                                                                                                                                                . . . P g.f.0.0 9 0 6 6 6 8 N Z M D I P I $.9.$.i V g.g.q.i e e &.x.h.j.d.8.R $.$.D 8 9 0 @ . . 8                         F . . . R a.0.a.Z O @ O 6 9 9 0 M A S D U U U $.9.9.$.8.w.&.8.K u i i i r.k.g.f.g.g.j.f.R R 8.R F S N 8 = 6 7 8 8 9 7 . o                                                         . . @ F A 8.k.z.R @ @ @ M T I I U R U R $.9.8.9.$.$.$.U F F F I $.$.U D 0 c c P $.R R I I T T M 9 9 @ @ 8 M 9 . . O s.                                                                                                                                                                                                                                                                                              ",
"                                                                                                                                                                                                                                                                                                                                                                                                                                                                                                                @ . O I d.e.9.Z M M 7 @ 6 8 N Z M D P L I $.9.$.t x a.d.w.i u u &.k.g.g.a.$.R $.8.F 9 0 c > . . 8                         E . . o T 9.$.9.Z @ 6 1 8 9 0 9 M Z N A I U U R 9.9.9.$.#.w.8.K u i i i &.g.e.e.h.h.h.d.R R %.$.F A A 9 6 6 7 8 8 9 8 . .                                                         . . 9 P P J J P A 7 6 6 M P P P I R U U $.%.8.$.U I P P D F F P U U I D M Z N I $.$.$.U I I I M 9 9 6 7 9 0 7 . . O s.                                                                                                                                                                                                                                                                                              ",
"                                                                                                                                                                                                                                                                                                                                                                                                                                                                                                                @ . O I e.0.$.M M M 7 @ 1 q D A N H I L P 8.0.8.i x a.g.e.i u u &.z.j.g.q.$.R R 8.J 0 0 M ; . . 6                         s.. . O I 9.9.0.A @ 6 6 9 0 0 9 M N M N P I I R 0.0.a.#.| w.w.K e u u u *.h.e.e.g.j.h.d.R R %.$.F A A 9 6 > 9 9 8 9 8 @ @                                                         . . Z a.a.A 7 8 9 0 0 7 M L P P U $.U U $.%.8.$.P L D L P P I I U U U F Z Z M I 8.8.8.R I I I M 9 9 7 9 9 0 7 . . @ s.                                                                                                                                                                                                                                                                                              ",
"                                                                                                                                                                                                                                                                                                                                                                                                                                                                                                                @ . O 8.g.f.8.@ @ @ = > 6 9 D A N D H F D x x x t K a.d.w.i u u &.z.h.g.a.R I I $.D 8 9 9 @ .                           0 Z c M M N M M Z c 9 0 9 N Z M l A D D D P I U Y V | | ^ e.j.g.&.e e x *.e.h.h.h.d.d.d.0.P P I I M c c 0 8 8 0 @ O O E                                                       l.l.0 < 9 M D D N M M A I P H P R R $.w.0.9.%.%.$.%.$.R R R R 9.0.0.9.$.$.%.T P J H J P P P D M Z M 8 6 7 6 7 7 8 @ . E                                                                                                                                                                                                                                                                                                   ",
"                                                                                                                                                                                                                                                                                                                                                                                                                                                                                                                @ . O 0.j.g.%.. . O @ 6 > 9 A A Z A D A N w e e i 8.a.q.&.i u u &.k.h.g.d.R H P I M ; 6 7 @ .                       . . . M I I I 9 @ @ @ 9 M M 0 A D A Z P I P I I I T K i u u i x.c.c.e.e e *.c.x.h.x.j.a.0.0.8.H H L F 9 9 9 0 0 0 9 . . .                                                       O . . 9 P P 9 @ 6 0 D D P U I P R 9.9.0.a.a.a.0.%.$.%.9.9.9.%.9.9.0.0.9.9.9.9.$.I I I F Z A Z 0 8 8 7 @ @ > 7 1 6 6 . .                                                                                                                                                                                                                                                                                                     ",
"                                                                                                                                                                                                                                                                                                                                                                                                                                                                                                                @ . O 9.g.d.R . O @ @ 6 6 8 Z Z Z D F F A y e u i w.d.a.&.i u e &.k.g.j.d.$.P I I M @ 6 6 @ .                       . . . M J F F 0 > 6 6 8 9 0 0 Z D A S P I I P I I I K i i i i x.c.c.e.u e *.j.h.h.h.g.d.0.a.0.P L L D 9 9 0 0 0 0 9 . . O O                                                     6 . . M P D 9 6 7 0 Z Z A I P L I $.8.9.0.0.0.0.8.%.8.8.$.$.$.9.9.9.9.9.9.8.%.R I I I F A A Z M 0 9 9 > @ 8 9 6 6 6 O .                                                                                                                                                                                                                                                                                                     ",
"                                                                                                                                                                                                                                                                                                                                                                                                                                                                                                                o . O $.g.e.$.O O @ @ 6 6 8 N Z Z D W W D t e e u &.g.a.&.i e e #.z.j.x.g.$.P P P 0 @ ; 6 @ .                       . . . M J F F 9 @ 6 6 6 9 9 9 N D D S I U Y Y R U T K t e e i x.v.v.h.i u *.j.h.g.g.g.a.0.d.a.I P P D 8 7 9 0 M N 0 . + O                                                       6 . . M I P 0 6 6 9 M M N L L H I %.%.8.9.0.q.0.9.9.%.$.R R R %.9.9.9.9.9.9.$.R I I I D Z Z N c 0 0 0 @ @ 0 0 6 8 6 @ O                                                                                                                                                                                                                                                                                                     ",
"                                                                                                                                                                                                                                                                                                                                                                                                                                                                                                                . . . H $.$.I o o o = 7 6 7 l l M z x x z V V x V $.0.0.#.i e e #.h.g.g.d.$.P P L 0 @ @ @ O .               l.l.l.E 7 7 7 9 9 8 9 9 8 8 7 9 M M M F P P P L H L H x x x z K K #.V e.c.c.h.i u *.k.h.d.d.f.0.9.0.0.P F D M @ 6 0 0 9 7 9                                                       l.l.s.l 0 0 M A A Z M 0 N F F J R R R $.9.9.9.q.d.f.f.0.9.9.8.w.w.0.w.9.9.9.9.$.$.R P F J J Z M M M 8 6 7 7 @ > 7 6 @ # 0                                                                                                                                                                                                                                                                                                         ",
"                                                                                                                                                                                                                                                                                                                                                                                                                                                                                                                . . . M F P F & * & > 8 8 7 d z 9 y e e t Y R I I $.$.8.I e e e #.a.q.q.q.R F J P 0 @ @ @ O .               . . . > F D A @ O O @ 9 0 0 9 M A A A I U $.$.D N S N u e e y a.g.g.#.*.c.z.e.u u *.k.g.q.a.a.9.%.0.8.D Z Z 9 # > M 8 6 @ +                                                     @ . . @ P I P M 0 M F L A H U I R 9.0.0.0.0.9.9.d.g.j.j.a.9.9.9.d.f.d.q.9.w.0.9.R R R P S D D M 0 0 0 6 @ 6 > 6 6 > @ . . Z                                                                                                                                                                                                                                                                                                         ",
"                                                                                                                                                                                                                                                                                                                                                                                                                                                                                                                . . . M P I P = * & > 8 8 7 7 9 9 y e e t H U P P $.$.8.I e u u #.g.q.0.0.R F P P M @ @ @ O .               . . . 7 D Z Z > @ @ @ 0 0 0 9 0 Z N Z P U U U D A D A i u e y q.f.d.#.*.z.z.e.e e #.x.g.a.d.d.9.9.0.8.D N Z 0 o > M 8 6 @ O                                                     0 . . @ F F F M 0 M F F Z H I I R 9.0.0.0.0.9.%.d.g.g.j.a.9.9.9.d.f.f.q.0.9.0.9.U R R P D D D M 0 0 0 8 6 6 7 7 6 6 O . . 0                                                                                                                                                                                                                                                                                                         ",
"                                                                                                                                                                                                                                                                                                                                                                                                                                                                                                                . . . M P I H = & & > 8 8 7 , 7 7 r e e e H P L L $.$.8.#.u u u #.g.q.0.0.U D P I M @ = @ + .               . . . 7 D A N ; @ @ @ 0 0 0 9 0 Z N N P U U U D A D N u u u a d.g.d.#.&.z.z.e.e e *.z.x.d.f.g.0.9.9.$.Z M N 0 @ 7 N 7 @ O O                                                     A . . = D A A 0 9 c F D S L U U R 9.9.0.0.0.0.9.d.g.j.j.q.0.9.9.f.f.f.q.0.0.0.9.U U R P F F D M 0 M M 8 6 6 7 7 6 @ O 8 8 E                                                                                                                                                                                                                                                                                                         ",
"                                                                                                                                                                                                                                                                                                                                                                                                                                                                                                          8 F Z J J H M M Z 0 = = = - y y y r r r z B z N R R T R %.%.$.Y x x x V | V V V H D F I M @ 3 3 @ .       W W E A @ 6 @ 7 7 7 < & = > 6 0 0 M H L H H H z z z f f i i x #.#.#.#.g.g.g.#.k | V x e e &.k.f.d.d.d.$.I I H 9 8 9 9 0 M D 7 O . O                                               6 O 9.M 0 0 M A N M A D J R 8.R $.9.$.9.w.0.9.0.g.g.g.g.g.j.g.g.g.g.d.0.0.0.9.$.$.$.T L P P D Z Z Z 8 6 8 8 6 6 6 6 @ O . s.                                                                                                                                                                                                                                                                                                              ",
"                                                                                                                                                                                                                                                                                                                                                                                                                                                                                                        @ . O A d.w.9.M 8 0 8 = > = * e t e e e e N W D W 9.9.8.9.9.%.R I H N N f u i t t N F F P c @ 3 6 @ .       O O O @ 0 9 7 7 @ o o & > 7 8 0 0 N R U I I P y e w w u i u i d.g.g.g.k.g.k.Y e u u u u u *.g.a.a.a.a.P D H A 6 6 6 8 Z Z F 7 . . @                                             Z . . . Z J F A Z N M F I I 0.a.s.0.0.0.9.0.0.9.e.j.x.k.j.h.h.h.j.x.x.g.9.9.0.$.I I I P F F F Z M M 0 6 @ 6 6 6 > > @ . . .                                                                                                                                                                                                                                                                                                                 ",
"                                                                                                                                                                                                                                                                                                                                                                                                                                                                                                        @ . . D a.9.9.Z 9 c 9 = = 1 * e w t e e e z W D F 9.9.8.9.8.%.I H K V H f u i i i K P F P 0 @ @ 6 @ .       O . . @ 9 8 8 7 = o & & 6 6 7 0 9 Z R R T U I a e w w e e e i 0.d.q.d.j.k.k.#.e i i i u u *.g.d.a.a.0.P H H D 7 7 8 8 M Z F 6 . . .                                             A . . . M D A A N N M D P P 9.0.0.0.0.0.0.9.9.9.q.j.j.j.j.j.j.j.j.j.k.g.9.9.0.9.U U U P F F F A M M c 6 @ 6 6 6 6 > @ . . . l.                                                                                                                                                                                                                                                                                                              ",
"                                                                                                                                                                                                                                                                                                                                                                                                                                                                                                        @ . . F d.0.0.Z 9 M 9 = = @ * e w t t u e N W D F 8.0.9.9.9.$.P H Y Y Y x u i i i K P F F 9 @ @ 6 @ .       . . . @ 8 8 7 7 = & & & 6 7 6 9 8 M R R R R I a e e e e e e a 0.a.a.d.j.j.k.Y e u i i i u #.g.a.s.0.0.P H P H 8 8 8 9 M Z A ; . @ Z                                             Z . . O M A A A S Z N H P P 9.0.9.9.9.9.0.0.0.9.d.j.h.k.j.j.j.j.j.j.j.g.9.9.0.%.I I I P F F F Z M M M 6 @ 6 6 6 6 @ @ @ A Z                                                                                                                                                                                                                                                                                                                 ",
"                                                                                                                                                                                                                                                                                                                                                                                                                                                                                                      S . o @ F 8.R R 0 @ 6 = r r * r w e y N N N P U P P 9.0.0.0.R I P P $.8.9.K u i i i x F A N 7 o @ = @ . @ 9 @ . X . 7 0 l M , - = > 7 7 > 7 M A N i x j j j V N B N Y #.I $.k.x.z.z.d.a.a.K e i u k #.*.$.9.8.$.$.$.F Z D S 9 8 8 8 9 8 8 # @                                           O E E 0 9 8 9 N A A F I I P R 9.9.0.0.9.9.9.9.q.h.j.k.j.j.j.h.j.j.x.x.d.a.q.0.R R R I H L P F Z Z D 0 6 6 7 6 6 6 6 @ O . .                                                                                                                                                                                                                                                                                                                       ",
"                                                                                                                                                                                                                                                                                                                                                                                                                                                                                                      6 . < < F $.R R 9 @ @ = w w w w e e y D D D U $.U I 9.0.0.0.$.$.T T 9.0.a.#.u i i i i A N M 7 o @ @ O . . . . o & X 7 M M Z 7 > 6 6 l M M M F L B e u u u t K R I P 0.a.0.q.x.z.c.z.a.0.a.K e i u x 0.0.$.R $.$.$.$.F Z A Z 0 8 8 8 7 6 6 O 8                                         s.. . . Z A M M A A A P $.$.R 9.s.s.0.0.9.9.9.9.a.x.x.z.k.j.j.j.j.j.x.x.a.0.0.9.U U R I F H H D M Z S 9 1 4 4 6 6 6 7 O . . O                                                                                                                                                                                                                                                                                                                       ",
"                                                                                                                                                                                                                                                                                                                                                                                                                                                                                                      6 X > > H $.R R 9 @ @ = w w w w e e y A D S P $.U I 9.0.9.0.f.f.f.e.0.0.a.#.i i i i i N N N 7 o @ @ O . . . . . & $ 7 M M M 7 > 6 ; N L L H H F N e e t t i Y R I I 9.0.9.9.k.j.x.j.0.0.a.K u i u f $.$.$.$.$.$.$.$.F S A Z 9 8 8 9 9 7 7 O @                                         l.. . @ Z A M N D D S J R I I 9.s.s.0.0.9.9.9.9.a.j.j.j.j.j.j.j.j.j.j.x.d.0.0.9.R R R I H H H D M Z Z 0 6 6 6 6 6 6 6 O . . .                                                                                                                                                                                                                                                                                                                       ",
"                                                                                                                                                                                                                                                                                                                                                                                                                                                                                                      @ . @ > F $.R U 9 @ = = w w w w e w y N S N P R I I 8.9.9.9.f.g.g.g.q.0.a.#.i i i u a N M M 7 @ @ = o . . . . o & X 7 l l M 7 6 6 = N F H J P P N e e w w t H R I I 0.a.0.9.h.j.j.g.9.9.a.#.i i u j $.$.$.$.$.$.%.9.W S A N 9 8 8 9 0 9 9 @ A                                         E . . @ Z Z M Z D D Z F I I I 8.s.0.0.0.0.9.9.9.a.k.j.j.j.j.j.j.j.j.j.j.d.0.0.0.$.R $.I H H H D M N Z 9 > 6 6 8 6 6 @ @ 9 8 8                                                                                                                                                                                                                                                                                                                       ",
"                                                                                                                                                                                                                                                                                                                                                                                                                                                                                                      @ D H J D Z Z Z - * * r t e t d 7 7 z D F D I $.$.$.q.d.e.d.g.g.h.f.0.0.a.w.x a s a y t y y * o & & X . X X - z 9 6 = = < < - = 6 @ , z g z F W A z z V V K $.0.0.0.g.j.g.f.j.j.j.g.$.#.w.#.| V V K 8.%.$.$.U U $.R M 9 9 9 Z S S M > @ .                                             0 @ 6 9 A A Z A P I P I R $.$.9.0.0.0.0.0.d.g.g.h.j.j.j.j.j.j.j.j.h.j.g.9.$.9.$.P P I L N Z N 0 6 7 8 6 @ > 6 ; o O @                                                                                                                                                                                                                                                                                                                               ",
"                                                                                                                                                                                                                                                                                                                                                                                                                                                                                              @ . . . 8 %.$.%.D 8 9 0 * w * r t t t d 0 0 M L L H U 9.%.%.f.h.g.g.g.g.g.f.9.0.0.q.V g B z r e e e % $ $ % $ X X X z M 0 9 = o @ @ % * = ; * w w r S S S S W U R $.0.a.a.a.j.z.x.x.j.j.j.g.w.w.e.e.U R T R 9.%.%.R I I R U 9 6 7 8 D P P Z @ . .                                       . . . > 0 9 M A A Z A I R U R 9.9.9.0.0.0.0.0.0.g.x.x.x.j.j.j.j.j.j.j.j.g.h.g.$.R $.R H H L D 0 0 c 8 @ @ @ ; = @ 3 @ . . @                                                                                                                                                                                                                                                                                                                               ",
"                                                                                                                                                                                                                                                                                                                                                                                                                                                                                              9 . . . 7 $.$.$.A 0 0 c - % * r t t t d 0 9 0 H H D P $.$.8.g.j.g.g.g.g.g.f.9.9.9.9.C g f f w e t t w $ $ % X . . . 7 M 0 0 = @ @ @ * * = = r w w r N S S Z F I I T 9.0.0.9.g.x.j.j.j.x.j.j.d.f.h.e.P I P I 9.%.%.$.U U $.U 9 6 9 0 F W F Z @ . .                                       @ . . 7 9 9 c Z Z M N P U I R 9.9.9.9.9.0.0.0.0.g.x.j.j.j.j.j.j.j.j.j.j.g.j.g.R R $.R L H P F M M M 9 @ > 6 6 6 @ @ O . . @                                                                                                                                                                                                                                                                                                                               ",
"                                                                                                                                                                                                                                                                                                                                                                                                                                                                                              9 . . . l 8.$.8.F 0 c c y w * w t t t z 0 9 0 H H D P $.$.8.g.j.h.g.f.f.f.e.9.8.9.9.V g C B r u t i w $ $ $ X . . . 7 M l 9 = @ @ = & * = > y t r - N S S N F I U T 9.0.0.9.g.x.j.j.j.x.x.j.f.d.g.0.L P P I 9.%.%.$.I I U U 0 6 8 9 D F F Z @ O .                                       @ . O 9 0 0 M Z N M N P U I $.0.0.9.0.0.0.0.0.0.g.k.j.j.j.j.j.j.j.j.j.g.g.g.f.R R $.R H H L D 0 0 M 9 ; 6 6 6 ; @ @ O 6 9 0                                                                                                                                                                                                                                                                                                                               ",
"                                                                                                                                                                                                                                                                                                                                                                                                                                                                                              9 . . > $.8.$.8.Z ; 6 > r t t t w , - l Z M N I I P $.0.0.0.g.j.j.h.0.$.$.$.8.9.8.9.H H U $.V e e i % X . . $ r r r l M r e & @ @ = 7 0 0 0 N N M M H L H F I 9.9.8.9.9.9.w.j.x.j.j.j.x.x.x.0.9.w.9.$.$.$.$.$.%.9.%.P H L F 8 6 6 9 D D F Z O . .                                     9 9 9 0 A A Z A P P L P $.9.9.9.0.0.0.9.9.0.j.j.k.k.j.j.j.j.j.j.h.j.h.j.d.0.9.9.P L I L N N Z c 6 6 4 > 6 6 8 @ . . .                                                                                                                                                                                                                                                                                                                                       ",
"                                                                                                                                                                                                                                                                                                                                                                                                                                                                                              6 . . 7 8.%.$.8.Z = > = r t t e r > = 9 N M Z I U I $.0.0.q.g.j.j.h.9.$.$.%.9.9.9.9.I H R 0.K e t i w X . . $ y w w z c r e & @ = & 7 0 0 c S S S S J P P H I 0.9.9.9.9.9.w.j.x.j.j.k.x.x.x.0.%.9.9.$.$.%.9.9.8.9.8.L F F F 8 6 6 8 Z A F Z O . O                               E . . @ 0 9 c D D A A P I I U 9.9.9.9.9.0.9.9.9.0.x.z.j.j.j.j.j.j.j.k.h.h.k.j.d.w.0.9.P H P H M M Z 0 @ 6 4 ; 6 6 7 @ . . .                                                                                                       O . . . . . . . . . . . . . . . . . . . . .                                                                                                                                                                                     ",
"                                                                                                                                                                                                                                                                                                                                                                                                                                                                                              8 . . > $.$.$.8.N @ > > w t t e t r r 7 M c N I U I $.0.0.0.g.h.j.h.9.R $.$.9.9.9.9.I H I 0.V w e u w X . . $ w w w z c * w & = = & 7 0 9 0 N Z Z A H J H F I 0.9.%.%.$.%.9.j.x.k.k.j.j.x.k.0.9.9.9.$.$.$.8.9.9.9.$.F D F F 7 6 6 7 S F P A O O O                                 . . @ 9 8 0 A D Z A P I I R 9.9.9.9.9.9.w.9.8.0.j.j.k.k.j.j.j.j.j.j.j.j.j.j.d.0.0.9.I H P H M N A 0 ; 6 6 6 3 = 6 @ . . .                                                                                                       6 . . . . . . . . . . . . . . . . O . . . .                                                                                                                                                                                     ",
"                                                                                                                                                                                                                                                                                                                                                                                                                                                                                              l . . 7 U I U R M = < = w u e e r y - 9 Z M A R R U 8.q.q.q.g.h.h.g.0.9.9.w.9.8.9.9.I H I 0.V % r e w $ X X * y p r z 9 & $ = = = & 7 0 0 c Z A A A P P L H U 9.9.9.9.9.0.0.j.x.x.x.x.x.x.j.0.8.9.8.$.$.%.9.9.8.9.R A A D A 7 6 6 8 S F W Z . . O                               E . . @ 9 9 M F F D F I I I R 0.9.9.9.9.9.9.9.9.0.k.j.j.j.j.j.j.j.j.j.h.g.g.j.q.9.9.9.P H L H M M Z 0 4 6 6 6 > @ ; @ . . @                                                                                                       6 O o o o O . O O . O O O o @ O O @ @ @ @ .                                                                                                                                                                                     ",
"                                                                                                                                                                                                                                                                                                                                                                                                                                                                                        6 7 7 0 0 7 M P M M Z , w w w t t e w > 6 > M P H P $.$.R q.g.g.f.g.g.g.g.g.j.k.h.$.U R R R U I I A 9 l y % % % % z W A A < = ; @ @ = @ @ 0 A N Z F F D F I U U I $.9.9.8.f.j.j.j.x.x.x.x.x.x.x.g.%.%.9.9.9.9.9.9.R R R I M M M M 8 8 8 9 - y d < . . O                             8 > 6 6 9 Z Z F $.$.$.R U U $.9.9.9.9.9.9.9.9.d.g.g.j.j.j.j.j.j.j.j.j.j.d.0.0.0.$.U U I A Z A Z 0 9 8 6 6 6 6 6 6 @ @ . . . G                                                                                                 8 @ 9 6 M J A A 0 6 8 8 8 9 9 6 6 Z A M I $.F M = @ 6                                                                                                                                                                                 ",
"                                                                                                                                                                                                                                                                                                                                                                                                                                                                                      v.. . . 0 M 9 A P M M M - w w w t e e w = = @ M P H P $.%.R e.h.g.g.g.g.g.g.g.j.x.j.$.I U R R U I I D 0 N a w % % % z W A A - o @ @ ; > > @ M A Z A F F F F I $.R U $.9.9.9.g.x.j.j.x.x.j.x.k.j.j.f.%.%.9.8.8.9.9.9.$.U R I N M M M 9 9 9 7 * w r - . . .                       . . . . 6 8 6 9 N Z F $.%.$.R I U $.9.w.9.9.9.8.9.9.g.x.j.j.k.j.j.k.j.j.h.h.j.d.0.0.0.R I I P N M N N 0 8 6 6 6 6 6 6 6 6 @ 6 0 9                                                                                                 @ . @ 8 8 Z I F F 0 6 8 9 9 9 9 1 @ D P A $.8.F 0 6 . . .                                                                                                                                                                               ",
"                                                                                                                                                                                                                                                                                                                                                                                                                                                                                        . . o M N 0 A U Z S A d w w w t e e r @ = @ M L H P $.$.$.d.j.g.g.g.j.j.g.g.g.j.g.$.I U R R U U U H M N i w % % $ z D Z N - o @ @ ; 6 6 > N F Z S D D F F P $.R U $.9.9.9.f.x.j.j.x.j.x.j.j.j.j.g.8.8.8.8.9.9.9.0.$.$.$.U A N Z N 9 9 9 7 * % * - . X O                       . X X o 7 8 ; 8 M M Z R %.R R I I $.9.0.0.9.9.0.0.q.h.k.j.j.j.j.j.j.j.j.j.g.h.e.9.0.0.$.U U I Z M A Z 7 6 > > 6 6 6 6 8 > @                                                                                                       @ O 7 9 7 Z P F A 0 6 8 8 8 9 9 4 4 A J A $.%.A 9 7 O . .                                                                                                                                                                               ",
"                                                                                                                                                                                                                                                                                                                                                                                                                                                                                        . . @ I R I H z 9 0 9 r w w w r - - , 0 9 7 N P P P $.$.$.0.g.g.g.j.j.j.g.g.g.g.d.I I U I U R R R P H L V r % w w d 9 9 9 < > 6 7 @ o o o N I F D L L L P R $.$.$.9.9.9.0.g.k.k.j.k.x.x.j.k.g.g.g.0.9.8.9.0.9.0.0.R P I P 0 9 0 9 9 9 9 7 & $ & & . X .                     0 . 6 7 7 N J A D J J P I U I U $.$.9.9.0.0.%.q.g.j.j.k.j.j.j.j.k.j.j.k.k.q.0.0.9.$.%.9.U P P H M 0 0 9 6 6 > @ 6 > 6 6 = @ O                                                                                                     0 @ > Z A D A Z M 9 9 8 8 9 0 M M 0 0 l Z M F P A Z Z = . .                                                                                                                                                                               ",
"                                                                                                                                                                                                                                                                                                                                                                                                                                                                                        . . @ R 9.9.K - > > = r e e e - 6 6 7 A Z M D I I U $.$.$.$.q.g.g.j.k.j.j.h.g.g.q.P I I L I $.$.$.U P U U d $ e e - 7 < , 7 9 8 0 @ . X X N I J H P P P I 8.9.9.9.9.0.9.0.j.x.k.j.x.x.x.x.k.g.g.f.0.0.0.0.9.9.9.9.P F P D 7 6 6 6 9 9 0 6 $ X $ X . . O             @ @ @ @ . + 0 Z c P 8.R $.$.$.R H H P U 0.0.9.0.w.w.9.q.j.j.j.j.j.j.j.j.j.k.j.x.g.9.$.$.R R R R H A D A 9 6 7 7 6 6 > 6 4 > 6 @ . . @                                                                                                 @ @ # 6 9 D F P D 9 9 7 8 9 9 9 M S S A Z 9 8 9 M F D A F 7 . .                                                                                                                                                                               ",
"                                                                                                                                                                                                                                                                                                                                                                                                                                                                                        . . @ I R R K - = > = r e e e - 6 6 7 Z Z M D I I I $.R R U 9.g.g.j.k.j.j.h.g.h.e.I I I L I $.$.$.U P I H * X % w - 9 7 z 9 9 9 9 @ . . . N I F H P P P I $.9.9.9.9.9.9.0.j.x.x.x.x.x.x.x.h.g.h.g.0.0.0.0.0.9.9.8.P D P F 7 6 6 6 9 0 0 7 $ $ $ X . . O           l.. . . O # # 8 0 0 H $.U R $.$.R H H L U w.0.9.9.9.9.8.0.j.k.j.j.j.j.j.j.j.j.j.x.h.0.9.9.$.R R R H A F D 0 7 7 7 4 6 6 6 6 @ @ + . 6                                                                                                   . . @ > 6 M D D Z 9 9 9 9 0 9 9 M Z Z N M 9 7 9 Z I J F F 6 . .                                                                                                                                                                               ",
"                                                                                                                                                                                                                                                                                                                                                                                                                                                                                        . . @ P I T D % = = = w e e e - 6 6 7 N Z M H I I I $.$.R I $.f.g.j.k.k.j.g.g.g.e.I I I P P $.$.$.U Y I H & X $ % y 9 z z 9 9 9 9 @ X o X B H F H P I P I 8.9.9.9.9.9.9.0.j.x.k.x.x.x.x.x.j.g.g.f.0.0.0.0.0.0.9.8.H A H D 7 6 6 7 9 0 0 7 $ $ $ X . . .           s.. O o @ O O 6 9 9 F $.U R $.R R H H L I 0.0.9.9.9.9.9.q.j.j.k.j.j.j.j.j.j.j.k.k.g.9.9.9.$.R R $.P A D A 9 7 7 7 6 6 6 6 6 @ @ @ .                                                                                                     . O 6 6 6 M S D Z 9 9 9 9 0 0 0 M Z Z N M 9 8 9 Z P W F J 7 . .                                                                                                                                                                               ",
"                                                                                                                                                                                                                                                                                                                                                                                                                                                                                  s.s.M 9 7 9 A A D l % % * * w e w r 7 9 9 0 Z Z M F I P I 9.8.R 0.f.g.h.k.k.x.x.0.R R U I U U U U R R R $.$.$.I r % y K H A S N N M M 0 @ ( o.[ p 6 H P I U U R 9.9.9.9.0.f.d.d.j.x.x.x.x.x.z.x.a.q.q.q.0.0.9.9.8.$.$.U l 9 0 9 r r r * - - - - X . . . . . . 9 s.R E W @ @ @ 8 9 6 6 A H D I T P P P J P R $.R 8.9.0.9.0.d.f.g.g.j.j.j.j.j.g.q.a.a.f.g.g.q.$.$.$.U P P I Z 0 0 9 6 > 6 > 6 6 6 6 @ O . R                                                                                               s.s.s.0 > > 7 8 9 Z A S S Z Z Z N Z Z Z Z Z Z Z Z M M N N c c M P M 9 0 M o Z                                                                                                                                                                         ",
"                                                                                                                                                                                                                                                                                                                                                                                                                                                                                  . . 7 A M M S Z Z 9 % % % * w e e * 8 0 9 0 Z Z Z F P L I 9.9.R q.g.j.j.k.x.z.z.w.I I I U R R R R R R R $.%.8.Y t e i $.R F D A A S N l o [ 4.>.p 1 P P R R U $.9.9.9.%.0.g.g.g.x.z.x.x.x.j.x.j.0.0.0.9.0.0.s.0.$.$.$.U 7 7 7 , w w w w % & % * o . . . . . . . . . . . O @ > 0 Z 9 0 L I P U I J P H H L 9.9.9.9.9.9.9.0.g.g.j.j.j.j.j.h.h.f.9.9.9.d.f.d.0.R R $.I F P P M 8 9 9 6 6 ; @ ; > 6 6 O . . s.                                                                                              . . . 6 M 9 8 9 9 Z S Z S A D A A S S S Z Z Z Z Z S S A M 8 8 M P D Z D M O . 8                                                                                                                                                                       ",
"                                                                                                                                                                                                                                                                                                                                                                                                                                                                                  @ . 7 M M N F F D l % w % % w e e * 8 0 9 0 N N M F P L I 9.9.$.q.g.j.j.x.x.x.z.0.R U I R R U U R R R R $.$.8.U t e i $.R F A A S Z N 0 o ) ;.;.: 1 P P R R U $.9.9.9.%.9.d.g.g.x.z.x.x.k.j.j.j.0.0.0.9.0.0.0.0.0.0.9.$.l 9 0 z e w w w % & % * O . . . . . . . . . . . # @ @ 0 0 9 0 P I L I P J P P P P 9.9.9.8.%.9.9.0.g.g.g.j.j.j.j.j.j.g.0.0.0.d.g.g.q.R R $.U P P P M 9 0 0 6 6 4 @ @ @ 6 6 O o . s.                                                                                              . o . 9 M 9 7 8 9 Z S Z Z Z Z Z Z Z S S S Z Z Z Z Z Z S M 9 8 N U F Z D M O . 0                                                                                                                                                                       ",
"                                                                                                                                                                                                                                                                                                                                                                                                                                                                                @ O . A T R T Z M 0 z w w w w e e e y 0 0 9 0 M N M A F D P 9.9.8.0.d.f.g.j.x.z.x.$.P I I I U U I I R R R $.%.9.#.t e t Y U H F F A N N 9 X 3.H.H.G.r.F P R R U $.9.9.9.%.0.g.j.j.x.z.z.z.x.j.h.q.9.9.9.9.0.0.0.q.*.V K V g , d d % $ X X % * % * $ $ $ o o o . O O O O > 9 9 0 P I I I I P H J F D L U U $.0.0.8.9.q.f.g.g.j.g.g.g.g.h.h.f.d.a.0.0.0.0.q.q.8.P J P F Z Z Z 8 @ 6 7 6 6 > @ @ @ @ @                                                                                                   A 6 7 8 6 0 c l 0 0 M Z S S S S S Z S S A S Z S Z Z Z Z Z Z Z M M Z D P I T D O . 0                                                                                                                                                                       ",
"                                                                                                                                                                                                                                                                                                                                                                                                                                                                            @ . . . O I q.d.9.9 7 6 , t t e t e t e d 0 0 0 0 M M M Z A A J 9.0.9.0.q.a.a.j.x.z.g.I F P P I I I H P U U U $.%.0.$.t e t H P L L P F A A 8 X G.$XXX>XT.A P U U U $.9.0.9.8.0.j.x.x.x.z.z.z.k.j.g.$.8.9.9.9.9.9.a.0.k i i i e e t w X . . . $ r r w % % * % = = o = @ @ @ 0 M M Z $.q.0.0.U L H D A N P $.$.8.0.0.%.9.g.j.x.k.j.j.g.g.g.g.g.a.9.9.0.0.0.%.$.8.U A A D M 9 9 9 @ O o o 6 6 4 6 @ @ . O                                                                                             E Z 9 . 7 M M 0 0 0 Z D S S S S A A Z S Z A Z A A A Z S S S Z Z Z S D D A c I 8.8.P O . 0                                                                                                                                                                       ",
"                                                                                                                                                                                                                                                                                                                                                                                                                                                                            7 . . O O P 0.0.$.7 7 6 , t e e e t e e d 0 0 9 9 M M M Z A A P 0.0.9.0.a.a.a.h.k.x.h.P F L P I I I L P U U U $.%.0.%.i e t L W F F F A Z D 0 o D.OX).&Xi.Z L U U U $.9.0.9.8.0.j.j.x.x.x.x.x.x.k.g.$.%.9.9.9.0.0.a.w.k i i i t w t w X X . . $ % % % % % % $ o & & = 6 @ @ 8 0 9 0 I 8.w.8.I P P F Z N P $.$.$.9.9.$.%.f.g.j.j.x.j.j.g.d.g.g.a.0.0.0.0.0.8.%.8.R D A D M 9 9 9 @ O O o 4 6 6 6 > @ . .                                                                                             D . . > 8 9 0 9 0 0 Z D A S S S Z S S Z Z Z S S Z S Z S Z S S S Z S A D Z 0 P R $.F O . 0                                                                                                                                                                       ",
"                                                                                                                                                                                                                                                                                                                                                                                                                                                                            8 . O # O P w.9.T 7 > > - t e e t t e e d 8 6 6 6 M M M Z A A I 0.0.9.0.a.a.q.g.j.j.f.P D H P I U U L P R U U $.%.9.$.t e t L P F F H D S F 0 o F.&XXX$Xu.Q L U U U $.0.0.9.%.0.h.j.x.x.z.x.x.x.k.g.$.%.9.9.9.0.0.0.w.k i i i w r t % X . . . $ % % % $ $ % $ $ & & = 6 @ @ 7 0 9 9 P %.8.8.I P P F A N P $.R $.9.9.$.9.f.g.g.j.x.k.j.h.d.g.g.a.0.0.0.0.0.9.$.$.U A A A M 9 9 9 @ . . . 6 6 6 6 6 @ . @                                                                                             D . . > 7 9 9 9 9 9 Z D D D A A Z A A Z Z Z A S Z Z S Z Z S Z S Z S A S M 9 P R $.P O . 0                                                                                                                                                                       ",
"                                                                                                                                                                                                                                                                                                                                                                                                                                                                            > < 9 8 7 A J J A = = 6 = r - = = w e e r 6 6 6 6 9 9 l Z D A I 0.0.0.0.q.0.0.a.q.d.0.D Z D D F F F I U R U I I I R U y w r F P L H L A N D M o B.P.J.F.| + 8 I 8.$.$.0.0.9.w.f.j.j.k.z.x.z.x.g.a.q.0.8.9.9.9.R U R I t e t t t t t w $ X X X r t t f B M N z 7 7 z M N M 9 A F D A P I I I F D F P U P T $.$.R q.f.d.d.g.g.j.d.M 0 9 H a.q.q.0.0.0.9.9.9.R I I H M M M 8 @ 6 6 @ @ @ @ 6 6 6 6 o . @                                                                                               7 @ 7 7 6 @ 9 Z M M S D A D P P L F A D D D A A A A S S S Z S Z A M 9 9 9 F T R R A . . 0                                                                                                                                                                       ",
"                                                                                                                                                                                                                                                                                                                                                                                                                                                                        . . o M M 0 0 Z N N M @ @ 4 = r = ; @ r e e w > 6 6 6 6 8 0 Z D D P s.s.9.0.0.0.0.0.0.q.9.D Z A S Z Z A U $.U I I I I I P * % * D I P P P A N D 0 o 4.U.(.Z.m . o I 9.$.%.0.w.9.0.j.x.j.k.x.x.z.x.d.0.q.0.9.8.9.%.I P P D r e w w u i u e * & o $ i x k x P P P W M M M A F D Z P I I I H H H D A A A I %.R $.$.$.$.e.j.h.g.g.f.j.0.O . . 9 a.s.0.0.0.0.9.8.8.I H H A 0 0 M 6 @ @ @ @ @ @ ; 4 6 8 6 . . @                                                                                         @ O o 9 l M 8 @ @ 9 A S S A D D F I I I J D D D A D A A A S S S Z S A D M 8 6 7 I R R U M . . 0                                                                                                                                                                       ",
"                                                                                                                                                                                                                                                                                                                                                                                                                                                                      W . . O 7 7 7 9 A D F Z @ @ @ > * = > = r e e w > 6 6 6 8 8 0 Z D D P s.0.9.0.0.0.0.0.q.d.a.F Z A Z Z Z D R $.I U I U I T P & $ % H U P P L A M A 8 o B.I.J.M.b O + I 8.$.%.w.0.9.0.k.x.j.k.x.z.z.x.d.q.q.0.9.%.8.$.U I I H r w w w e u u e * & & $ i k i x F F F D 0 0 0 Z D S Z P U I I P H H F N Z Z P $.R T R R $.d.j.g.j.k.j.x.d.o . . l k.g.a.0.9.0.9.9.9.I H H D M M Z 9 @ @ @ @ @ @ @ 6 8 9 6 # @ 9                                                                                         O . @ 0 M 0 7 @ @ 9 Z Z Z Z D D D P I P J D D D A D S A A D S Z S S A D M 8 6 8 I U I I M . . 0                                                                                                                                                                       ",
"                                                                                                                                                                                                                                                                                                                                                                                                                                                                      0 . . 6 H D D D M M M 0 6 @ 1 > < > 6 6 r u e t 6 6 7 8 l c M Z D A P 0.0.9.0.0.w.9.9.9.q.0.F Z S Z A F J U U L N N N D H A - % - H I P P L F Z A 8 & B.K.J.L.<.m | Y $.$.%.9.a.d.g.z.x.j.j.j.k.j.j.a.0.0.w.%.$.$.R V V V x % w w a *.*.*.K z 9 8 , V *.*.#.F D F D N Z Z F P F F P I P P F D A S A D H U 9.$.$.0.0.0.f.h.j.h.&.U $.P O . . > J F F R $.$.R R $.J A A Z 9 0 c 6 + @ O @ @ @ @ @ @ @ F                                                                                             Z @ > 9 0 9 9 0 9 8 M D D D F F F H I I I P J J J F D A A A S D A S Z Z S 0 8 6 6 M I 8.q.U O . 0                                                                                                                                                                       ",
"                                                                                                                                                                                                                                                                                                                                                                                                                                                                    Q . . . M d.q.d.0.q @ 6 6 6 6 6 6 8 8 8 8 y t t e 7 9 9 0 A A Z D F D P 9.0.9.9.9.9.9.R R $.R D Z Z Z H I I U $.A @ ; = d d 7 9 8 9 H P P P P F D D 8 & B.H.A.1X*XM.G.#.T $.$.0.a.x.z.z.k.x.j.d.q.e.e.0.9.9.9.$.$.$.I t u u e r w w | c.k.z.g.D D S S 9.d.d.q.F S D A F F F I U I U D S A S S Z M M L I I $.0.%.0.g.g.g.g.g.j.g.d $ $ X . . . . . . . A R P H L I A M M 0 6 8 8 @ . . . @ 6 @ @ . . . %.                                                                                      8 8 9 0 M Z Z 8 @ 7 A A Z F P P P P I I I I I I U U I I P S D A D D D S A M M M 9 6 > @ O I g.k.q.o . 0                                                                                                                                                                       ",
"                                                                                                                                                                                                                                                                                                                                                                                                                                                                    @ . . . M a.0.d.0.q 4 6 6 6 6 6 6 8 8 8 7 y e e t 7 0 9 9 A A S D F D P 9.9.9.0.9.9.9.R U $.R D Z Z Z H I I U $.H > < < z z 7 9 9 0 H P P P L F A D 8 & 4.A.M.;X*XM.V.&.R $.$.0.a.j.x.x.j.j.j.a.q.q.q.9.9.9.9.$.$.$.I t u i t r t e *.z.g.j.q.A Z Z M R q.q.0.F A A A A D A P U I I A S A S S Z M N P I I $.9.$.0.g.g.g.g.g.h.g.z % % X . . . . . . . A R I L P I A M Z M 8 8 8 @ . . . @ 6 6 @ . . . E                                                                                     6 . . @ c M M 9 6 @ 7 Z Z M A H L P P I I P I I I I U I I P S D D A S S S S M M M 9 6 6 6 @ T g.g.9.@ . 0                                                                                                                                                                       ",
"                                                                                                                                                                                                                                                                                                                                                                                                                                                                    @ . . . M d.q.d.a.q @ 6 6 6 6 6 6 7 7 7 7 y e e e 7 0 9 0 A A A D F D J 9.9.9.9.9.0.9.R U U U A Z Z Z F P P I $.L 8 7 , z z z 9 9 0 J P L H H D N A 8 & |.qXqXpX#XM.V.#.R $.$.0.q.j.j.j.x.x.j.d.q.q.q.9.9.9.9.$.%.9.U i u i i w t e | z.g.g.w.M M M 0 I w.w.9.F S A A S A S P I I I F S S A Z Z M N H P P R 9.%.0.h.g.g.g.g.g.g.z % * & . . . . . . . A R I P P I D M Z M 7 6 8 @ . . . @ 6 6 @ O O . E                                                                                     Z . . > Z A Z 8 6 8 c Z M c A H H L P I I P I I I I U I I P S D A A A A A Z M M M 9 6 8 6 @ R g.g.9.o . 0                                                                                                                                                                       ",
"                                                                                                                                                                                                                                                                                                                                                                                                                                                              l.v.s.O M D D F J J J D 6 @ 6 6 6 6 6 ; 8 9 9 8 d e e e z c c M D D A D F D J 8.9.9.9.9.0.0.I F F H D S Z A P I I P I A @ o @ , z x H H H I P L H H M 8 9 < ' pXMXxXsXF.) ' U $.$.$.0.a.j.j.j.g.g.g.0.9.0.0.9.9.9.9.U U R Y i u u a V H V #.j.g.g.w.N A A D R 9.9.$.H D F F L H L H F F F D S A A D D N N I R R 9.d.d.d.h.h.g.a.a.q.H * $ % $ . . . O 7 7 7 A P P D F F M 0 0 0 ; @ 6 o . . O @ @ @ @                                                                                             Z 6 7 9 0 0 l M M M D F D A P U I T P P P P P P P R R I I P S D A D A D A Z M M M 0 7 8 Z I a.g.k.9.o . 9                                                                                                                                                                       ",
"                                                                                                                                                                                                                                                                                                                                                                                                                                                            9 . . . @ 9.g.f.I 8 9 8 > @ @ 4 6 6 6 6 4 9 0 0 0 d e e t l Z M M A D D D H D H $.9.9.9.9.0.q.P Z S A A A S F I U I H P M . . . , d x U R U I P H L H 9 @ @ < 7.gXMXxXuX6.$ p I 9.%.9.a.d.g.j.g.d.d.a.9.8.9.8.8.%.9.9.I P I H i u e y $.%.R 9.g.f.d.9.H H H U $.8.9.$.L H L P P P I F M Z S S A A A H H D D $.9.%.0.g.h.g.g.g.g.0.0.8.* $ % & X . . . @ S A A D F D Z Z Z 9 8 9 7 @ @ @ O . . @ @ o . q                                                                                 O O O O O . 9 D F c 6 6 9 D F A D P P L T %.%.$.P H P P D F P R R P P H S A D A D D D A M M M 0 8 6 T z.g.d.k.w.o . 9                                                                                                                                                                       ",
"                                                                                                                                                                                                                                                                                                                                                                                                                                                            @ . . . O $.d.d.I c c 0 8 @ @ 6 6 6 6 6 3 9 0 0 0 d e e e l Z M Z D A S A F D F $.9.9.9.9.0.a.I D D D A D S F U R I H P M . . . - y a I I I P P L L L 0 6 6 + ' cXNXMXsX7.. * U a.9.w.a.d.g.j.h.d.f.f.0.9.9.9.9.9.9.9.R I T H u e e y I T I R d.d.d.9.D H L U 8.9.9.%.P H P P I I I F Z Z A Z S A A F H D D R %.R 9.h.g.g.g.g.f.0.s.0.d $ % % & . . . @ M M M D L H A Z Z 8 7 9 7 @ @ @ . . o 6 @ @ . 8                                                                                   . . . . . 0 D D 0 6 4 6 Z A Z D P P L T %.%.%.H D L L A F P R $.P P F Z A A D D D F F Z M Z 9 ; @ P g.f.f.k.0.o . 9                                                                                                                                                                       ",
"                                                                                                                                                                                                                                                                                                                                                                                                                                                            o . . . O T 0.0.P 9 0 9 7 @ ; 4 6 7 8 8 7 0 0 0 0 d r r r l M M M D A S F H F P $.9.9.9.9.0.0.P D D A D D D P R R U H A M f b b p - f I I P I P P P P 0 ; > O b tXgXgX6XC.m / L T $.0.d.d.g.h.e.0.q.q.9.$.$.$.$.$.9.8.H V H V i t y g T R T R e.d.d.0.P P I R 9.9.9.8.H F L H P P P D Z Z Z A D A F P I P P 8.9.9.0.h.h.g.g.f.e.#.#.r.g $ $ & & o O . > N N N A D D Z Z M 7 6 8 6 @ # O . O @ 6 @ . . 8                                                                                 G . O @ @ @ 0 Z Z 0 8 6 8 Z D D P R U P R 9.9.%.I H P P N Z F I I P H D Z A A A A D D Z c 0 0 9 0 9 P f.0.9.d.%.o . 0                                                                                                                                                                       ",
"                                                                                                                                                                                                                                                                                                                                                                                                                                                    F @ . X & O O . O F I T Z @ 6 1 @ 6 6 @ 6 M M 0 0 0 0 0 0 9 8 7 7 l M M M A D S P I P I 9.9.9.9.9.$.R F D D A F H H I R R R F 0 B R.~.XX/ + P I I U U P F P P 9 # O . s {.$XXXI.K.~./., O H q.d.a.q.$.P P I I I I I I I I R I y e u i H F A F $.%.R $.e.q.0.0.$.$.$.$.$.$.$.R A Z A A Z Z Z Z Z Z Z F H H P 9.0.9.0.f.f.f.f.f.g.e.q.q.#.( } o.p . X . o 9 9 > l I P P N 0 c c c 0 @ @ @ @ . . . O @ 6 8 @ . . 8                                                                         @ 6 6 8 6 ; 8 0 0 0 9 9 9 l S N N P I I $.w.9.9.9.8.9.9.$.$.$.R 0 9 c c A D A Z S Z A M c M 0 7 6 6 @ A $.T %.e.P M D l O . 0                                                                                                                                                                       ",
"                                                                                                                                                                                                                                                                                                                                                                                                                                                    Z . . X & O O . o F P I 0 @ 6 6 6 6 6 6 7 M 0 0 0 0 0 0 0 9 7 7 7 l M M M A A A J I P U w.9.9.9.9.R I D D A A F H F P $.$.$.F 0 B F.P.#X' # P I I I U P W P P 9 # @ O g P.#XXXP.I.~./.: . K e.a.a.0.$.P P I I I I I I I I T P r e u i F W F P 9.9.R 9.h.d.0.0.$.$.$.$.R $.$.R A N Z A Z Z Z Z Z Z Z D H F P 8.0.9.0.g.g.g.g.f.f.e.q.0.#.( ] } p . . . O 9 0 8 N U I P M 0 c c M 0 ; @ @ @ . . . . @ 6 8 @ . . 8                                                                       9 . . . O 6 7 9 0 0 0 9 8 7 0 Z N A P I I R 9.9.9.9.9.9.9.%.$.9.R 9 0 M 0 Z D A A Z Z S M 0 M 0 6 6 > @ A $.T 8.d.P M M 0 O 6 A                                                                                                                                                                       ",
"                                                                                                                                                                                                                                                                                                                                                                                                                                                    G . . . X O O . @ P I T 0 @ 6 6 6 6 6 @ 6 0 0 0 0 0 0 0 0 7 d d d l M M M S D S H P P I 9.0.9.0.9.R I D D A A D F D P R $.$.P 0 B G.I.oX..O P U I I U P F P P 9 @ @ O g }.#X#XI.J.I.D.o . C r.a.a.a.%.I I U U I I I I I I R P r e e i D D D P 9.9.$.0.j.f.0.0.$.$.$.R $.$.$.R Z N Z A Z A A Z Z Z M A D N D R %.$.0.h.h.g.g.g.f.d.a.a.#.) ` } : . . . . 6 9 6 N $.U I M 0 c c M c > @ @ @ . . . O @ @ 8 . O O 9                                                                       0 . . @ 8 6 6 9 9 0 0 7 > @ 8 Z M N L L H I 9.9.9.9.0.0.0.9.9.9.$.9 0 0 0 Z D A Z S A A M 0 M 0 6 1 @ @ A 8.R 9.f.T N o W                                                                                                                                                                             ",
"                                                                                                                                                                                                                                                                                                                                                                                                                                                    N * : p * & < & < M N Z 8 @ = 6 3 6 8 8 8 0 0 0 0 0 M 0 c z z z z M Z M N D D A P R U R 9.9.0.$.T P L D S D D H P H I $.$.U A 6 , G.{.L.n @ I R I U I H A F F 7 + @ O h P.~.I.}.%X%X}.X./ '  .9.0.w.R P P P I U I I I I H N z d y g x H H H P 9.9.8.9.d.q.9.8.R $.$.R P P P P Z Z A A Z Z Z A D D S P P H H %.0.0.d.k.j.g.g.g.g.9.U $. .) ( ] : . . 6 9 M A A P U I P Z 0 M M c 0 ; @ @ @ o # O . O O O F                                                                             9 @ 6 7 9 7 7 0 0 0 0 0 0 0 Z P P J I I P R 9.9.0.9.9.9.%.9.9.0.9.D D D Z Z A Z N M M M 0 9 9 8 6 9 0 9 P 0.8.9.d.J 7 .                                                                                                                                                                               ",
"                                                                                                                                                                                                                                                                                                                                                                                                                                              8 8 7 / ] ( / m n b b g @ @ @ @ @ @ @ @ 0 M M M 0 0 0 9 M Z Z Z M M M M M M M M L P F T 9.8.9.9.0.0.I A A A S A S D I U U R R $.I M + & R.&X:.O 6 U R U U U A M Z Z 6 @ @ O ' U.J.M.;XuXiXiX}.J.;.g I R $.P Z S S P U U I I P Z % w M D D P U I I R 8.8.$.$.R U U U R R R U Z M N M Z A S Z S S Z F I P P R $.$.R e.g.g.g.g.h.h.g.d.g.I B B { { ) ] : . o $.f.$.%.8.R L J F S M c 0 0 0 @ @ @ @ @ ; @ O . . .                                                                   E 6 8 8 8 8 M Z Z 0 8 8 8 M Z M M F P P R 0.9.$.%.%.%.9.9.0.0.$.I I I 9.0.0.9.R R $.P M N Z c 9 9 9 6 6 4 @ 6 Z D F 9.0.9.8.%.0 . .                                                                                                                                                                               ",
"                                                                                                                                                                                                                                                                                                                                                                                                                                              . . X ) _ ) ^ m b j f g @ @ 6 4 4 ; @ @ 9 M M c 0 0 0 0 M Z Z Z M l M M M M M M H H F T 9.$.9.9.9.0.I D A A A A Z D U $.U R U R I N 2 = H.$X{ . > U $.R U U D M Z Z 7 @ @ O [ I.J.A.;XuXuXiX}.U.} @ I $.$.P Z A Z P U U I I P A r e M D D P R I I I $.$.$.$.$.U U U R R T U Z M Z Z A A S Z A A Z F I P P R 9.$.$.e.h.g.g.g.h.g.g.d.g.U B C 4.;.) } : . o 8.f.$.$.8.I F F F A M c 0 c 0 @ @ @ @ @ @ ; @ . . .                                                                   F . . . . O M Z N 9 6 8 8 Z S M M F P L R 0.9.$.%.%.%.%.9.9.0.R P I I 9.q.0.9.R R R F M N Z M 9 0 0 8 6 6 4 6 Z A D 9.0.9.$.%.9 . .                                                                                                                                                                               ",
"                                                                                                                                                                                                                                                                                                                                                                                                                                              O . & ~ ) / ^ n g g g d 6 8 8 6 6 > @ @ 9 c c 0 0 0 0 0 M Z Z Z M l l M M M M M F F D T 9.%.8.9.0.0.T F D A Z Z Z D U $.R R R $.I N @ & H.oX] . > I R U U U D M N N 6 @ @ O ] ).U.J.<X6XuXuX&XXX` O I $.$.I Z Z Z W U U I I I D t e M A A H $.$.U U $.$.$.$.$.U U R %.$.$.$.A M Z A A D S Z Z S Z F I P P $.9.9.9.f.j.g.g.g.g.g.g.k.c.U g j m.n.} O.p . O $.f.$.$.%.I F H J D c 0 c 0 0 6 @ @ @ @ @ ; @ . . .                                                                   G . . O . @ M M M 8 1 6 8 M Z M M A H H R 9.%.$.8.8.$.%.9.9.9.I H P I w.d.a.0.I I I A 0 N Z M 0 0 0 8 6 6 4 4 M Z A 9.q.0.8.9.7 . .                                                                                                                                                                               ",
"                                                                                                                                                                                                                                                                                                                                                                                                                                              O . X / ] / m ~ ^ ^ ( ^ > @ > 6 6 6 3 6 9 0 0 0 0 0 0 0 M A A A N M M l l M M Z L L H R 0.9.8.$.$.$.P A A A D D A F R $.R $.R $.I M @ o /.>X:.. @ P R R R R D M N M > # @ O o.).I.U.yXsXsXiXQ.2.h @ R $.$.P M A Z F I U U U H N g d A H H H D D D D U $.R R U U R $.U U T I A Z S D F F D D P P I R $.R R $.9.q.e.g.j.h.g.e.q.d.$.I R *.{ :.D.o.k ~ z 9 M 9.q.U I $.P D F F Z 0 0 0 M 0 > @ @ @ > 6 8 @ . . .                                                                   c @ @ 6 > 6 0 9 8 7 7 9 0 D J F F P P P R w.9.9.0.0.0.9.%.9.%.R P P H I R T T $.$.$.I A M S M 9 9 9 9 q 9 8 9 F P I R I P H A 7 W E                                                                                                                                                                               ",
"                                                                                                                                                                                                                                                                                                                                                                                                                                              O . X ) ' n b ( >.>.,.>.* O # @ 6 6 @ 6 0 0 0 0 0 0 0 0 N D A A D S A z l Z M Z I I L $.0.0.8.I I I F Z Z A F H H P R $.$.$.U $.P 9 @ . R.5X7.. @ P R U R R D M Z M 6 O + . 2.).I.U.pXxXxXBXN . O 6 $.$.R F N A A D P I U I x N M M L I I D o o @ @ Y $.U U U U R U W F F D A S A D P P H P 9.0.q.q.0.0.0.9.0.g.j.h.j.j.g.9.$.$.7 . O <.I.I.L.g . . A f.q.q.8.P P I J Z A A 0 9 0 M M l > @ @ > 7 8 9 @ . . .                                                         6 8 6 @ 6 N M 9 0 M 0 6 @ @ 9 N A F R $.U R 9.9.9.0.0.9.0.e.d.d.q.%.9.9.$.R P A N M M Z 0.q.0.q.I M D M 8 6 6 0 S N 0 N $.9.a.A @ 6 O . F                                                                                                                                                                                   ",
"                                                                                                                                                                                                                                                                                                                                                                                                                                              O . . s / n k ( >.,.n.>.& O O + 6 4 > 6 0 0 0 0 0 0 0 0 M D A A Z Z N z M M M A I I I $.0.0.8.I I I F Z S S F H H H R $.$.$.$.$.P 9 @ . 6.5X7.. @ P U I R R D M Z Z 6 O O . ;.).I.U.fXMXxXcXB . # 6 $.$.U F Z A A D P I I Y k M M N P P I A O # + ; #.#.U U U U U U F F F D A D A D P P H H $.9.9.0.0.0.0.9.9.d.g.g.h.j.j.0.8.9.7 . . { I.L.J.f O . M 0.8.9.$.P P P H Z A A 0 9 0 M M l > @ @ > 7 8 8 @ . . .                                                         . . . @ 9 Z c 7 9 0 0 6 = @ 8 Z D F T R I I $.%.%.9.9.9.9.d.e.f.q.9.9.9.$.R P N N M M Z 0.q.q.d.R M A M 6 7 8 0 Z M c N $.9.q.A > 7 O . F                                                                                                                                                                                   ",
"                                                                                                                                                                                                                                                                                                                                                                                                                                              O . . & / ^ n ] >.>.,.;.f d g < @ @ @ 6 9 9 9 9 9 0 0 0 M D A A A S Z M M M M A U U I $.9.0.$.I I I F Z A D F H H H R $.R R U $.I 9 @ . ( 1X6.O @ P U I U U D M Z Z 6 O O . <.).P.U.fXMXxXcXB . # = U $.R H Z D A D P I P H x N N N I I I A & o & < $.8.U U U I U I D D D D D D D D P P H P %.9.9.9.9.9.9.9.9.d.h.g.g.j.h.0.8.8.8 X O ] H.J.H.g . . M 8.$.%.R L L P J Z A D l 9 0 M N M = @ @ ; 7 6 7 @ . . .                                                         . O O 0 Z M 0 9 0 0 9 6 6 @ 9 A D F I R I I $.$.$.8.9.9.9.d.d.f.q.9.9.9.$.R P N N M M Z 0.d.d.d.R N Z 0 6 6 6 9 N Z M N R 8.0.A > ; 6 8                                                                                                                                                                                     ",
"                                                                                                                                                                                                                                                                                                                                                                                                                                              O . . N &.$.$. .} ] ( o.V.V.F.:.. . . o > @ @ @ M M M M Z A A A Z Z Z Z Z A S D I I I $.9.9.R H H H D Z Z S P I I I R $.$.R I R F O . d o.>X=.O @ P R U U U D M Z S 6 . . . ;.J.D.M.fXMXMXBXL . . = U $.R P D P P P H F H H H L L I R U J B X.;.>.] M $.$.U P F H F Z S A D A A S S T $.R $.e.e.f.q.9.9.9.e.f.g.h.q.9.q.0.9 @ 1 | F.G.G.H.I.2.o O . M $.U $.I A D F D M M Z 9 6 8 8 9 7 * & $ & = = @ o . O .                                                       D A D D Z 0 9 0 Z Z Z N A A N F I U U $.9.$.$.d.f.d.f.f.f.d.9.9.9.9.$.$.$.U P P P A M M N I T T I D S S 0 @ 6 @ M U I I F 7 8 0 @ . O                                                                                                                                                                                         ",
"                                                                                                                                                                                                                                                                                                                                                                                                                                              O . . P a.9.8.#.( ( ~ ] Z.Z.F.... . . . @ @ + @ M N M M Z D A A Z Z Z A A A A D I I P R 9.9.R D F H D S Z S I U I I R R $.R I R D . . a 4.2X1.O @ P R I I I A M Z S > . O O ;.(.M.n.tXMXMXBXL . . = U $.R P F I I I F D D D H P I I R U D B :.2.4.] 7 R $.U H D D A Z S D A D D S A R 8.%.w.f.f.f.q.9.9.9.d.g.f.d.0.9.9.R @ O O =.#XI.J.H.I.] O O . A %.U R I D D F Z c M M 8 6 6 6 6 > % % $ $ = = @ o O @ @ . . . G                                     . . . . . Z R T T Z 0 9 0 A A Z A F F F P U U R $.9.9.9.g.g.g.g.f.g.d.$.$.$.$.$.$.$.I P P I A M Z S P P P D Z Z Z 0 > 6 > Z R U I F @ @ @ . . O                                                                                                                                                                                         ",
"                                                                                                                                                                                                                                                                                                                                                                                                                                              O . . I a.%.R #.] _ ^ ] C.V.G.] : f f f # O O @ 8 0 Z N S A A D D A M c Z Z Z A I I P R %.8.R H H H F D A A I I I I R R R R I R A . h ) n.yX1.. @ P $.U I I A M Z N > . O O O.(.Z.n.qXMXxXBXN . . > U R R I I U U I P H H L H H L I A M 6 , +.o.;.( > R $.U L H H D Z Z A A A A A A R 9.$.w.f.q.9.9.9.9.9.e.d.0.9.0.0.0.%.@ . O ] ).I.L.J.L.{ . . . A w.$.$.T F F J D M M M 8 6 6 6 6 > & $ $ $ @ @ @ @ O o O . . . F                                     . . . . . M I I T Z 0 0 M D A Z Z D D D P U I I R $.$.9.g.j.g.g.g.g.e.$.$.%.$.$.$.$.I P I I D M Z Z P P J D Z Z S 0 6 6 > N R U U J 6 @ @ O @ 6                                                                                                                                                                                         ",
"                                                                                                                                                                                                                                                                                                                                                                                                                                              O . . I q.$.$.Y n m j ^ 4.B.6.G.}.%XOX{.d d ..X.@ ; M 0 Z F D A M 0 M B M Z Z A I I P T %.8.R F H J F A S A P I I I R $.$.I D F N n ,.>.V.1X=.. ; I $.U R U A M N Z > . # O o.M.m.,.tXxXxXBXH . . > I $.R R R U U U I P I I P J I P 6 = z | <.o.:.^ 7 T U U H F F A Z S D S A D D H $.0.8.w.q.9.8.9.0.q.d.0.9.9.8.R R R T z s g :.oX<X}.G.L.o.O @ @ H w.$.$.R F F F A M M c 6 = = > > > & X X o = = > @ o @ o . . . E                                     . O @ @ @ M J H P Z M M Z P J F A D H P U $.R I $.%.8.0.g.j.h.g.f.f.q.R R R R R R R I P I I F Z Z A P J D Z l M M 0 7 7 7 Z U I T J 6 # 8                                                                                                                                                                                               ",
"                                                                                                                                                                                                                                                                                                                                                                                                                                              @ . . T e.9.0.M . . . : ( ( ) F.>X&X&X%X2.;.V.6.> O o . 7 P Y 7 . . ( B.C 6 0 M I I P T %.8.R F F F D D A A I I I I $.$.8.T N N 0 & f V.J.J.^ O > U $.I I I A M N Z ; . . . o.A.m.n.fXMXxXBXY . . @ R $.R $.$.$.$.R R R R I I P T D O g {.XX,.;.( d H I U U D Z Z Z Z S S Z H P P I q.d.q.0.$.%.$.9.0.0.q.9.9.9.$.> O O < B.D.M.*XiX&XH.4.m.^ Q $.R $.U I U I D S A M 9 9 9 = = = * r * & & & & & * * - 8 8 7 o . . E                           0 0 9 0 @ . M T T R Z 0 0 c Z D D P R U U I R $.$.9.0.9.$.e.f.f.h.g.g.j.f.0.0.w.L H H P T T R I P P P J D F F Z N Z 0 6 4 @ 9 P L F A N A D Z o . 0                                                                                                                                                                                               ",
"                                                                                                                                                                                                                                                                                                                                                                                                                                              6 . . T a.9.0.l . . . : ] } ( F.>X$X$X#X2.O.4.;.@ # . . @ H H o . . ] A.V 5 M N I I H I $.9.R F F F D D S D I I I U $.%.%.T M Z 9 . & V.J.Z.v . @ R %.U I I D M Z Z > . . . { Z.m.m.fXMXMXBXY . . @ R $.R $.R $.R R R R R U I I I A . d XX+X4.o.p @ P I I U D Z S S Z Z Z S F P P I q.d.0.0.$.8.%.9.0.0.0.0.0.0.$.@ . . o 4.D.m.*XhXOXD.3.m./ Q w.$.R I I U I A Z Z M 9 9 9 = @ = * * % & % % % = = = = 6 6 6 O . . . O @                     @ . . . . . . A R R $.Z 0 0 0 M S S P R U I I R $.$.9.9.9.$.q.f.g.g.g.g.j.f.0.a.0.I H H P T T T P P P P J F H H Z M Z 0 6 6 @ 7 H F F A l M A M O . 0                                                                                                                                                                                               ",
"                                                                                                                                                                                                                                                                                                                                                                                                                                              O . O R d.w.0.l . . . : [ [ ( F.&X#X#X#X3.;.N.;.= O . . = H V < o X { D.K q M Z I P H T 8.0.8.F F F D D Z S I U I I $.$.$.T Z A c . & B.(.M.h . > I 8.R U I D Z Z M @ . . . [ V.n.m.fXNXMXBXY . . @ $.$.R $.$.R $.$.R R R R I P P Z # p P.+X;.g . @ P I I I A Z Z Z Z Z Z Z H P P I 0.q.9.%.$.9.0.0.q.q.d.0.0.0.8.> . . & 4.M.n. XsXOXD.2.N.n Q %.U U I I I I Z Z Z M 9 9 9 = = = & & & % % % % @ @ = = 6 6 6 # . . . . .                     @ . X . . . O D R R R Z 0 0 0 M N N F U I I R $.$.$.%.9.%.%.e.g.g.g.h.g.g.f.0.a.a.I L H P T R T P P P I L D J F N N Z 0 6 6 @ 7 H H H A 0 M A 0 . . A                                                                                                                                                                                               ",
"                                                                                                                                                                                                                                                                                                                                                                                                                                          l.9.H H J I P J J 8 O @ @ < p p : ^ <.{ { <.I.$X&X#X3.1.1.] Q.qXqX*XQ.B.H.I.V + > > D A N P $.8.R F D D A D Z S P I I I T T T J 0 M 0 . & J.wXpX9X9X.Xz 7 M P P S Z Z Z @ . . . ,.K.A.I.BXCXCXBXY . . = $.%.R R R $.$.$.R T T R l > @ z 6.F.XXI.b . . 9 I P I P Z Z S Z Z Z Z Z H L P U D 0 7 9 N A A R a.9.P K  .|  .1.5.<.6.qXtXtX*XL.U.B.#.*.Y F R U I J H L F M M M 0 9 0 0 - % & * * * * & * & & & & & = = = = @ @ O . . F l.s.s.s.s.R R s.E 6 7 6 6 7 7 8 Z J F D D D A A P I I R 9.9.9.0.q.0.0.a.d.d.d.g.g.j.g.e.0.q.$.H I I I I I I I I I F A D F A Z A Z 0 0 0 9 6 6 @ M 9.9.0.F @ @ @ F                                                                                                                                                                                                     ",
"                                                                                                                                                                                                                                                                                                                                                                                                                                      9 . . 0 0.9.9.P A A S 9 1 6 6 ; . X . p ^ n v ( XX,X3X>XL.D.F.4.:XdXaXaX:XI.).#Xm . . O M M M H U $.I D D D S A S S P U U U I P P D 9 0 8 O & U.sXMXxXjX1X: . @ F F Z M N Z > O O X V.P.J.#XNXZXZXAXY . . = $.9.$.$.$.$.$.$.T I R R < . . s #XXXoXL.: . . Z R I I H Z Z S S Z Z Z Z L P I U 0 . . . 9 9 9 F R F @ n _ ~ _ H.I.J.I.hXxXxXtXn.M.4.T T T U I U I D D F A c 0 0 0 0 0 0 - % w r r w * = = = $ $ $ & - = * = @ @ @ . . . . . . . . . . . . 8 9 8 9 0 0 0 Z A S N H P H P R %.8.9.0.s.0.a.d.d.d.f.g.g.g.g.g.j.g.9.$.8.H z z V Y I I I I I I D Z Z Z Z M Z M 9 9 9 8 6 8 ; D f.d.g.P . . .                                                                                                                                                                                                       ",
"                                                                                                                                                                                                                                                                                                                                                                                                                                      0 . . M $.R R P F F F 9 4 6 8 > . . s / / / / [ {.3X3X>XH.Z.V.>.%XaX7XaX%XU.P.I.b . . O N A Z P $.$.I D D A A A Z A I U U U I P I F 9 0 8 O & J.hXMXxXdX:X, . @ F F Z M M N 6 @ + + Z.P.A.{.mXCXZXAXU . . @ R 9.$.$.$.$.$.R R U $.$.7 O O s }.XXoXI., . X D $.U U P N S S A A A Z Z P I I U l # . O 0 0 0 6 @ + # n ] ) ] D.I.(.L.sXjXxXtXM.(.B.R T U U U U I F D D A c c c 0 0 0 0 - w r w w w * = = = $ $ $ & = - - = @ @ @ . . . . . . . . . . . O 8 9 8 8 9 9 0 Z D A Z F P J L R $.%.8.0.0.0.a.d.d.d.d.g.g.g.h.j.j.g.w.%.w.I z z V Y U I I I I I D Z Z Z N N N M 9 9 0 8 6 8 4 F g.f.g.T . . .                                                                                                                                                                                                       ",
"                                                                                                                                                                                                                                                                                                                                                                                                                                      9 . . 0 R I I F A F F 0 6 6 8 4 # . ^ [ / ^ / } #X,X3X>XD.m.B.>.%XaXaXaX%XU.I.I.m X o o Z D D I $.$.I D A A S A Z A I U U U I I I F 9 0 8 . & L.hXMXxXdX:X, . @ A F Z M N S 7 @ @ @ G.).D.{.mXCXZXAXU . . = R %.$.$.$.$.R U I I R $.< o o m XXoXOXP., . # D 8.U U P Z Z A A A S Z S I U U $.M + . o @ @ @ . . . X h _ ( ] H.I.(.L.gXjXjXtXS.M.B.$.R R U I U I D D F A M M M c 0 0 0 - w % w w r * = = = $ $ $ & - - - = @ @ @ O . . . . . . . . . . + 8 8 6 7 9 9 0 Z D D Z F P P P $.9.%.8.9.0.0.a.d.d.d.d.g.g.g.h.j.j.h.0.9.0.I z z x I I I I I I I D Z Z S Z M N M 9 9 0 9 6 6 @ D f.d.g.R . . .                                                                                                                                                                                                       ",
"                                                                                                                                                                                                                                                                                                                                                                                                                                      9 . . D q.0.9.0 6 9 0 8 6 6 6 6 4 @ < < & & & : 4.K.J.D.[ ( / v B.~.K.K.qXcXgXgX XZ./.T.< ; ; A U P H S A A A F F F I R U U I P I D @ @ / [ h D.%X%X*X}.6.o . > A D N M Z Z 7 p p d Z.~.D.XXzXNXCXAXU . . @ R 8.$.$.$.$.R I 7 @ > > 6.K.J.H.o.o.;...Y H H I U I I P A F P L A A A A S A D S @ g ] ( { { } :.3.2.2.H.P.I.}.pXgXgXtX XH.K.G.*.r.r.$.$.U P L P H Z N Z N M M Z l * * * % w w w * , 6 = = = = > > = * = = = & & & @ @ + O @ @ @ @ > > 6 9 0 0 9 0 N M M P U U I R $.$.$.9.9.9.0.g.g.g.g.g.g.g.g.g.g.g.q.0.a.0.x x x V H H K I I I P F F H A M N M 0 8 9 9 6 6 6 M I P H P P I R M O . .                                                                                                                                                                                                       ",
"                                                                                                                                                                                                                                                                                                                                                                                                                                      9 . . J g.f.q.8 @ 6 6 6 6 6 6 6 6 @ + O . . O O [ V.m.,.v j j f >.A.M.S.eXCXMXMX2XOX>X%X& . # M I F D A A Z F H H L T R U T I P U D O . { M.4.D.J.M.(.Z.k . . 9 F A Z M Z M , h h a V.P.J.#XxXMXMXBXY . . = R $.R $.R R R I @ . . . !.>X=X$X~ a h b #.$.$.U P I I P D P I P D A A D c 0 M q O b >.O.Z.Z.m.D.J.J.J.$X=X=X>XlXMXMXzXJ.[.n.+.E E R $.$.T P H H D M M M M M M Z z % % % % % % w * 8 6 6 > > 6 6 6 = % = @ & % % $ @ @ @ @ @ > 6 8 0 9 0 0 M c 0 M A S S I %.$.$.8.9.9.0.0.9.9.0.h.h.g.g.g.g.g.g.f.g.g.0.$.9.$.t e e x R U T I I I P D D A M M M M 8 6 7 7 4 3 @ Z 0.$.$.P Z D D @ . . . >                                                                                                                                                                                                     ",
"                                                                                                                                                                                                                                                                                                                                                                                                                                      8 . . J g.f.0.8 @ 6 6 6 6 6 6 6 6 @ @ @ O O + o o.Z.V.6./ n m v B.J.J.M.eXNXxXxX;X).&X~.o O O M I H D Z A S F H H L U R T T I I R F O . } m.m.D.D.J.J.D.| . . 0 F F Z M N 0 = p a p V.P.J.#XzXMXMXBXY . . = R %.R R R U U I @ . # . G.oXXXP.( v ~ m L I I I P P I J Z H P L A Z A A 0 6 6 4 O s O.O.n.m.,.V.D.A.A.XX&XoX&XhXMXMXlXK.M.M.5.T U $.R R U P H P F Z N Z M M M Z l % % % % % % % * 9 6 4 > > 6 6 6 = * = @ & % % & @ @ @ @ @ @ > 8 9 9 9 9 0 0 0 M Z Z Z I $.R U $.9.9.9.9.9.%.0.g.g.g.g.g.g.g.g.g.g.g.0.$.9.$.a u u x T I I I I I P D D D Z M M M 9 7 7 7 @ @ @ Z 9.$.$.P D Z 0 o . 0                                                                                                                                                                                                         ",
"                                                                                                                                                                                                                                                                                                                                                                                                                                      7 . . I k.g.d.9 @ 6 6 ; 6 1 6 6 > ; 4 @ + @ # o o.Z.B.3.n b n n B.J.D.M.qXMXzXlX;XXX&X}.: @ @ M L F D S A S F H H P U T T U I P T F O . ] n.N.Z.D.D.J.V.~ . . M J D Z M M 0 = * a a V.P.U.$XmXMXxXnXY . . @ R $.R R I I I I > o o . F.$XXX{.~ h n b L P I I P P I H Z F P H Z N N Z 6 . . . o v O.O.m.m.,.Z.J.D.A.}.$XXX%XgXzXxXcXK.M.D.5.E I U U U U P H H F N N Z M M M M z % % % % % % % * 7 6 6 > > 6 6 6 - * = @ & % % & @ @ o O @ @ > 8 0 9 9 9 0 0 0 M Z S D U $.U U $.9.9.9.9.9.%.0.h.g.g.g.g.g.g.d.f.h.g.9.R R T a t t V R U I I P I P A D D Z M M M 9 7 7 > @ @ @ N w.8.9.I N 8 > @                                                                                                                                                                                                             ",
"                                                                                                                                                                                                                                                                                                                                                                                                                                    E 8 $.9.T P I P 7 @ 6 > ; 6 @ 6 6 9 9 9 c M M c > m.XXD.n o = = = n ] _ ( 6./.G.Y.eXnXnXgXF.D.H.| @ @ 7 D D S F P P L I R T T I P I P c 9 d s s V.~.L.#XL.;.s X ; N A M 9 8 6 b ] [ [ 3.B.2.#XyXwX1X;X..f h f H J P I A M M M  .+.{ ` qXlXhXtXf . . @ H I I P D F F F H H L H 0 9 0 0 @ X . : !.%X#X*XbXbXeXfXgXfX!.D.J.K.H.R.T.R.R.r.r.r.#.P P P P P F Z Z S Z Z N Z M y y y r w w w d M l l l M 0 9 0 0 0 0 l 0 7 7 7 7 7 7 7 9 9 7 7 0 M M D P J F F F F D P I I T 8.9.%.8.9.0.0.0.d.g.d.g.g.g.g.g.f.d.f.U N K K f y y y K I K P I U I A A D Z M M M 0 8 8 9 0 M 0 9 J P I P D W I M O . 6                                                                                                                                                                                                               ",
"                                                                                                                                                                                                                                                                                                                                                                                                                              E . . . D c.c.R N A N 6 @ @ @ = 4 @ 4 8 c c M Z F D S > ;.D.:.X + 6 6 + * k h h } >.@.O.eXCXCXBXXX).$X] . . @ D D S H P P P I T T I P P P P D A 4 . . B.#XI.pXhXtX[ $ . 9 D c 8 6 @ ] N.4.6.<.+.o.I.OXXXXXXXN.>.n.<.> 0 P I N 9 8 0 ..4.2.O.tXNXMXfXz . . o H I I P S A A D P P P P 0 9 9 @ b ..] o.;X2X1XwXDXFXDXNXxXMX}.M.Z.D.A.;.O.>.;.U E I P L P L L L A Z Z M M Z N Z M t e t t t t t z D A Z S N c 0 0 M M M M M 9 9 9 8 8 9 9 0 0 0 0 S D D P U I I P P P P I $.$.$.9.0.9.9.0.0.q.q.g.g.g.h.g.g.h.g.d.e.d.Y z z z r w % w L R U I I I I Z N Z M 0 M M 9 8 8 8 M A M 0 R $.9.I M Z F 0 . . 6                                                                                                                                                                                                               ",
"                                                                                                                                                                                                                                                                                                                                                                                                                              E . . @ q.k.g.R A F Z 7 @ @ @ 6 6 > 6 8 0 0 0 M D S Z @ ) } & . ; 7 8 + : v k h o.B.,.,.fXCXCXBXU.U.).( . . @ F F D P P P L I T T T P P P H Z A 8 . X G.$XP.pXMXgX( . . 9 D N 0 8 6 ' 4.2.2.<.+.o.K.&X#X&X#XN.>.n.O.X 6 T R A c 0 0 ' o.[ ` qXNXMXcXB . . o H U I P S A D D P P I P Z 9 @ . ^ B.>.2.#X>X&X<XDXFXDXCXxXMX#X(.D.H.D.6.>.,.4.#.U U I Y I L L L A Z Z M M M M S M i t t t e e e z D Z N N N M 0 0 c 0 0 0 0 8 9 8 8 7 7 8 9 9 9 0 Z D A F I I P P H J F P U R R 9.0.9.9.0.0.q.q.h.j.h.g.h.g.h.g.g.d.g.$.z B B y e w r Y U I U U U I Z Z Z N M M M 9 8 8 8 M S M 0 R $.$.I M Z F 9 . . @                                                                                                                                                                                                               ",
"                                                                                                                                                                                                                                                                                                                                                                                                                              E . . 7 k.g.g.T M A Z 6 @ > > @ @ @ 6 8 M c M Z D S S 6 ( o.* # > 6 6 @ * k h h ] >.;.@.eXNXNXBX~.).#XX.. X = A A A P I P L I T T I P P P L S D 0 . o F.$XI.tXxXtX/ . O 8 N M 9 8 6 ] 4.2.<.+.+.] F.OX$X&X$XV.n.V.;.o @ F J M 0 0 7 ] o.{ ` qXcXkXfXz . . @ L U I P A A A A H P P P c 6 # . n 2.o.+.#X>X>XwXZXDXDXBXcXbX~.M.A.A.A.;.:.>.<.#.I I I L P H H H D Z Z Z Z Z A D N i t t t w t t z S Z N N Z M c c l 0 0 M 0 9 9 9 8 8 8 9 9 9 9 0 A D A F P P P H H H F P $.R R 9.9.9.9.w.q.q.a.f.e.e.e.e.f.h.g.e.e.f.#.z z z y e w y L I I I I I P Z N Z M 0 0 M 0 9 9 9 Z D Z Z R R $.J 7 0 c 0 A G E                                                                                                                                                                                                               ",
"                                                                                                                                                                                                                                                                                                                                                                                                                              E . . > g.g.g.D 4 9 8 6 @ 6 = > > 6 > 8 A S Z D D A A N , < 9 l M 0 0 M > X X X & p p p F.&X#X*XhXhXhXQ.` ;.| @ @ @ A I L P I I I I P P P P L P A + # 2.U.M.qXxXgX..a b j & o o O o ..4.2.3.+.[ ] H.<X&X&X&X&X$X=X}.: . O o > @ O : B.Z.C.Z.X.V  .C N H D H L F F A F P H H D A D A > & = : o.,.O.O.vXZXAXAXyX*XrXT.[ +._ s : : p B H Y L L L I H S S Z Z Z Z D H F H I U R I t e w y N A A D A Z Z A Z Z Z S Z Z Z Z Z A D D Z Z Z N N Z A A A A D D D D Z D I I P R 0.0.0.0.9.9.$.K q.d.d.V i r x w.q.g.&.i i k i t t t V Y K H P P I P A D A M M c 9 @ ; ; Z T I P %.q.e.0.Z M M @ . O .                                                                                                                                                                                                                       ",
"                                                                                                                                                                                                                                                                                                                                                                                                                              E . . = d.f.g.A @ 6 6 > @ @ ; 6 9 9 8 0 Z D S S A A A Z 8 q M Z M M M Z 7 # O . X * * * A.+XU.#XjXjXxX!.O.,.[ O O # A I P P I I I I P P P P P I D @ # <.U.M.qXMXgX:.k ~ k o . . . X +.B.2.5.+.o.[ }.iXwX&X&X=X@X4X{.< . . . > o . : V.D.Z.F.s X $ . D U I I F D D A H P H P A Z A M o d b ( ,.,.O.>.SXHXFXDX2XU.).,.! ` ` & . . . M P F F L L P F N N Z Z Z Z F H H L I U $.I t w % , S S D D D S A A Z S S A S A S Z A A D D A A A A A D A A A A A A A A Z D I I P R s.a.a.a.0.0.$.K q.q.d.x e % g w.q.g.&.u i i u e e e H U I I P P I F Z S N M M 0 8 @ 4 @ N T I I 0.g.k.f.A Z M o . . .                                                                                                                                                                                                                       ",
"                                                                                                                                                                                                                                                                                                                                                                                                                              E . . @ d.f.g.A @ 6 6 > @ @ @ 7 0 9 9 0 Z A A S A A A M 0 M M M 0 0 0 M 7 O O . & a a s J.OX).%XjXjXjXR.! O.) O O O A $.P P I I I I I P P P P I D + + 3.I.M.tXNXcX:.i s a . . . . . } B.2.;.[ _ ` }.yX3XOX&X1X1X5X}.o . . . o # . & V.A.m.V.h $ * $ N I P P F D D A P I P L A A A M O : f ^ @.@.@.@.SXHXFXFXuX_.$XV._ O.o.* . . . N L L L P P P F Z Z Z Z Z Z F H H H I U 8.I r w % , Z Z S D D A A A A Z S A A A A Z Z Z S Z Z Z A D D D A A S Z S A D D Z D P P P R a.g.g.#.V V x K 0.0.q.x e w f q.e.h.&.u i i t e e w K I I I I I I F Z S Z M M M 9 @ @ @ 0 P J F 9.f.g.d.F D A @ @ @ @                                                                                                                                                                                                                       ",
"                                                                                                                                                                                                                                                                                                                                                                                                                              F O . > %.w.w.M @ 6 6 > @ @ @ 7 9 9 9 0 Z S S A S Z Z M M M M M A A D H M 6 6 ; o & : : 4.J.Z.F.1X6XjX XZ.!.C.f j b N H P P P I I I I P P D M Z M + # 3.I.J.;XiXqX<.^ / / f . V i.i.Y.Z.C.B.4.G.F.;XgXgXwXOXhXjXjXtX6.+.<.j * ( ^ { {.#X}.{.b X X X N H L H A A A A H H H H 0 7 8 7 g b n ~ R. X X XfXcXlXfXQ.,.V.{ h v h X @ 7 9 H P L L F F F A Z N Z Z Z D U U I Y V V *.V w w % , D D A D D A A A A S A A D A A A D H F D D A A D D D D D L L L F A D S D I I I H V | | i u u e #.f.e.f.x e e t V V V x e e u x V V V I U U I F F J D N Z N 0 8 7 7 0 M 0 F R R R P P T P 9 8 @ Z                                                                                                                                                                                                                             ",
"                                                                                                                                                                                                                                                                                                                                                                                                                          Z 0 7 > . > R U I 9 @ 6 4 @ ; @ @ 7 9 0 9 c S A S S Z Z Z Z Z Z M Z P P I $.F q 9 0 @ . . . ~ O._ <.U.{.nXuX4XyX<Xn.m.Z.n 6 P P P P P I I P I A 6 9 7 O . 4.P.K.XXOX{.o.[ +.+.+.$ i.MXMXqXJ.K.H.H.<XuX5XGXKXgX@XhXxXxXhX>X=X>XZ.+.D.A.H.>X,X,X,Xm . . O N A A A A A A A Z Z A A 7 + + o ] o.} ) :XxXjXjX5X4X,X+Xa s ~ : . . . . > W P P I P P Z Z S S Z Z Z Z N D $.$.$.I i i ! ! w w % z D D D D D D A D A D D D D D D S F I P H D S D D D D D F I U I H Z Z Z F R R R x e e e u i i e &.k.h.j.V e u u u u e w w e e V 0.R R U I U I A S Z N N Z N ; + # > P I H R q.q.d.H 0 A l . . .                                                                                                                                                                                                                               ",
"                                                                                                                                                                                                                                                                                                                                                                                                                          . . N H M N T I P 9 @ ; 6 = > 4 = 8 0 0 0 c A D Z S A S Z S A A Z Z P P I I A 8 8 9 > & g g _ o.} <.U.}.NXkXiXlXwX(.J.J.' d V Y P I I I I I I Z @ 6 6 o o 3.I.J.{.#X}.>.o.o.<.:.~ |.MXNXrXJ.J.J.H.;X5X,XAXKXgX@XiXxXxXhX&XOX&XF.N.V.m.A.>X3X3X3Xm . . . M Z Z Z A A A A Z Z D D 7 @ + = ] o.[ ) *XjXdXsX:XoX&X~.k a v * . . O # 8 P F P P P H M M Z M M A A A Z A K K K H V | | | r r * z W F D D D D A A D D F F F F F D H P L H F D F F W H F P I I I H Z Z A F Y U I x i i t u u u e #.g.e.e.f e u i k i t y d a x K $.U I P P I P Z Z M 0 0 0 c 0 9 9 N I R P P I I U l 7 0 9 Z A F                                                                                                                                                                                                                               ",
"                                                                                                                                                                                                                                                                                                                                                                                                                          . . T c.c.d.F D D 8 @ ; 6 > 6 6 6 9 0 0 0 N D A Z S S S Z A D D A D P P P I F Z N S 0 / I.~.2.} [ 2.M.I.BXZXDXDXpX_.).)...f n m H T I I I I I 0 . . . & & ;.I.J.P.#X~.H.Z.3.4.3.F.tXCXZXrX(.J.J.H.-X5X,XAXKXNXyXiXMXMXlX&XOX&XG.2.N.,.V.>X2X3X2Xm . . . @ 8 8 0 D A A A Z Z A Z O . . o ] o.[ ) *XjXdXsXG.@.n.>.h X . @ 6 6 6 Z F F F D D D Z 9 7 9 = z P H H P H t e e a x.c.c.x.a y w z R I I P H F A D S H I I I U U I I I H A J P P I U R U I I I I I U I R I x N x x $.8.$.i e e e #.d.q.z % e e f P P D P 9.9.9.R I I I F D F D 0 9 9 6 @ @ 7 0.d.q.q.9.9.0.A 7 7 7 O . . A                                                                                                                                                                                                                                     ",
"                                                                                                                                                                                                                                                                                                                                                                                                                          O . A k.j.q.F D D 8 @ ; ; 6 6 6 6 9 0 0 0 N A Z Z Z Z S S Z D F F F P P P P D Z A D M m F.G.>.{ [ >.(.I.BXDXDXFXwX_.I.I.] s v v L R U I I I U M . . . . . } U.(.I.P.I.L.F.4.B.B.L.pXZXZXrX(.I.I.H.>X5X,XAXKXNXuXhXNXNXlX&XoX$XZ.>.B.,.n.&X3X3X,Xm . . . @ 6 6 9 F D A Z A Z Z M # . . X ] ;.o.` *XxXjXsXG.,.m.>.a . . @ 8 6 6 Z D D D D A D D 0 7 7 & x P H P P H t u u k x.c.c.h.y w w f U U I P H H D D D L Y I I I I I I I L D H P P I U U U U I I I I R I R I z N x x 0.a.9.f e t e I a.q.x % e e f P P F I 0.9.8.R I I I D A D D 0 9 9 8 1 @ 6 9.q.q.w.$.8.0.D 9 0 0 o . . 0                                                                                                                                                                                                                                     ",
"                                                                                                                                                                                                                                                                                                                                                                                                                          . . M g.f.0.F W F 9 @ @ > 6 6 6 6 9 0 9 9 M A S S S S Z Z Z A D D F P I P I F A D F N 7 7 < ] O.[ ;.m.L.NXZXZXZXwXU.U._.o.h ~ n D P I P I I R 0 . . . m ] C.;X;X;X1X*XZ.m.B.N.B.J.gXZXCX9X` { o.<.C.Y.6.SXKXnX5X X8X.X.XP.I.I.Z.Z.*X;XeXpXpXgXgX=.* p & O O + 6 W L F D N Z 0 6 * a p s 2.B.B.N.!.*X*X XB.>.>.o.& . . @ 8 6 6 M A A D D D D D l 8 7 $ z P L I I L u u i k x.c.c.e.r w % z U U U P H F A D A P I I I P I P I I P S F I I P I I I I I I I I I I U P z l z x w.0.$.g w w w I g.q.d % w e g P P D I 0.9.9.R I I I D A F D 9 9 9 6 @ # 6 a.g.a.q.9.0.a.J 0 0 = . . . 9                                                                                                                                                                                                                                     ",
"                                                                                                                                                                                                                                                                                                                                                                                                                        6 . O P d.d.%.Z A A 9 @ 4 6 6 6 6 6 9 0 0 0 M S Z S S A A S S F F F H P P P P D S D F M 8 5 @ : : & b @.m.*XwXyXwXwXgXgXgX*XJ.K.H.' | X. .z 4 7 B / v n ~.&X;XlXMXxXMXgXA.4.4.6.[ ( |.mXNXi.. X X j X.| h vXAXyXyX6.' ] ..4.4.4.A.U.yXlXZXDXZXCXMXR.;.3.<.j g b C 0 0 0 9 o @ o & ) [ _ o.H.H.H.K.A.C.C.B.O._ _ n . . . @ c 0 9 M S S S A D D A z , - * N H H V V V e e e x z.c.x.&.z g g N $.$.$.P L H D F F P I I I I I I I I P F P I I I I U R R $.$.R R $.R $.R H P V | e.a.0.N x x x $.g.q.z g g a x P P H P $.$.$.I F F F M 0 0 0 0 M l M Z M D 8.8.$.T J J P 0 > 7 A                                                                                                                                                                                                                                             ",
"                                                                                                                                                                                                                                                                                                                                                                                                                      G . . 7 d.d.d.T 6 9 9 7 6 6 6 7 7 8 7 9 Z Z Z Z Z Z S S A D S F I P P P P P P D Z S A D c 8 8 7 O . . g 4.,.S.$X3X@XwXHXJXJXeX+X&XOXJ.M.M.B.: . . ..`.U.H.$X&X-XlXMXxXxXhX~.N.5.5.n $ } 5XE.@ . & & n 1...( eXiX2XyXR.y.y.t.| V V Z.I.1XMXCXDXDXMXjX*X/.~./.5.,.N.;.o O # @ X . . s 4.N.2.B.#X$X$X&XR.C.G.Y._ k ~ h . . . 8 F D D S Z Z S Z Z Z N d r r d N N B i u u w % $ N c.c.j.K T $.8.0.0.9.9.R U P D P U U U I R %.8.9.$.U U U $.$.U U $.8.9.9.0.0.0.0.d.d.d.g.k.x.x.k.j.h.g.g.d.d.e.0.q.q.q.R P I I I P P P L P P D M M M 7 @ @ @ A F A 9.g.j.f.M 9 0 @ . . . . . @                                                                                                                                                                                                                                               ",
"                                                                                                                                                                                                                                                                                                                                                                                                                      @ . . 7 f.f.f.I @ 8 9 8 6 6 6 7 7 7 6 9 S S Z Z Z Z S S A D S F P P P P P P P D Z Z A D 0 7 8 7 @ o O f n.n.A.&X,X@XwXFXHXJXrX+X$XXXD.m.M.4.& . . ] I.K.J.#X&X=XhXxXxXMXhX#XZ.B.B.n * 5.#X& . X & $ b 1... .eXyX2X2XT.t.u.1.| m | H._.yXNXCXNXmXlXsX}.R.K.H.,.@.,.[ . . O O . . . r ,.N.>.B.#X$X$X&XF.5.C.C._ ! ) ~ : o . 6 D D D D A A S N N N N A D H N M N z i u i w % X N c.c.f.K $.9.8.9.9.9.9.U U P D J U U I U R 8.9.9.$.U U R $.$.U U $.8.8.9.9.0.9.q.f.f.f.g.j.j.k.h.g.g.g.g.e.e.e.0.0.q.q.R P P P P P P P P L P A M Z Z 9 6 @ @ N A A $.f.g.d.M 0 M @ . . . . . 9                                                                                                                                                                                                                                               ",
"                                                                                                                                                                                                                                                                                                                                                                                                                      G . . 7 g.g.f.T @ 7 9 7 6 6 6 7 7 7 6 9 A Z Z Z Z S Z Z A A S F I P P P I P P D Z Z Z D 0 6 7 7 @ @ O f n.n.A.&X,X4XwXHXJXKXrX+XoX+X(.M.M.m.=. . .C.K.H.D.#X=X>XlXxXfXfXtXI.N.3.2.k $ +./ . & f j f | 1.1. .rX5X3X1XT.t.u.1.| |  .<.>.G.BXZX9X-.-. X#XH.K.K.M.S.m.,.-.1.1.1.O.o.o.>.4.>.O.4.XX+X+X+XK.F.H.!.3.O.;.>.o.g . @ A Z A A D A D M M M c F P I D z M z t i u % % X N v.v.e.i #.9.8.8.9.9.9.I I P D F I U I U R 9.9.9.$.U U U R $.U U $.9.9.9.9.9.9.q.g.f.f.g.g.g.g.g.g.h.g.j.g.g.g.0.0.q.0.R I I I I P P I I I P A M N Z 9 6 @ > A A N R f.g.d.M 0 N o @ @ @ @ O A                                                                                                                                                                                                                                               ",
"                                                                                                                                                                                                                                                                                                                                                                                                                      c @ @ 0 d.f.d.I @ 6 6 6 6 6 6 7 7 7 6 0 A A S A A Z Z A A A A H I P L P F F F D S A S D M 9 0 0 ; @ @ < k ~ >.H.~.H. XnXBXBXbXbXbXfX%XXXXX$X>X>X>X&XJ.J.P.&X$X#X;XqX] ~ '  .n f a a / 1., o m 1.1...y.W.E.Y.vXVX9X!.W.E.W.E.=.=.=.g & % 9XvX .. .  .!.K.K.P.;XwX;X1X3X2X2X3XOXOX=X&XI.H.D.!.wXpXtXwX&XoX$X$XZ.m.Z.V.@.k @ 9 A A D A D D A A A N N P I R V p d r t t y z V z #.z.k.e.V $.9.%.9.9.9.%.R R I P P I U R $.$.9.9.9.%.$.$.$.$.8.$.$.9.9.9.9.q.d.a.d.g.g.g.f.g.g.g.d.q.q.e.&.*.#.*.#.8.8.8.U I I I P L H H D A A 0 8 0 0 9 9 9 9 Z M M Z D H F > > @ P                                                                                                                                                                                                                                                           ",
"                                                                                                                                                                                                                                                                                                                                                                                                                  s.. @ 9 9 N 0.0.0.P @ @ @ 1 3 4 6 7 8 8 8 0 D A A A A A S A F D D L P P I P A S Z Z A D A D Z M M M 4 @ 6 @ . X } ,.4.2.D.5X5X2XAXKXKXJXwX4X3X3X#XXXXXL.H.I.&X<X}.Z.D.m.k f j n j f p k y.T...k  .X.X.| u.8XW.T.IXKXvXT.W.].8XW.u.y.y.( ~ v 1.y.b % p & C.~.J.{.lXMXxXhX$XXXXXXX{.XXXXXX&X>X@X<XNXCXCXZX*XI.{.I.4.,.n.m.n.C Z A D D F D D D D L L H H U $.8.K e e t : * d 0.d.e.d.0.0.0.0.9.9.9.%.9.9.%.9.%.R U U I $.9.9.9.9.9.9.9.9.9.9.9.9.9.0.0.9.9.0.g.j.k.j.j.h.g.g.g.g.h.q.$.8.9.x u u u K R I I I I I P D D F Z c 0 0 7 @ @ ; 0 N N M 0 9 9 @ . . . . . . l.                                                                                                                                                                                                                                                          ",
"                                                                                                                                                                                                                                                                                                                                                                                                                  E . > 9 8 M 8.w.q.I 1 4 4 > 6 4 6 6 7 9 8 0 D A A D A S A A F D D L P I I P A S Z Z D D A A Z M c 0 @ @ @ @ . X } N.B.B.H.yXyXyXAXKXKXJXwX4X3X>X#XP.{.K.K.K.{.3X#XD.H.Z.m b m n j f f n y.T...n  . . .n t.'.W.T.IXKXvXQ.W.W.W.E.u.u.u.| ~ h =.y.b * p * Z.P.K.{.lXxXxXhX#X).).P.I.P.XXXX&X>X&X<XNXCXCXZX*XI.{.I.4.;.>.>.] A D D F D F D D D F L P L L $.$.0.V u u y < * d 9.a.0.q.w.8.9.9.%.$.%.$.9.%.%.8.8.R U U U $.9.9.9.8.9.R $.w.9.9.9.9.9.0.0.0.9.w.g.j.j.j.j.h.g.g.g.g.j.d.9.0.8.a e u e K R I I I P I P D D F S M c c 8 ; ; @ 0 M N M 9 9 0 @ . . . . O 7                                                                                                                                                                                                                                                             ",
"                                                                                                                                                                                                                                                                                                                                                                                                                  E . > 9 7 M w.0.q.I @ 6 > > 3 @ 4 6 8 8 8 c D A S A A A A A D F A H I I I P F D D D D D D A Z M M 0 @ @ @ o . X o.V.Z.V.!.iXiXyXAXKXKXJX1X@X4X@XXXXXXXXXI.I.P.,X&XJ.I.H./ j b j d p p j 1.C...j ^ | | b t.Q.Q.T.IXKXvXQ.].'.'.E.t.t.t.v a s t.i.b % * * F.XXI.XXzXxXxXhX+X_.U.U.U.I.P.P.OX@XOX>XCXZXZXDXqX+XoXXX^ & : & 0 F D D F F F D D D D L P L L R $.9.V e u w & & < $.q.w.0.w.%.%.8.%.$.8.%.9.9.9.9.9.R I U I R 9.%.%.$.R Y R 9.9.9.%.%.%.9.9.0.9.9.g.g.g.g.g.h.g.g.h.j.j.d.0.q.0.g e e e K R I I I I I P D D F D M M M 9 6 1 1 9 M M M 9 9 9 @ @ @ O O W                                                                                                                                                                                                                                                               ",
"                                                                                                                                                                                                                                                                                                                                                                                                                  M . F I H P T I I Z @ 3 > > 6 6 6 8 9 9 9 M A Z S A A A A D H L H P P P P H c 0 0 M D D D A Z N N M ; @ @ @ . X v 2.B.N.F.1XwX<XBXFXDXDXgXpXgXwXP.I.I.F.V.F.V.F.C.3.C.C.| m n | | | n  .|.9Xy.X.X.X.X.| u.0XeX0XVXVX0XW.W.9X9XW.E.Q.E.t.X.X.y.E.| a j j 2.V.4.C.pXhXiXiXeXeXeXrX:X:X;X;XeXgXfXgXgXfXfXfX!.Z.H.Z.p . . # M P F H P J P F H P P U R U I R $.8.K x x x z z z $.0.9.9.8.%.8.8.9.%.%.9.9.8.$.$.R R R R U $.9.%.8.8.R U 0.q.0.9.w.0.0.0.a.d.d.d.g.g.g.g.g.g.g.g.d.d.d.0.U $.I g e e e K R I P P F H D M Z Z M 0 0 0 8 6 6 @ 6 8 9 9 = @ @ 9                                                                                                                                                                                                                                                                         ",
"                                                                                                                                                                                                                                                                                                                                                                                                              G 9 . @ d.z.j.d.M 9 0 6 @ @ 6 6 ; 6 6 9 M c M M Z Z Z S S A Z H U I U I F D W A @ # # 6 H F A D A A A A 6 @ 6 @ O O . ~ 2.+.B.XX).I.pXMXjXmXHXKXKXGX/.M.Z.|  .' n & X g | |  .| / t.y.y.t.y.gXNX9XT.T.y.y.t.i.PXKXKXvXR.^.W.W.|.^.9XbXBXBX8X'.'.'.'.=.|  .X.f a * p %XwX>XwXHXKXKXHXhXsXhXlXHXKXKXPX#XU.U.U.} ~ _ ( * . . @ P U I U I I I I I U U 9.0.9.9.$.$.R $.8.0.0.9.9.%.%.9.9.9.%.%.8.8.$.9.9.9.$.U I L H U $.$.$.$.%.%.8.9.0.0.j.j.0.0.f.h.g.g.j.x.x.j.h.g.j.g.f.h.g.a.%.$.8.L M N N y e e e V I J H S M M 0 7 9 0 9 4 4 6 6 6 ; ; @ @ @ @ . . @                                                                                                                                                                                                                                                                           ",
"                                                                                                                                                                                                                                                                                                                                                                                                              @ . . @ a.j.k.q.M 9 0 7 @ = 4 6 6 6 6 0 M 0 c M S Z Z Z Z Z Z F U I I I F A F A o # # 8 H D A A A A A S 6 @ 6 @ O # # / ,.+.B.#X~.I.pXMXlXmXJXKXKXPX/.M.F.'  .' m : * f | | | | / t.y.u.t.y.gXMX8XT.T.y.u.t.i.GXKXKXvXR.W.W.W.W.Q.9XZXDXCX8XW.W.W.'.=.| X.X.b j a s %X2X>XwXFXKXKXHXhXsXhXlXHXKXKXPX#XU.I.I.[ ^ ] ] < O . @ P I I I U I I I I I U $.9.9.9.$.$.$.$.$.8.9.9.9.%.%.%.9.8.%.%.%.8.8.%.$.%.U P L L H R $.$.$.%.9.8.9.0.q.q.j.j.0.0.g.j.g.g.j.j.j.j.g.g.j.g.g.h.g.e.%.$.9.H M N N a e e e N P H H A Z Z M 9 9 0 9 ; 1 6 6 6 6 6 @ @ @ @ . . @                                                                                                                                                                                                                                                                           ",
"                                                                                                                                                                                                                                                                                                                                                                                                              6 . . @ 0.g.f.0.M 0 0 8 @ 1 4 4 6 6 6 0 M 0 0 M Z Z Z Z S A D L U U U U H A A M O . . + S H D D A A A A 8 @ 6 @ @ @ + _ 4.+.B.#X`.I.pXMXxXNXJXKXKXPX^.J.F.' |  .^ p : g | ^ ^ ^ m 1.y.u.t.u.qXfX^.E.T.u.u.1.y.PXKXKXSXQ.W.W.W.W.Q.9XZXDXNXW.T.0XeXW.X./  . .h s p p *X5X,XyXFXKXKXHXhXiXiXhXHXKXKXHX*XP.{.P.[ ^ ^ b > @ @ 7 P I I I I I I I I I I $.9.9.9.$.$.$.$.R $.$.8.%.$.%.9.9.8.$.$.%.%.8.8.%.$.R I I P H R $.$.$.8.9.%.9.g.j.j.x.g.0.9.f.j.j.h.h.k.j.j.h.g.j.h.g.g.g.d.9.9.0.P M N N y e e e B P H H D A D M 0 0 0 9 4 3 6 6 4 6 6 6 6 6 @ . O O                                                                                                                                                                                                                                                                           ",
"                                                                                                                                                                                                                                                                                                                                                                                                              F . . @ $.d.d.9.0 9 9 8 1 4 6 6 6 3 > 9 M M M Z Z S S Z M M M D U I U I D S A 0 & s n m V M M M M M N Z 8 6 8 6 @ @ @ / +.{ 2.K.K.J.qXhXhXlXSXSXSXSXQ.V.C.| | ..X.| |  .X.X.X.X.X.u.y.y.u.u.E.T.E.W.E.T.E.y.E.VXGXGXvXQ.W.W.W.W.W.9XbXBXfX0X0XSXSX8X1.X.1.1.X. .| V R.}.L.8XGXKXKXJXNXnXnXnXAXAXDXVX~.(.D.A.v * $ . 8 M M A I I U U U U U U R I U $.8.8.8.8.$.$.$.$.$.$.8.%.$.8.%.8.8.8.8.8.8.$.R R U P H L P I R %.8.$.w.0.9.0.j.x.x.x.j.d.q.g.j.j.j.j.j.k.g.g.f.g.f.d.d.d.a.$.8.8.V d z z g y y y N D D D Z N Z M 9 9 9 7 @ 1 6 > 4 6 6 @ @ @ 3                                                                                                                                                                                                                                                                                 ",
"                                                                                                                                                                                                                                                                                                                                          A M s.                Z A H D D                                     9 O @ > $.q.q.$.6 @ 3 6 6 6 6 6 6 @ @ 0 Z N Z Z Z A D N 8 6 @ M I I U P A Z A 9 o V.$X#X1.O @ @ 6 9 9 0 8 6 8 6 @ @ @ f / v ] V.m.N.XX3X3X3X6.o.O.+.<.1...v  .y.y.T.T.T.y.y.y.y.y.y.y.y.y.u.T.E.Q.W.W.W.W.W.W.qXwXwX9XW.W.W.W.W.W.].^.W.W.IXKXJXSX|.E.E.E.E.E.E.E.i.f p % V IXKXKXKXKXKXKXHXwX4X2X>X,.o.;.O.: . . o P $.R R R R $.R R $.$.9.0.9.9.%.%.$.%.8.%.%.%.%.8.%.8.9.8.$.$.$.8.8.9.9.$.P P P D Z A D R $.%.9.9.9.q.q.q.d.j.j.j.j.j.x.j.h.j.j.j.j.j.j.g.a.0.q.0.9.9.0.$.P I I z w w e V P H H N M Z A 0 9 0 8 6 @ @ @ @ @ @ = 3 6 6 @ O . F                                                                                                                                                                                                                                                                                 ",
"                                                                                                                                                                                                                                                                                                                                        E . . W                 . . % X O               @ . .         G . . . . 7 @ 7 $.0.q.R 4 4 6 6 6 6 6 6 6 @ @ 9 M M Z S Z A D Z 8 6 @ M I I U I A A D l . B.oXXX+.. O @ 7 0 0 0 8 6 6 6 @ @ @ f ^ k ( V.m.m.#X3X1X<XC.O.>.2.<.1.1.8Xu.1.y.Y.Y.y.y.y.y.y.y.y.y.y.y.y.T.E.E.W.W.W.W.Q.W.wXwXwX9XW.|.^.W.W.W.'.W.W.W.IXKXKXvX^.E.E.E.E.E.i.i.u.b a * V IXKXKXKXKXKXKXHXwX4X,X>X5.O.>.2.p . . o P $.R R R R $.R R $.$.9.0.9.9.%.$.$.9.$.%.%.$.$.%.%.8.8.9.$.$.$.$.8.9.9.$.P P P F Z D F $.8.8.9.9.9.0.q.q.d.j.j.j.j.j.j.h.g.j.j.j.j.j.j.g.0.0.a.0.9.9.0.8.P I I z e w e N P H H A N Z Z 0 9 0 9 6 > ; 6 @ @ @ @ @ 6 6 . . . A                                                                                                                                                                                                                                                                                 ",
"                                                                                                                                                                                                                                                                                                                                        E . X E                 . o p * & l.          @ . . @         F . X . > 0 7 8 9.0.0.R @ 4 6 6 4 6 6 > > @ @ 9 N M N Z D D F S 6 @ @ 0 I I U I D S D 0 . 6.oXXX{ . . + 9 0 c 0 8 4 6 6 @ @ @ g n s ( V.Z.m.%X2X2X1XC.+.2.<.<...t.VX'.<.y.y.y.y.y.y.y.u.u.u.y.y.y.y.E.E.E.W.W.W.W.W.W.qXwXwX9XW.|.W.W.W.W.'.W.W.W.IXKXKXvX|.W.E.E.E.T.y.i.u.b f p V IXKXKXJXKXJXJXHXwX4X,X=X2.O.>.2.p . . o I $.R R R R R R U $.8.0.0.w.w.$.%.%.$.%.%.%.%.$.$.%.8.8.8.$.$.$.$.9.%.9.$.P P P F Z A D $.w.8.9.%.$.w.a.q.d.x.j.j.j.j.j.j.j.k.j.j.j.j.j.g.q.0.q.0.9.0.q.9.I I I x w w w N P L H A Z A Z 0 9 0 9 6 6 6 > @ @ @ @ @ @ @ 0 G Z s.                                                                                                                                                                                                                                                                                ",
"                                                                                                                                                                                                                                                                                                                                        E X * | *.l 0           & p k ) 4./ @ # . . . X : * & 0 W s.R @ . X o D R U R R U I F @ @ 4 6 6 6 6 8 9 8 7 0 M N Z Z Z A A M O . . O M I I L 1 @ O = / m.K.I.m.k k ~ z @ @ @ @ > 8 6 # # . a / ~ [ Z.A.A.&X2X,X=X .k b b 1.u.u.SXGX0XY.E.y.y.y.y.T.T.T.T.y.y.y.y.R.H.F.R.Q.W.W.Q.^.gXBXAXeX!. X^.^.W.W.W.}.}.}.GXPX0X9X|.|.^.W.W.T.y.i.y.| n n n e.c.c.c.bXCXBXBX3X@XyXpX2.o.2.<.: . . 7 R $.R R I I I U T $.0.9.%.8.%.$.$.$.$.$.$.$.$.R R R $.$.$.R I I U R R R U F D D A Z F P $.w.9.9.0.q.d.g.g.g.x.k.j.j.j.j.j.k.j.j.h.a.a.d.a.w.9.9.$.I U $.U D D z t e e w N F D F N M M M 9 6 6 6 6 6 6 > 7 7 7 @ . . q                                                                                                                                                                                                                                                                                         ",
"                                                                                                                                                                                                                                                                                                                                        a.$ * / } & X A         p h ` o.4.~ $ : h s g m ..] ) & . . . . . . . H $.w.0.T P P Z @ @ 6 6 6 4 @ 9 0 0 0 M M M Z M 8 8 8 < o X X & V r.r. .& & : b m.Z.B.G.K.@.O.@.s O O . # o @ @ o X . b +.o.,.D.D.M.rXnXnXfXV % : : t.y.5.SXKXvXC.T.y.y.y.y.~.%X%X#XT.y.y.y.8XrX*X*X~.~.}.~.}.GXJXJXgX#X#X#X}.W.W.W.#XoXoXGXIX!.^.8X8X8X8X|.T.y.i.i.y.y.y.u.v k k ^ fXMXlXhX2X3XhXBX3.o.+.+.: . O 0 $.$.$.R I I T Z ; M 0.8.$.$.$.$.R $.$.R $.R R R R R R R R I P P P I I I P S S Z S Z H U $.8.9.9.h.x.j.j.j.x.k.k.j.j.j.j.j.j.j.j.g.0.0.0.0.8.%.%.R L L I L N N t e y y y M A S A M 0 0 0 6 ; @ 3 1 6 4 7 9 9 9 @ . . 9                                                                                                                                                                                                                                                                                         ",
"                                                                                                                                                                                                                                                                                                                                        *.~ ~ ] ;.o.{ | W E E N p ~ B.6.~ / / o.D.D.D.B.+.....g o & & . . . . D U $.0.R I I D > @ 3 6 ; = @ 8 0 0 c M Z M S c @ @ # , ] { ] D.:XpXpX:XO.N.:X%XB.4.B.m.*XeXeXeXi.m ' =.g o & s [ ( / _ [ o.4.J.J.M.SXKXJXGXK % p g t.y.u.8X0XvXSX9X^.W.y.T.}.%X%X}.Y.y.y.6.SXKXJXVXP.}.}.~. XPXKXKXbX=X=X=X#XW.W.^.$X$X$XAXVX|.|.|.|.8X].W.i.y.i.T.W.W.8XW.X.| | ] qXyXwXyXkXNXCXcX4.O.O.o.: . . 9 R $.$.R T I Z ; . > $.$.$.$.$.$.$.R R R R $.$.R R U R R R I P I P I I I P A A A A Z H I $.8.9.w.g.z.j.j.j.j.j.k.j.j.j.j.j.j.j.j.g.0.9.0.0.8.%.%.R H P I H z g u x W D N Z Z S A M 0 0 0 6 1 1 @ @ 4 6 7 0 0 0 # @ @ 0                                                                                                                                                                                                                                                                                         ",
"                                                                                                                                                                                                                                                                                                                                  R O O ~ ,.>.;.o.{ { v . . . . * v V.B.n / ) ..D.D.D.N.+.+...g & * & . . . . 0 D U 0.R I I F 6 ; ; ; @ @ @ 7 0 M M Z Z Z A 0 . . . p 2.4.2.I.6XxXMXyX@.M.6X6Xm.,.m.S.tXDXDXZXiX>X>X3X| . & a o.} ] _ ] ] 2.J.J.M.SXJXHXGXK & g a t.y.u.T.D.vXKXeXF.W.i.E.}.#X%X}.y.u.t.1.SXKXKXVXP.}.}.~. XPXKXKXbXOX=X@X#XW.'.^.XXoXoXCXbX!.^.8X|.8X].W.i.y.y.i.E.W.W.E. ./ ^ / &X4X@X4XnXZXZXBX5.o.o.[ * . . 9 R R $.$.9.P O . . @ U $.$.$.8.9.$.$.$.8.9.$.R T T R $.8.9.I P I I I I U I D A D D Z F I R $.R $.h.z.x.x.x.x.z.k.j.j.k.k.j.j.j.j.g.0.0.0.0.w.w.0.$.P P U H e u u z W D A A A A Z l 0 0 0 7 6 6 @ @ @ @ 7 M M M F                                                                                                                                                                                                                                                                                               ",
"                                                                                                                                                                                                                                                                                                                                  s.. . ~ ;.o.{ { } [ / X . . : ~ _ 4.>.~ ) ( o.V.V.V.3.] ] ] f * : : . . . . N P $.w.P D W A 6 6 6 ; @ @ @ 9 0 0 M Z A S A 0 @ O . g +.:...Z.>XpXpX*X@.n.:X:X,.>.4.@.|.fXfXfXwX>X>X<X=.p s v O._ _ _ ] +.,.M.M.S.eXAXAXSX*.f n m t.y.u.E.!.eXSXeXrX|.u.y.#XoXXX#XT.y.y.6.SXHXHXbXXX#X*X}.*XGXKXKXbXOX&X=X%X|.|. X;X<X;XgXfX}.|. X|.|.|.|.T.y.y.y.W.W.8XW... . . .F.K.L.L.fXNXNXbXB.O.;.<.& . . @ P U $.R Z V /  .X.C 9 F I I T I P I I I U #.#.#.$.L D F J P I P P P P P J A A A D F H P T %.9.9.g.x.x.x.j.j.x.k.j.j.j.g.g.f.d.d.d.9.9.9.%.R R $.P B B N z w y g N D A A N M M M 9 7 8 8 6 6 6 6 6 6 7 7 > 6 6                                                                                                                                                                                                                                                                                                 ",
"                                                                                                                                                                                                                                                                                                                                  R . . a ~ h h >.,.4.o.: p p ) D.A.Z.n.( / ^ ] 4.6.B...g j k s p a s o . . o T w.w.$.M 0 M 0 6 6 6 1 ; @ @ 9 M 0 M Z A A Z M M 0 9 M H H H z g f f , g f C f : : & * } ,.,.>.H.$X#X$XtXfXfXfXqX*X#X#X#X&X;XqXqXeX&X+XOXG.t.y.u.u.u.y.y.y.y.y.;.eXHXSX0X0XgXbXfX$X#X#X#X#XgXmXzXhX<X<X<X>X2XZXKXJXbX@X&X=X>X>X=X=XhXMXhX=XOX&X&X&X#X X X#X!.W.'.W.W.].8X8Xy.1.t.=.: X % *  XuXuXyX/.V.A.Z./ h v b N P I F O ' &X$X&X6.. . @ A D N N A N + < ] 6.F.D.... . O A I P P D S S S S A S F I P P R d.h.h.j.j.j.j.j.j.x.x.j.j.g.f.f.0.9.9.9.$.R R U L L I N w e w w * 0 D A A A A M 0 0 0 ; @ @ ; 6 6 6 7 Z Z Z 9 . . @                                                                                                                                                                                                                                                                                                 ",
"                                                                                                                                                                                                                                                                                                                                  l.0 D z a p h >.4.4.o.p p j o.Z.Z.D.V.] ) ^ / { { ..( g j k n ~ ) ^ & . . o R 8.w.$.0 9 M 0 6 4 6 6 6 @ @ 0 M c M Z Z Z Z M M N N S S D F 4 . . . . + 5 4 2 . . . & [ ,.>.>.H.$X#X$XkXCXNXNXNXhX3X3X3X4XgXFXDXDX<X+X&X~.y.u.u.u.y.y.y.y.y.u.1.eXKXKXKXKXKXKXGX&X$X&X$X#XiXxXzXhX1X<X<X<X2XZXKXKXgX@X&X=X=X>X=X>XlXMXhX&X$X&X&X&X#X X X#XSXGXPXIX8XW.8X].t.=.1...* & * *  XuXyX2XD.m.Z.Z.B.B.A.6., @ @ @ .  .&XoXoX7.O . @ D A N Z D Z # & ] V.I.I.;.. . . A I P P D S S Z A S S F I P P R f.h.h.j.j.j.j.j.j.x.x.j.j.g.q.0.0.0.9.9.$.$.$.R P P U H e e w w * 9 S A A A A M 0 0 0 > @ @ @ @ 6 6 9 D A A 9 . . O                                                                                                                                                                                                                                                                                                 ",
"                                                                                                                                                                                                                                                                                                                                        s.. X v [ [ } ^ a p n ,.M.V.D.V.} ] ( ) ] ] ] ~ g j k ~ ) ` ) & . . o $.0.w.R 0 9 c 0 6 6 6 6 3 4 @ 9 l 0 0 N Z Z Z Z M N N Z A D F > . . . . @ 7 8 7 o . . & o.n.,.,.K.&X&X=XnXCXNXNXNXhX>X<X<X@XgXFXDXDXwXOX<X3XT.t.t.t.y.y.y.y.y.u.:.vXKXKXKXKXHXJXAX&X$X&X&X$XiXxXmXhX<X<X<X<X2XZXKXKXgX+XOX@X=X-X=X=XgXMXhX=X$X&X$X$X#X X*X#XGXKXKXPX9X|.8XW.t...1.X.: * p *  XaX6X5XA.n.V.m.B.B.V.4.& . . . . ~ XXXXoX<.. . O q 9 M N A M . . / V.P._.;.. . . D U P P D S S Z A S Z D P P P $.f.j.h.j.k.j.j.j.x.x.x.k.x.h.q.9.0.0.9.9.$.$.$.R P P U H e e e w * 8 Z Z A D A M M M M 6 @ @ @ @ @ @ 8 F J F 0 @ @ 6                                                                                                                                                                                                                                                                                                 ",
"                                                                                                                                                                                                                                                                                                                                        b.. . * h h s v { ] o.;.[ { ;.o.~ n n j f f f s p a p v ~ ) ^ o # O @ I $.$.I 8 ; 7 7 1 6 6 6 7 8 7 0 M M M N Z Z Z A H H H F D D F M 8 7 7 7 8 9 0 0 > @ + o ] 4.,.>.C.F.D.D.qXeXqXqXfXwXoX$X$XXX*XeXeXeX!.G.K.#X/.y.T.T.y.y.u.u.u.u.1.0XVXbXSXPXJXJXAX+X+X$XoXoXiXMXzXkX2X3X<X=X5XCXFXHXnX2XyXyX<X=X<XwXlXMXlX>X&X&X&X&X#X#X$XoXGXKXKXPX'.Q.W.E.t.=.1.X.f a j g Y.%X}.}.P.I.I.P.m.4.C.4./ b s V e.'.qX;X>XF.m g < g b B B N z b / o.;.{ o./ 6 6 7 F P F F A S A Z Z Z Z F R $.$.8.g.k.j.k.g.j.h.d.g.x.x.x.g.d.q.0.0.9.9.%.I P P H z x x x d d , z z M Z N M M M 9 8 8 9 6 @ @ @ 9 0 M 0 7 7 7 7                                                                                                                                                                                                                                                                                                       ",
"                                                                                                                                                                                                                                                                                                                                        E . . X n ( ^ [ B.B.6.{ p a k j & X . . . . . . X X X & & & : o @ @ > P T T P 6 @ @ @ 1 6 6 8 M 0 0 Z Z Z N Z Z Z Z F I I I P D D F F P F D D Z M Z Z 8 8 6 @ = : : : h ~ ! k O.@.O.O.n.J.J.J.J.J.m.@.@.>.k a j  .Q.W.W.W.E.y.y.y.y.y.i.!.oX).~.IXKXKXGXfXwXwXwXwXlXzXzXmXyX3X2X<XyXMXDXJXCXjXxXxXyX@XwXMXmXmXkX>X$X&XOXoX@X=X=X=XGXKXKXPXE.y.T.y.t.1.1.=.m n ^ j ] 4.o.4.>X,X3X,XG.>.B.5.>.V.4.R.AXZXCXiX6X%XA.}.%X%XF.f f f m Z.D.D.] . . 6 F D D D A A S A A Z S S Z M F %.9.9.9.f.x.j.j.h.j.g.9.0.j.x.z.f.q.q.q.9.$.$.R P D F N e e e t M c 0 c D D A M c c c 8 4 1 @ 6 6 ; @ D I I A . . .                                                                                                                                                                                                                                                                                                         ",
"                                                                                                                                                                                                                                                                                                                                        R . . X { ,.>.>.4.4.3.{ h h ~ v X . . . . . . . . . . . . . . # @ @ > T $.R I 8 @ ; @ = 3 4 8 M 0 l N Z Z Z Z A A Z F I I P J D D D D D D D A M M M 0 6 6 6 ; # . . . s _ ~ v [ O.O.O.>.J.J.J.J.J.Z.n.n.n.^ f j n T.Q.E.E.E.E.E.E.W.W.W.|.#XP.~.IXKXHXJXLXCXMXMXNXmXzXzXzXlXlXlXhXhXNXJXKXCXhXlXxXiX=XwXMXmXmXzXpXwXwXwXwXVXGXGXGXJXKXKXPXE.y.T.y.t.1.t.t.n j n b [ 4.O.B.1X5X5X5XF.2.B.4.o.B.,.T.CXCXCXiX5X#XM.&X3X,XF.p b b ^ Z.D.D.[ . . 6 D Z Z Z A S A D S S A S A M F $.$.9.8.f.x.j.j.j.j.g.9.0.j.x.z.g.a.q.q.9.$.8.8.I H P D t e e t 0 0 0 0 Z Z Z M M M M 8 6 6 > 6 6 ; > D P I M . . . l.                                                                                                                                                                                                                                                                                                      ",
"                                                                                                                                                                                                                                                                                                                                        s.. . . ' ;.;.>.4.4.4...h v / v . . . . . . . . O O . . . . . . O O @ R $.$.I 8 @ ; 4 6 4 4 8 M 0 0 N Z Z Z A S A Z F I I I P S D D D D D D S M M M 0 @ 4 6 6 O . . . h _ ~ v o.4.3.,.>.D.J.D.D.J.D.Z.Z.Z.( a s n T.Q.E.E.E.E.E.W.W.W.W.|.#X~.~.IXKXHXJXKXZXmXMXNXmXmXzXzXmXmXzXzXlXCXKXKXZXhXkXmXiX=XwXzXzXzXzXMXMXMXmXMXHXKXKXKXKXKXKXPXE.5.y.y.t.t.t.t.| j n j ] 4.@.m.2X5X5X5XG.o.4.3.[ >.@.T.AXZXCXuX6XXXM.&X3X,XG.r b ~ _ A.J.J.{ . . > D Z N Z A Z D A S S D S A M F %.$.%.%.d.j.h.j.x.k.h.9.0.k.z.z.g.a.q.q.0.8.9.9.I W P D t e e t 0 0 0 M A Z Z M M M M 8 @ > @ @ @ @ ; J T T M @ @ @ l.                                                                                                                                                                                                                                                                                                      ",
"                                                                                                                                                                                                                                                                                                                                        #.g : s ;.4.B.4.[ [ [ ^ * : p g l.v.v.v.v.v.v.v.v.v.v.G . . . 0 M Z D F H J D 8 6 6 6 6 6 6 9 M M M Z A S Z A A D Z F I I I P S D D D D D D A Z Z Z M 9 9 0 0 6 @ @ ; d g p : s ^ / ] 2.C.B.D.J.I.V.) ] ( / | n | T.Q.E.E.W.W.W.W.W.W.W.^.^.Q.Q.wXDXJXJXJXFXDXDXFXNXkXkXzXzXkXkXkXlXCXKXKXDXkXmXmXyX@XyXzXzXzXzXzXmXmXmXnXHXKXJXJXbXgXbXgXQ.y.T.T.t.t.t.t.| j n j n ( ~ ] &X5X5XyXG.O.2.3.@.G.9X9X0X0XqX}.{.G.o.V.F.L.4.( ( s j 1.u.6. .4 6 c D Z Z Z S Z S D D D D U T I U $.$.$.8.0.0.q.d.d.d.d.0.0.f.f.g.a.0.0.w.R I I T N z z g y y - z M M M M M M M 0 8 8 8 6 @ @ @ l D D F Z 9 9 F                                                                                                                                                                                                                                                                                                               ",
"                                                                                                                                                                                                                                                                                                                                  @ . @ v [ / ' B.Z.J.V.v k ~ a . . . q                       l.. . O I $.8.$.M 0 c 0 8 6 6 6 7 8 7 0 Z Z M A D D A A A D Z F I P P H D D D D D D D D D D A A N Z Z A 0 8 8 9 6 + + # . o * f 3.2.O.D.XXoXB.X $ X m X. .X.E.W.E.W.^.|.|.Q.R.R.W.W.E.E.E.@XBXKXJXJXKXKXKXKXCXhXhXjXzXkXkXkXzXZXKXKXFXmXMXmX2X@XiXMXzXkXzXkXmXNXnXNXJXKXKXKXwX@X3X=XR.T.R.T.t.1.t.t.| n b j g d < % I.5X5XyXD.@.@.>.,.*XNXlX,.O.,.@.@.h o p k ^ [ J.J.: O F T I P F F F A S Z S Z S S A D S F w.w.9.8.$.$.R 9.9.9.9.9.9.9.9.0.0.9.9.9.9.%.$.$.P D L L t e e w - 6 6 M A Z A N 9 0 0 8 @ @ @ @ 6 @ @ J 9.8.a.0 . .                                                                                                                                                                                                                                                                                                                 ",
"                                                                                                                                                                                                                                                                                                                                l.. . . h ) k ~ B.Z.J.m.~ ~ ( j O @ @ G                       l.. . O P R I P 0 0 0 0 8 6 6 6 8 7 7 9 Z M Z A D D A D A A Z F P P I L D D D D D D D D D D D S M M M N 9 6 6 8 6 @ @ @ . $ % a <.2.<.B.A.J.4.$ % & n X. .X.u.y.u.y.^.|.|.0XeX0X|.}.}.~.}.>XyXgXgXHXKXKXKXKXFXZXDXCXlXkXmXmXkXZXKXKXDXmXnXmXhXiXhXzXzXkXkXDXHXHXHXHXZXCXCXCX<X&X<X-XT.y.Y.Y.Y.Y.T.y.X.|  .| f a d a #X5X5X5XeXvXvXeXfXlXNXcXZ.,.B.] p X . s ( } ;.I.XXs O D T I L S S S A A S Z Z Z S Z Z Z D %.9.%.$.$.$.$.9.9.0.0.0.0.0.0.9.9.9.9.9.9.8.$.$.P W I P t e e w - = = l A A A Z 0 0 M 9 6 @ @ @ @ @ @ H %.$.q.0 . .                                                                                                                                                                                                                                                                                                                 ",
"                                                                                                                                                                                                                                                                                                                                D X & & { 3.<.:.{ { ;.{ p p *                                 l.. . @ 9.0.9.R 7 > 8 8 6 6 6 6 9 8 8 0 M M N A A D D A D A A A F F F F D D A A A D D D D D D D S Z Z Z 0 6 6 7 4 @ @ @ . k / ( <.2.4.] n ( n p p * | X.X.X.=.1.X.1.W.^.|.GXKXJXeXoX&X#X$X<X,X4XyXDXJXKXKXKXKXKXKXFXlXkXmXmXDXHXKXKXFXmXmXnXmXmXzXkXkXmXnXHXKXKXKXHXzXhXhX5X&X$X&X&XT.y.y.y.T.T.T.y.X. . . .f a f s G.<X>XOXBXFXDXZXtX*XqX X] ^ ( g # @ > : a s ] XXOXb . D I I H Z Z Z A S A S A A A D D A F $.$.$.$.$.$.$.$.$.$.$.%.8.R T T R $.$.$.R I I I N f x x y y y y 9 9 z M M M N M 8 8 8 8 4 @ @ 9 Z Z Z M 0 0 M @ 7                                                                                                                                                                                                                                                                                                                   ",
"                                                                                                                                                                                                                                                                                            v.. . 6                       . . . & g : p B.F.F.V.n s v h . . .                                 l.. . @ a.d.d.9.6 @ @ 6 6 6 6 6 9 9 8 0 Z M N A A D S A A A A S Z Z Z S D D D D D D D D D D D D D D A D 0 6 6 6 @ + @ + o ] <.+.<.4.B.n & * * g g d | X.X...=.1.X.t.W.W.^.GXKXKXbX+X#X%X%X2X2X2XiXkXDXKXJXJXJXJXKXFXkXkXmXNXHXKXKXKXFXmXmXmXmXkXzXkXmXnXMXHXKXKXKXZXhXzXlX<XOX&X&X&XT.y.y.y.T.T.Y.y.X. . . .f a j a _ ).).U.pXNXMXzXF.@.,.o.. . . 8 S M Z ; @ O , G.U.b O H I P H Z Z Z S S A S A S F I I P P R $.$.$.$.$.$.U U U U U U P H H P R R $.P J P P f u u u y 0 9 0 N Z A M 0 0 M 9 1 6 1 4 4 @ ; F $.R 8.9 . . . . A                                                                                                                                                                                                                                                                                                                   ",
"                                                                                                                                                                                                                                                                                              . & O                       . O . : p * * 3.G.F.C./ v ^ j . . .                                 v.. . @ 0.f.d.0.6 @ 4 6 6 6 6 6 9 8 8 0 N N N Z A S D D D A A Z S A A D D A A A A D D F F F F D D D A A 0 6 6 6 @ . O O . ( o.] +.,.4.h X * : d g p n X.X...1.1.X.t.^.W.].PXKXKXbXXX#X$X$X<X2X2XiXkXDXKXJXJXJXJXKXFXkXkXmXmXFXKXKXKXDXlXkXkXlXzXzXzXzXkXnXFXKXKXKXMXlXmXzX1X$X$X&X$XT.y.Y.y.y.y.y.y.X. .X.X.j f j a o.oXXXI.pXMXxXxX!.,.m.>.X . . 9 D M c M c 4 @ o.S.h # P U I H Z Z Z Z Z A A D A F U U I I $.$.$.$.$.$.$.R U R U R R I P P P R $.$.I P P I x u i i y 9 9 9 N A Z M 0 0 c 9 > 6 @ @ @ @ 6 P 8.R R 0 . . . . G                                                                                                                                                                                                                                                                                                                   ",
"                                                                                                                                                                                                                                                                                              X $ >                     E . o & p a * * 3.G.G.C.( v ~ s @ 6 6                                 v.. . @ 0.g.g.a.6 @ 6 6 4 6 6 6 9 9 8 0 A A Z D A D D F D D D A A A D D D D D D A F F P I I P P D S A A q 2 O O o & & & * [ 2.o.2.,.n.s . X * d g g | ..X.=.Q.W.W.W.^.W.8XVXGXAXgX+X$X$X$X3X2X,XiXmXZXHXHXHXJXJXKXFXnXMXNXNXFXKXJXKXDXnXmXmXmXmXmXMXMXmXmXFXKXJXFXkXlXkXlX<XOX$X$X#XY.y.y.y.y.y.Y.Y.X.X.X.X.b f j g o.#XP.U.pXxXxXxXQ.@.N.O.X # . 9 D Z M M c @ @ o.m.v + P $.I H Z Z Z Z Z S A D D J $.U I I $.$.$.$.$.$.$.R R R R R R I P P I $.$.$.I P I T x u i t d 9 9 9 Z A A M 0 0 M 9 @ > @ @ @ @ @ P 0.8.0.0 . @ Z Z                                                                                                                                                                                                                                                                                                                     ",
"                                                                                                                                                                                                                                                                                            r.o.o.o.#.                F + X ~ ^ ( ( ~ ~ G.L.I.F.g X X P                                       Z 6 M A 0.0.a.0.8 6 6 6 6 6 6 6 8 8 8 0 D A Z Z Z Z A A S Z Z M c c M M Z M Z N N Z D F P Y I L V V V V V m b f :.V.V.V.Z.XX#XP.I.*XfX:XQ.< X g g g t.E.y.T.8X9X9X8XW.W.W.|.#XXX;XgXgXgXgXhXhXhXlXmXmXnXkXnXFXKXKXKXJXJXJXJXJXJXJXKXJXHXHXHXHXHXHXHXHXHXHXJXZXNXNXpX1XwX1X>X$X#X$X#X/.R.F./.tXgXcXfXt. ...X.n f j g n 5.2.o.%X6X5X5X=.& : : l S S F P F F D D A N d d & @ P U I J Z Z Z A Z A Z S S P $.R U I I I I I P J J F F J F J J D D D D J P P N f x z y e e e l N M M c c M 0 6 8 8 7 3 @ @ > 9 9 9 M M A A @ .                                                                                                                                                                                                                                                                                                                           ",
"                                                                                                                                                                                                                                                                                      6 o * [ m.N.,.* O @           6 X v ~ k h [ +.] [ H.P.XXH.: . . F                                 8 O O . J 9.9.9.8.0.$.q 4 6 6 6 6 6 6 6 6 7 8 7 8 6 = @ @ @ @ @ @ @ @ @ @ @ @ @ o @ O O O @ ; , d < < ( ] ] } m.F.G.V.G.J.J.J.L.&X=XOXoXyXxXaX6Xg . g f a u.W.E.E.W.8X8XW.W.W.W.!.XXI.;XMXMXMXzXzXzXmXmXzXlXlXhXlXFXKXKXKXKXKXKXKXKXJXKXJXKXKXKXKXKXKXKXKXKXLXLXKXCXzXmXyX3X3X>X>X&X$X$X#X~.~.I.}.kXMXMXBXt. ...X.n f j p p [ ] ^ }.2X2X5XX.. . # H I I P P L P P P I J + . . o H U I J Z Z A A A S S A S P $.U U I L L I H S S Z Z Z Z S S S Z M M Z A A D d e e e t d y y N A A N 0 0 0 8 4 6 6 6 6 @ @ 8 N N Z @ . o o . O                                                                                                                                                                                                                                                                                                                           ",
"                                                                                                                                                                                                                                                                                      O X * ] ,.>.;.& . @           1 & [ } h s ] { ] [ L.XXXXL.: . . Z                                 9 . . O P %.$.9.9.0.%.8 ; 4 6 6 1 4 4 6 6 6 6 1 @ + + @ @ o O . O # + # O O . . . O . . . . O & & . . / ` ) ) n.Z.m.B.C.Z.D.D.J.OX=XOX+XwXxXaX1Xg . d f a u.W.E.E.W.].8XW.Q.W.W.^.#XP.;XzXzXzXzXlXkXkXzXzXkXkXlXkXFXKXKXKXKXKXJXKXJXKXKXKXJXJXJXJXJXJXJXJXJXJXLXJXNXzXMXyX<X<X3X>X&X$X$X#XK.K.U.}.nXNXMXcXt.| ..X.b a j p p +.{ _ }.5X5XyX=.. . o F P P P P P P P P P D 7 > > 7 P I I P Z Z A A Z A L P P I U U U I P P I H A A S Z S A A A A N M M Z D D D z e t e z S Z N A A A Z 0 0 0 8 4 6 6 6 6 1 @ 9 N M M @ . O O O Z                                                                                                                                                                                                                                                                                                                           ",
"                                                                                                                                                                                                                                                                                      6 . & ( >.;.o.& . @           6 o ( ` h a ] [ ] [ L.XXoXI.: . . F                                 0 . . o P $.$.w.0.q.%.7 @ @ ; 1 1 1 4 6 8 7 4 @ # O # + @ + O . O # + o o X . . . O X o o X O & & @ & ) } [ [ n.M.m.n.B.Z.D.D.J.&X=XOX+XwXxXaX:Xg . : a p t.W.E.E.W.8X8XW.T.E.W.!.).I.;XMXMXMXxXzXkXkXmXkXkXkXlXkXFXKXJXKXKXKXJXKXJXJXJXJXJXJXJXJXJXJXJXJXJXJXKXHXzXxXmXyX3X3X3X3X&X$X$XXXU.U.U.}.BXNXMXbX=.^ X.X.j a j p a +.+._ #X5X5X5X .. . O H U I P P P P P P H A A Z Z A P I I J Z A A Z Z A P I I I U R R U P P I J D A A A A A D A A Z Z Z S F W D z e t u z S Z Z A A A Z 0 0 l 9 1 6 6 6 1 3 @ 0 D A Z @ @ 4 9                                                                                                                                                                                                                                                                                                                               ",
"                                                                                                                                                                                                                                                                                      z : p [ m.n.,.s & d l.      w.1.{ ,.;.a p 3.C.C.V.6.2.4.:.& @ R                                   0 . . M f.d.q.P F J D @ < f b / / | / |  ./ 1.F.C.B.( g f f 1.6.7.4.Q.0X0X9X|.4.B.N.8X0X0X0X0XUXUXUXUXeXtXtXtXqXtXtXtX%XJ.I.I.H.H.K.H.H.R.u.=.m g C | | | Y.^.W.W.|.|.W.0XbXqX#X*XpXpXgXiXyXyXyXlXmXmXmXzXkXkXlXlXFXKXJXKXKXKXJXJXJXKXJXJXJXJXJXJXKXKXKXKXJXJXHXNXxXlXzXyX>X3X3X3X=X=XOX&XbXbXVXSX0X0X0X9XX.|  . . .X.=.X.n / / h F.>X>X=X{ & p g 8 9 0 D I P P P P H F A Z Z S F P I L Z S A F F H I I I P P P P P F F F D Z Z Z M M M c 0 0 9 7 9 9 z z z d t t u z S Z N M M M 0 8 8 7 8 6 4 1 6 9 9 9 9 7 6 @ P                                                                                                                                                                                                                                                                                                                                     ",
"                                                                                                                                                                                                                                                                                l.q d ) ^ v ;.D.Z.m.^ s v % @ @ @ g H.H.D.4.p * V./.H.H.] s n f . 9                                     0 . . F z.j.d.M 7 0 7 O p / / o.o.O.O.o.O.[ F.=XoXoX2.^ ^ / F.#XXXP.wXMXxXxXuXoX$X+XlXCXNXNXCXKXKXKXKXNXxXxXxXxXxXxXxX1XI.).XXD.N.C.B.V.:.. . . f  .X.X.X.E.8X^.|.^.^.W.vXDXiXoX;XxXMXxXwX-X=X-XlXMXmXkXkXkXkXlXzXFXKXJXKXKXJXJXKXJXJXJXJXKXJXJXKXKXKXJXKXJXKXFXlXlXkXzXyX>X3X<X<X>X>X=X<XFXJXJXGX'.Y.T.T.X. .X.X.t.t.u.t.m j j % B.$X#XXX{ a ~ ~ o O O Z R P P J H H F S Z Z Z A P I L Z Z D P Y I I I I P D D F A Z Z Z Z M N M 0 0 0 8 6 6 = = = - w w w w t t t z S N N 0 9 0 9 6 ; 3 6 6 6 1 6 0 0 M 7 O . . l.                                                                                                                                                                                                                                                                                                                                    ",
"                                                                                                                                                                                                                                                                                J $ s ( ~ k o.D.V.B.~ a v a X . . p D.Z.m.;.% & C.F.F.G.] k ~ j . 4                                     0 . . A g.g.a.0 9 l 0 o p ~ ~ [ o.o.o.o.o.] G.OXXXXX<.v ~ ~ F.P.I.U.;XxXjXxXpX).oX).gXCXMXMXNXHXJXKXJXNXjXjXjXjXjXjXjX;XU.P.XXD.C.V.C.V.1.X X & b  .X.X. .T.].W.W.W.].^.0XpX>XoX;XjXjXjXwX<X<X<XlXMXkXzXkXkXzXlXkXFXKXKXKXJXKXKXJXJXJXJXKXJXJXJXJXJXKXJXKXKXKXHXzXlXkXzXyX>X3X<X<X>X>X=X<XFXHXFXAXW.T.W.Q.=.X.....t.t.t.=.b j j * V.&X#X#X{ a ~ j o # O D R P P H F H H S Z S S F P P F Z Z D P L I I I I I F F F D N Z N M M M M 0 0 0 9 8 7 = = = = r r r w t t t z S Z N 0 0 0 9 6 > 6 6 6 6 3 6 9 0 M 7 O O . s.                                                                                                                                                                                                                                                                                                                                    ",
"                                                                                                                                                                                                                                                                            . . : a h ( ~ h :.D.V.V.^ h v r X . . p D.Z.m.o.X X 6.F.F.G.] j v a @ Q                                     0 . . A g.f.a.M 9 M l = s ) / ] o.:.o.{ { ( C.oXP.{.;.j n v Z.P.I.U.;XxXjXjXpX).XX).gXNXMXMXMXFXKXKXJXCXMXxXxXxXjXjXjX1XI.XX$XH.C.Z.V.Z.:.o . X b  .X.X. .y.Q.W.W.Q.Q.W.^.OXOXoX>XhXjXhX2X-X-X<XlXmXkXkXlXlXlXlXkXFXKXJXJXKXJXKXJXJXJXJXKXJXJXKXJXJXJXJXKXKXKXHXzXlXzXzXyX>X3X3X<X=X=X=X<XFXHXFXVXW.T.W.Q.=.X.X...1.1.1.X.g p a $ V.&X$X$Xo.a k a . O O Q F A Z D H H J D S A A F I I P Z Z A L L I U U $.I F F F D N Z Z M M M Z 0 0 0 9 8 8 = @ @ & * r * w t t t z S Z M 0 0 0 9 6 > 6 6 6 > @ 6 9 0 0 > . . O                                                                                                                                                                                                                                                                                                                                       ",
"                                                                                                                                                                                                                                                                            . . $ * r s p : ' N.>.2.] _ } ) v v ( ;.L.G.o.( p p G.H.H.L.( o & N                                         9 . . M f.d.0.0 7 9 9 7 7 z d d z B z , : & g m m m g & & & b ( ] / 6.*X*X XC._ ] / y.wX1X:X:XBXZXDXVX9X|.|.|. XiXjXyXG.' { :.3.V.A.F.K.C.& . X h ..y.u.t.'.0X8XW.8X9X8XeXgXrX-XbXFXDXZXiXiXiXgXAXZXNXNXmXCXDXDXDXJXKXKXJXJXJXJXKXJXJXKXJXKXKXKXJXJXJXKXJXZXZXCXmXzXzXzXhXiXiXiXiXpXpXiXgXfXwXwXqXE.T.E.E.y.y.y.y.y.y.y.t.| n n f F.>X&X=XG.O.O.O.;.<.<.1.X.=.=.B 8 7 9 Z Z M M D P H D D D A D H L P P P H Z M M 0 9 9 9 8 7 8 9 8 7 9 7 ; @ & p g p X X $ r u e e z M M M 9 7 7 7 = @ > > > = @ @ > @ o O @ 8                                                                                                                                                                                                                                                                                                                                         ",
"                                                                                                                                                                                                                                                                            v.v.    K X . . p ) ~ ~ [ o.V.P.I.I.I.I.I.G.~ v h h H.~.I.XX' . . E                                         9 . . Z d.d.0.0 6 7 6 7 6 4 4 1 1 4 4 + # O O O O + + . . . X * p * [ I.U.S.` * * $ h ,.>.;.@.L.%X%XP.` ) } ) >.#X%XI.s . . . & :.I.I.#XF.& u.0X0X0XE.E.T.SXKXvX/.VXPXPXLXKXHXHXLXKXKXKXNXxXzXMXJXKXJXFXFXJXKXKXKXKXJXJXJXJXJXKXKXJXJXJXJXKXKXJXKXJXJXKXHXmXzXmXmXzXzXzXzXMXMXMXMXxXxXMXmX&X+XoXXXQ.T.T.E.Q.W.W.W.T.T.E.y.X.X.X.X.~.<X<X<XP.D.F.F.I.I.L.I.}.}.}.b . . . ; 6 ; @ 7 7 6 6 7 > > > 6 7 7 7 9 6 @ @ @ @ @ @ o O # . O @ @ @ o . . * n ^ h . . X p x z z l c M c 7 > 6 6 = ; 6 > > = > @ O . O                                                                                 . . F s.s.s.s.E . O O . @ F O s.s.s.A . E s.R                                                                                                                                                                                                                 ",
"                                                                                                                                                                                                                                                                                      @ . . : ~ ~ ! { O.Z.{.I.P.L.L.I.G.) ~ k k H.~.P.XX' . . E                                         9 . . A f.f.q.0 > 7 6 6 6 6 6 6 6 6 6 6 4 @ @ > > 8 ; O . . * s j a { P.I.Z.} a p : v o.} } o.D.U.I.J.[ ] o.} B.I.U.K.b . . . . ..P.P.XXF.$ 0XZXCXbXT.E.T.SXKXvX!.GXKXKXKXKXKXKXKXKXKXJXNXlXlXmXHXKXKXHXHXLXJXJXJXJXKXJXKXKXJXJXKXKXJXJXJXJXJXJXKXJXJXKXHXMXmXmXmXzXzXzXkXzXmXmXzXlXlXxXlX-X$X&X%XQ.E.E.E.E.E.E.E.T.E.E.Y.......X.~.<X<X<XI.A.A.G.D.G.Z./.~.}.}.f . . . # @ + O . . . . . . . . . O @ @ @ o O O O @ @ @ @ . . . O @ @ @ O . . : / ) h . . X d A S Z M c M M 7 6 6 6 6 6 6 > > @ > @ . . @                                                                               . . O . . . . . . . . . . . . . . . . . . . . . .                                                                                                                                                                                                               ",
"                                                                                                                                                                                                                                                                                      6 O . a ( ) ~ +.2.Z.P.I.P.L.L.{.F.) ) ~ v H.{.P.XX' O . R                                         9 . . D h.g.d.9 ; 6 6 6 6 > > 6 6 6 6 @ @ @ @ @ > < @ O # . : k j p { I.I.m.) p : & n 2.O.@.>.K.{.P.J.[ [ o.} V.).).)./ . . . . } I.I.XXD.% 0XNXNXfXT.E.T.SXKXSX!.IXKXKXKXKXKXKXKXJXKXJXNXhXlXmXHXKXJXDXDXJXJXKXKXKXJXJXJXJXKXKXJXKXJXKXJXKXJXKXKXKXJXKXHXnXkXmXkXzXzXzXxXhXlXlXhXxXxXMXkX$XoX$XXXR.T.T.T.y.6.6.6.6.6.Y.6.+.....X.~.=X&X@XI.Z.D.D.D.Z.m.J.I.I.P.s . . . . . . . O . . . O O O . . . . . . . . . . O + @ # O . . . . O O . . . p ` ] v . . . , N Z M M M M M 7 6 7 7 6 6 6 6 6 > 6 @ O O @                                                                               O . @ @ . . . # O o o o o @ o . . . . . . . . O O                                                                                                                                                                                                               ",
"                                                                                                                                                                                                                                                                                          @ & s ~ ~ ) ( { ;.<.<.V.D.4.] v v k k P.$X#X$X' . . b.                                        0 . . N 0.0.$.8 @ > ; 6 8 7 8 9 9 0 9 9 8 8 9 M 0 M 9 9 9 0 8 , , o b B.m.~ o o @ o & p p p g m m b s * s ;.3.{ m m v i.0X0X8X.X*XwXwX<X}.: V 6.u.i.T.i.y.8X0X0X^.rXgXeXrXbXCXCXNXnXNXNXnXlXlXkXNXCXNXMXmXNXNXNXCXHXKXJXJXJXJXKXJXKXJXJXKXJXJXJXKXKXKXKXJXDXDXDXDXCXzXzXkXAXZXDXDXhXiXsXhXbXSXVXVXeX^.Q.W.UXvXvXvXvXvXvXvXi.1.t.X.8XbXbXbX*XI.P.P.I.I.:XwXtXtXfXUXUXUXUX0X.X8X8X5.+.:.:.<.:.<.Y.C.W.0X8X0XE.] ..:.=. . . .| V V | Y.G.] f m ^ h : p * X X X , N N N l 0 c 0 7 6 6 6 6 6 6 6 @ # . E                                                                                     @ . 7 M 0 0 7 > 6 7 9 9 M A M = @ O . . . . . . .                                                                                                                                                                                                               ",
"                                                                                                                                                                                                                                                                                          9 . o v v a p h k h h <.6.j % * : * p {.&X$X&X' . . b.                                        9 . . 0 P P F 8 > ; ; 9 9 0 0 c M M M M M M Z F A D N M Z A 9 4 1 O : ;.>.p . O @ @ @ # O O O O O . . . & <.C.( . . . 8XZXCXNXdXsXlXhX6X:X: & ^ j | i.y.y.E.Q.W.^.&X=X&XOXyXjXsXhXlXkXkXkXkXkXkXlXlXkXzXkXhXhXhXlXFXKXJXJXJXKXKXKXKXJXJXKXJXJXKXKXKXKXJXJXKXKXKXKXDXnXmXnXHXKXKXKXgX6XuXiXJXKXKXKXDX9X^.8XPXKXKXKXJXKXKXLX'.5.y.{ 0XKXKXKXeX+X&X&XXX$XsXxXNXNXCXJXKXKXKXNXxXMXzX#XU.K.K.I.K.P.>X=XpXNXxXMXtXD.H.!.K.6.y.u.t.1.1.5.&X,XV._ o.,.n O O X % % $ 7 S N Z 0 9 9 9 6 6 6 6 6 6 8 6 . . . l.                                                                              .   . @ 0 H L H D F S A P R $.R R $.0.R P A @ . @ 9 7 > O . . .                                                                                                                                                                                                       ",
"                                                                                                                                                                                                                                                                                          9 . X h h s a v ) ) ^ <.7.v & . . . & {.&XXX+X/ . . b.                                        @ . . 0 I I P 8 4 6 6 9 9 0 0 0 0 0 0 0 0 0 N A Z Z M 0 M M 8 6 = O : ;.;.s . o @ @ @ @ @ 6 @ @ @ O . . : ;.4.( . . . 8XNXMXmXiXuXhXiX6X:X< d X.| X.y.y.y.E.W.W.^.;X<X-X-XiXxXhXlXkXkXkXkXzXkXkXkXkXzXkXkXkXkXlXkXFXKXJXJXJXJXJXJXJXJXJXJXJXJXKXKXKXKXKXJXJXKXKXKXDXmXmXnXHXKXKXJXhXuXuXiXHXKXKXKXAX9X^.8XPXKXJXHXFXJXKXPXE.5.y.o.0XKXKXJXrX+X$X$XXXoXuXjXMXmXmXFXHXHXFXkXhXmXcX~.J.H.D.F.F.H.&X$XpXxXlXxXqXZ.F.F.F.5.1.1.1.1.1.5.%X>XB.( { >.n O + X % % $ z S Z Z 0 9 0 9 6 ; 4 4 6 6 6 6 . . . s.                                                                            # . . @ N H D A D A A A A A T R R R a.x.f.e.q.A 7 P d.e.e.9 . . .                                                                                                                                                                                                       ",
"                                                                                                                                                                                                                                                                                          0 . o g h s s ~ ] ] ) <.3.h X . . . & {.OX+X+X/ . . b.                                F 9 9 6 O O O 9 P I P 9 6 6 > 9 0 0 0 0 c 0 0 0 0 c Z A A Z M 0 M M 7 > @ O : :.<.g . @ @ O O O @ @ @ @ # O # . : ;.4.~ . . . .XNXNXMXsXsXhXiX6X:X& d X.| X.y.y.y.E.W.W.W.;X<X<X-XiXxXxXzXkXkXkXzXkXkXkXkXkXkXzXkXkXzXkXmXFXKXJXJXJXJXJXJXKXKXJXKXJXJXJXJXJXKXJXJXKXKXKXKXDXmXmXNXHXKXKXKXgX6XuXiXHXKXKXKXAX9X^.8XPXKXJXJXHXJXKXPXE.5.y.:.0XKXKXJXrX+X$X$XoX$XiXxXMXMXMXFXJXJXHXMXxXMXlX~.A.D.D.F.F.K.>X=XpXMXxXMXtXM.Z.D.F.1.1.1.1.1.1.5.&X,XV.( { 3.m . . X % % $ 7 S Z A 0 9 9 9 6 @ @ @ @ > 6 @ . . . s.                                                                            @ . O M H D F D A D A S A D T R R T d.f.q.w.0.R T 0.g.h.x.D @ > O                                                                                                                                                                                                       ",
"                                                                                                                                                                                                                                                                                                  & X X p j j h n n p p m / / ] &X<X>X>X' . . b.                                6 . . 6 $.$.$.A 0 Z M 8 6 6 6 9 0 0 0 0 c 0 M Z Z Z F P P P A Z Z A Z M M M M V V M 0 l 0 9 0 M A D H H F F F A N #.*.B d n n Y e.w.r..X|.*X}.}.F.p j  .| X.T.i.i.E.W.W.W.|. X X}.<XwX1XiXMXmXzXzXkXzXzXzXkXzXkXzXkXkXkXmXFXKXKXJXJXJXJXJXJXKXKXKXJXJXJXJXJXJXKXJXCXNXCXCXNXmXmXpXwXwXwXwXgXkXmXlXrXrXeXeX0X^.^.^.0X0X0X0X'.'.'.'.X.|  .m T.rX0X9XR.B.C.C.N.B.G.Q.W.Q.Q.rXrXrXrX X X X XH.D.H.B.] ] <.Z.Z./. X X X X:X:X&X~.5.5.6.1.] ....{ X.f & & : , 6 > = % % % 7 0 0 M 9 7 6 6 8 9 8 7 @ # o . . .                                                                               A O @ 6 A D A N N A A F I T R $.0.0.0.9.$.R R R R R 8.0.q.d.8.$.8.0 @                                                                                                                                                                                                     ",
"                                                                                                                                                                                                                                                                                                  . . . & a a a a a p v <.<.>.6.<X1X1X2XX.. . b.                                8 . . l g.f.f.F 6 0 0 6 6 6 > 9 0 0 0 0 0 0 M A A A P U I I F A A A D D A A A Z Z Z D D Z Z A P P I U $.R $.$.U U I W L  .+.1.: . . . . g V.A.D.V.h b  .| ..E.T.T.W.W.W.W.W.W.W.W.&X=X@XyXMXmXzXkXkXzXzXzXzXzXkXzXkXkXkXmXFXKXKXJXJXJXJXKXKXKXJXJXJXJXJXJXKXJXKXHXmXlXkXkXnXmXzX1X+X@X@X@XlXNXNXnXoXXX$X$X!.W.W.W.Q.Q.E.T.] ] ..X.j j j p 2.I.U.(.>.+.<.O.[ o.o.O.O.o.} L.XX+X+XJ.M.Z.Z.D.H.H.6.h k ) o.[ >.M.m.n.H.6X6X%XG.N.4.C.<.( } _ & . . + @ + 4 8 7 < * - 7 9 9 9 9 7 1 @ @ 9 0 0 9 O . . @ 9 E                                                                           . . O 6 8 9 M 0 0 0 A A S P $.$.$.$.9.9.9.$.$.$.T P T $.I F F F R 9.8.M . . . 0                                                                                                                                                                                               ",
"                                                                                                                                                                                                                                                                                                  . . . & h h s s h s ) +.o.{ <.;X1X1X,XX.. . b.                                9 . . M k.f.d.F 7 0 9 6 4 6 6 9 0 0 c M 0 0 c Z A S H I I I F A Z Z Z A Z Z Z N A Z Z S Z Z D P P P I I U U I P P I I #.X.....d . X . . s G.F.H.Z.k n  .| ..E.E.E.W.W.W.W.W.W.Q.Q.&X>X=XyXMXmXzXzXzXzXmXmXzXkXzXmXkXkXkXkXFXKXKXKXKXKXKXKXJXJXJXJXJXKXKXKXKXKXKXHXNXkXmXmXmXkXzX1XOX=X=X=XnXNXNXmX%X#X&X*X^.Q.Q.W.W.W.'.E.t.=.t.=.b f j a 3.#XI.K.6.2.2.>.O.@.>.4.B.,.2.}.$X$X$XU.J.D.D.H.H.K.B.~ ) _ ;.O.N.J.A.M.D.&XOXH.V.C.B.Z.4._ } _ * . . > 8 6 6 6 < , l c M 0 9 9 0 7 1 @ @ 9 0 0 9 @ @ .                                                                                 . . @ 6 6 8 0 0 0 M Z A A I $.$.$.$.9.9.9.$.$.$.R U R $.U F F F I $.R M . . . Z                                                                                                                                                                                               ",
"                                                                                                                                                                                                                                                                                                  = @ 8 z s a s s s a ( <.o.{ ;.;X1X3X,X .. . E                                 0 . . M k.g.f.F 6 9 8 6 1 6 6 9 0 0 0 c c 0 c Z Z Z P I I I F S A Z Z Z Z Z Z Z S S Z Z S Z D P P P I I I I I P P P I Y X.....d . . . . s G.D.H.Z.v n | | X.E.T.T.E.W.W.W.W.^.W.Q.&X>X@XyXmXzXkXhXhXlXlXkXmXzXmXmXmXmXnXlXDXKXKXJXJXJXJXJXJXJXJXJXJXJXJXJXKXKXKXJXNXmXmXkXlXlXzX1XoX=X=X&XnXNXNXnX*X#X&X#XQ.Q.Q.W.W.W.W.E.t.=.t.X.j g f p 4.XXI.I.B.<.2.;.[ [ O.>.4.>.>.I.XXoXXXJ.A.Z.Z.A.D.H.3.^ ( ] o.[ 2.Z.m.n.Z.K.J.D.V.B.B.V.3.( } ( : O o > 9 7 7 6 < 7 N M M 0 9 9 9 6 4 1 1 0 Z M 0 @ @ O                                                                               W . . @ 8 6 8 0 c 0 M Z D D I $.$.R $.8.8.$.R R R R R R $.I D A S P R R A @ o . 0                                                                                                                                                                                               ",
"                                                                                                                                                                                                                                                                                                          , $ & p p p n ;.2.o.o.&X3X>X,X .. . R                                 0 . . M g.d.a.Z @ > > @ 3 6 6 7 7 6 8 c M c M D H H L I I I D S A Z Z Z Z Z Z A A A A A D Z F I P P I I U I I I P P P P L Y Y 0 @ @ @ . s D.J.I.I.H...n |  .X.X. .y.W.W.W.W.9XVXVX-XOX&X>X<X<X<X>X>X<X<XgXmXkXzXzXZXHXFXFXHXKXJXCXNXNXNXNXFXKXJXKXZXNXCXCXJXKXKXKXHXHXFXNXhXlXxX1XoX=X=X=X<XwX1XwXVXGXVX8XY.Q.W.Q.y.u.y.y.t.t.t.X.a g f * B.&X$X$XV.<.2.o.: & : : p : : ;.4./ m j g p p p p s g M B B d < , p p p f m m b b p p p z N B z M Z Z A D A l 7 7 z M M M 9 6 6 6 4 6 4 6 J R I D O . O                                                                         0 0 E 0 6 @ 8 0 9 0 A D A D T R $.$.%.$.$.R I I I D D F D Z A A M 7 7 > N I I I U 8 . 0                                                                                                                                                                                               ",
"                                                                                                                                                                                                                                                                                                          @ . . & * * k o.o.] ( &X3X>X,X .. . E         9 O O W                 9 . . l d.0.0.M @ @ @ = 6 6 6 6 6 6 7 M M M N L L H H P L P F D A Z Z A Z Z A S S Z A A A Z F I I P P I T I I P I I P P J P I 0 @ > @ . b J.I.I.P.XX1.x n | | n b u.W.E.W.Q.9XKXHX;XoX&X&X=X=X=X=X=X=X=XiXmXkXkXkXDXKXKXKXJXKXJXmXlXxXlXkXFXKXJXKXZXlXmXNXHXKXKXKXKXKXKXCXhXlXxXwXOX=X=X=X=X=X@X<XHXKXLX0XY.E.Q.E.t.1.t.t.t.t.t.X.g a f % B.=X=X&XZ.>.4.{ . . . . . . . ~ / . O O # . . . . . # 9 9 8 @ . . . . . # 4 @ + o . . . @ 0 9 8 Z F W F F P M 7 9 l M M N 8 @ @ 1 6 6 4 6 I 8.R F . . .                                                                         . . . 9 9 8 9 c 0 M H L H P $.8.9.9.8.9.9.U P I P S S A Z c M M 8 @ @ @ 0 J J $.f.M . 0                                                                                                                                                                                               ",
"                                                                                                                                                                                                                                                                                                          O . . $ * p j ] } ) ( &X3X>X,X .. X Z         @ . . G                 8 . . 0 0.0.w.M @ ; 3 6 6 6 6 6 6 @ 6 M M M Z P P D F I P L D D A A Z A A Z S A S A S Z S Z F U I I I I I I I P P I I P P I U M @ 1 @ . s J.U.I.I.I.:.j n | | | n u.W.E.W.Q.9XLXFX<XOX=X=X=X>X>X>X>X>X=XgXzXlXxXhXZXKXKXKXDXCXCXmXmXzXzXmXFXKXKXKXZXnXnXNXHXKXKXKXJXJXJXNXhXhXxXwXOX=X=X=X=X=X=X<XFXKXHX0XY.Q.Q.E.1.1.t.t.t.t.t.X.* * d X 4.&X&X&XD.,.m.o.X . . . . . . * & . O @ o # . . . . @ 0 7 8 @ . . . . . o 6 > @ < o . . @ 9 7 7 M D F D D F M z z l M M N 9 @ = ; 6 6 4 6 I 8.$.P . . .                                                                         . . o 9 9 6 8 c 0 c D H D P $.$.$.%.9.9.9.R I I P D D F A M M M 8 @ @ @ 0 F F 9.z.M . 0                                                                                                                                                                                               ",
"                                                                                                                                                                                                                                                                                                          G 0 9 $ * p v ] } ) ( &X3X>X,XX.. * $ @ @ @ @ ~ [ ( | R     0 9       Z . . 9 0.0.0.Z @ 6 @ 6 6 6 6 @ @ @ 6 c N M Z P P D F P P L D D A A Z Z A S Z A Z A Z Z A Z F I I I I I I I I P P P I I I I T 0 + + O . a J.I.P.I.P.<.j n | | | m u.W.W.W.T.9XLXFX<X@X=X&X=X>X>X>X<X>X=XgXzXhXhXdXZXKXJXKXCXxXMXMXmXzXzXmXFXKXKXKXZXmXmXMXHXKXKXJXJXJXJXNXsXhXxXwXoX=X=X&X=X=XOX-XGXJXHX0XT.Q.Q.E.1.=.t.1.t.t.u.X.& % % . 3.=X&X&XG.,.m.;.X . . . . . = X . . O O o . . . . . @ 9 8 8 @ . . . . . O @ @ @ , & . . o 7 6 6 N F F D D D z d z l M M M 8 @ @ @ @ 6 4 6 T 9.9.P O . .                                                                         . . o 9 9 8 9 M 0 0 A H D P $.$.$.$.9.9.9.R I I P F F F D Z M M 8 @ @ @ 0 F F 0.c.N . 0                                                                                                                                                                                               ",
"                                                                                                                                                                                                                                                                                                                F X o a ) ^ k n #X=X=X>X1.s ~ k X . . : G.D.H.C.* X $ X . F R %.8.I R P M A F 0 @ 6 6 6 6 6 6 9 9 8 9 N A A F I I P F A A A A Z A A Z A A A A S A A S Z A A A F F F F P P P Y X.X.=.1.K 8 8 8 C ] ' ( n ;.#X$X$XOX&X2.f m n j j g t.E.T.T.}.*XeXeX^.Q.!.!.}.}.}.&X>X>X=XcXDXDXZXZXNXNXNXNXiX2XwXpXmXmXmXkXDXKXKXKXZXnXmXmXNXCXNXCXHXJXJXDXZXDXCXiX3X3X3X<X&X$X$X#X9XrXrX X^.^.^.W.t.=.t.t...X.X.n |  X X.XH.K.I.P.' p s p . @ M N Z A H N 0 l M M M M 0 8 7 9 8 6 6 6 @ O @ 6 6 6 7 9 0 0 M M 0 9 9 M N A H P P D A D M l M l 8 8 8 6 @ @ @ 0 D D F M 0 M 7 . . 9                                                                       0 @ @ 6 M Z Z A D N A T $.$.8.9.8.$.I P I I F S A A c M M 0 8 8 6 8 0 0 9 P 9.8.d.a.= . 0                                                                                                                                                                                               ",
"                                                                                                                                                                                                                                                                                                                  . . : v k s b {.&XOXOX<.^ _ ^ X . . : G.F.F.V.p p p * . . . @ g.k.k.$.6 9 0 8 6 6 6 6 6 ; > 0 c 0 M Z A D F I I I F Z Z Z Z S A Z A S Z Z S Z Z S Z S Z S A Z A S S J P J Y 1.2.3.<.g # O . ( V.B.B.n.H.=X=X&X=X>X4.s n j p p : X.y.y.Y.*X-XOXoXE.i.i.E.!.Q.Q.&X>X=X=XBXKXKXKXKXmXsXjXjX2X@X@X2XmXmXkXkXDXKXKXKXZXmXnXmXlXhXhXkXHXKXJXKXKXKXZXxXyX2XyXyX&X#X$X#XL.L.L.}.}.^. X|.t.=.t.t. .n | d -.jXdXdX}.A.J.H.f . . . . > P I T I I P P H F F F F F Z M M 9 6 6 @ @ @ > c 0 0 M M Z Z Z S S M N H L P P I P S S A M M Z 0 6 6 6 4 @ @ + M I T T 7 O @ # . .                                                                   . O . # 6 6 8 Z D S F L D H %.0.0.0.9.9.8.P D H H M c M M 9 9 9 7 @ 4 @ 9 F A N T d.q.d.T . . 0                                                                                                                                                                                               ",
"                                                                                                                                                                                                                                                                                                                6 . . * n h s v }.&XOX=X<.v ( ^ p & o f G.G.F.C.p p p p . . . > f.g.g.%.9 0 c 8 6 6 6 6 6 @ = 0 0 0 M Z A D F I I I F Z Z Z Z S A S S S Z Z Z S Z A S Z Z Z Z A D A A P I P Y 1.<.2./ O # + O / N.4.4.,.D.&X&X&X&X>X5.a b f a g p =.Y.y.T.;X<X-X*XE.i.i.E.!.!.!.&X>X=X@XbXKXKXKXKXNXhXzXmXwX=X>X2XzXmXkXkXDXKXKXKXZXnXmXkXkXlXhXkXHXKXJXLXJXKXCXlXyX2XwXwX&X$X$X#X}.}.}.}.*X*X~.^.y.1.t.t. .m | a =.sXsXsX}.A.J.H.f . . . . > I I P H L P J F A A D D D M 0 0 6 @ ; @ @ + @ 0 0 0 0 c c M M Z Z 0 M D H L P I P A S A N M M 0 6 6 6 6 @ @ @ c P P P 7 @ O Z                                                                       . . . @ 6 @ 6 c N Z D L D H %.9.9.9.9.9.9.I H H H N M Z N 9 9 9 7 @ @ @ 0 F A M I a.q.d.I . . 0                                                                                                                                                                                               ",
"                                                                                                                                                                                                                                                                                                                R o . & j k s v {.&X&X&X<.~ ^ } L.P.I.L.6.3.6.{ a s h s o o O 7 g.g.k.$.9 9 0 8 6 6 6 ; > @ ; 0 M M M S A A D I I I F Z A A Z S A S A A S S A S S A S Z Z Z Z A A A D P I W Y <.;.;.m . O O O ~ ,.>.>.,.D.&X&X$X&X=X+.r a p a g p t.T.y.T.;X;X;X;XQ.y.y.T.!.!.^.&X=X=X@XbXKXKXKXKXNXlXmXMXyX=X=X1XkXzXkXkXFXKXKXKXZXkXmXkXkXlXhXmXHXKXKXKXJXKXCXhXyXwXwX2X&X#X$X$X}.|.!. XBXmX*X Xy.1.t.u. .n ^ d X.iXsXaX}.M.J.D.g . . . . > I P H F H P J F D A D F F Z M 0 6 @ @ 1 @ @ 6 M N M c c 0 M M Z Z M N H L P I I P D A A N M M 0 6 6 6 6 6 6 @ M P P P > O . E                                                                       . O O @ 6 ; > 0 N Z F P H L %.9.8.9.9.9.9.I H H H M c Z Z 9 7 9 6 @ @ 1 0 F D N T d.a.d.T @ O G                                                                                                                                                                                               ",
"                                                                                                                                                                                                                                                                                                                  s.. & s s p h L.{.I.{.2.[ { 2.P.P.XXF.p p s p X X X & $.0.9.$.R R R D @ ; 6 6 6 6 6 8 7 7 8 M Z Z Z S S Z D D F F D D A A A A S A A S A A Z S S Z S Z A Z Z A A A D F F 5 8 <.>.;.[ : $ * * ) O.[ } M.I.XXP.I.I.#XH.V.!.y.* a f  .1.1.1.Q.^.^.W.T.y.y.y.T.E.Q.$X@X+X<XFXDXCXZXZXgXiXiXgXwX=X@XyXzXlXkXkXDXKXJXJXCXkXmXzXzXkXhXmXFXJXHXJXKXKXFXCXlXhXhXhX&XXX$X#X^.W.Q.W.bXBXcX9Xt.t.t.u. .n n a 8XCXNXCX*XM.H.H.( p v p . O 4 6 A P w.P F F F P I I U U I L H D H P P P P U U I P I I I T R R R U I I I P F F S S S 0 9 9 8 ; 4 @ 7 0 0 9 F R R I @ . . J                                                                 l.0 0 @ 6 6 0 0 8 8 N D D I 9.9.$.%.%.9.$.U R R P A Z Z 8 6 9 9 6 > @ > 0 0 0 F 9.%.8.A 7 9 9 E                                                                                                                                                                                                     ",
"                                                                                                                                                                                                                                                                                                                    @ & h h a h L.I.L.J.2.+.+.4.L.I.P.V.* % * & . . . o f.x.j.d.P P P M @ @ @ > 6 1 6 9 0 9 0 Z A A S Z Z Z Z S A A D D D A A S S A S A A S A S Z Z A Z Z Z Z Z N N Z K  .f / V.G.V.C.R.}.}. XqXfXeXqX%XP.I.I.L.K.;XuXsXjX.X% f j /  ./  .T.E.E.T.E.T.y.y.y.i.T.eXbXgXAXKXMXhXzXlX1X=X=X>X>X<XyXhXlXlXkXmXNXCXCXCXnXmXkXkXkXzXlXzXmXMXNXDXKXKXKXJXmXxXxXjX&XXX$X#XW.W.W.E.T.T.E.y.1.t.t.t. .m n k vXKXKXKXrXU.P.P.H.V.4.o./ / / X.1.| C D F F F U $.R $.$.U U I U U U $.$.$.$.$.$.$.$.$.$.$.$.%.8.$.U U U F D D Z Z Z 0 8 8 7 @ @ @ 8 N M 0 I %.$.R @ . . F                                                               6 . . . 8 8 8 M M 9 9 A F D T s.0.9.%.8.9.R P I I F Z N M 6 > 7 7 @ @ @ 6 M M M I d.a.d.l . . .                                                                                                                                                                                                       ",
"                                                                                                                                                                                                                                                                                                                    # & j j h v L.XXI.L.<.[ ..2.L.I.{.G.a a a : . . . o 0.f.a.w.I P P l @ @ ; 6 1 6 6 9 0 9 0 Z A S S A Z Z Z Z Z A A A D A A A A S A S S A S A A A A S Z A 9 @ @ @ o ' <.[ >.K.I.K.D.:X7XaXdXMXZXNXNXaX#XI.P.I.I.yXdXjXxX.Xr k b |  .|  .T.E.T.E.T.T.T.T.E.T.T.VXKXKXKXJXmXhXzXkXwX=X=X>X=XyXzXlXlXkXkXmXkXkXmXkXkXmXkXkXkXkXkXzXlXxXkXDXKXKXKXJXnXhXjXhX%X).#X#XW.W.W.E.1.1.1.1.t.t.t.t.| v ^ k UXKXKXKXrXI.#XXXI.I.B.;.>.>.>.F.~.' . M I P P U $.U U I I I I I I I I U U R R U R $.R R $.$.$.$.R U U U F S A Z Z Z 9 7 8 6 @ @ @ 8 M M 0 I 9.$.$.@ . . F                                                               9 . . O 6 6 6 c M 0 0 A F D I 0.9.9.9.9.9.R P I I F N Z Z 9 7 8 7 @ @ @ > 0 c 0 P e.q.d.Z . . .                                                                                                                                                                                                       ",
"                                                                                                                                                                                                                                                                                                                    @ X j j k ~ I.XXP.I.<.] ] ;.L.I.{.F.a s s : . . . . 8.d.0.8.P F P M @ @ 6 6 @ 3 6 9 0 0 0 Z Z Z A Z A Z N A Z A A A A D D D D S S A A A A A A Z S A Z D 6 . . . . ( 2.[ >.I.P.L.Z.;XjXdXjXNXZXCXNXdX&XI.XXXXXXpXdXjXxX9X% j j /  ./ | Y.E.T.E.E.E.E.E.T.y.Y.VXKXKXKXKXMXxXmXMXwX>X<X>X=XyXzXlXkXkXkXkXkXmXkXkXkXzXmXzXzXzXkXzXzXmXmXDXKXKXKXJXnXhXjXhX%XP.#X#X^.W.W.Q.y.t.t.t.t.t.t.1.m k n i UXKXKXKXrXI.#XXXU.J.n.O.O.O.` n.(.) . q F F P %.$.$.U I I I I I I I I I U U R R $.$.$.$.$.R R R R U U U D Z A Z Z Z 0 9 9 7 @ @ @ 8 0 0 9 T q.0.w.> . . G                                                               9 . . O > 6 6 0 c 0 0 A D A P 9.9.9.9.9.9.$.L P P A N Z S 9 7 8 7 @ @ @ 6 0 0 8 P f.f.g.M O O O                                                                                                                                                                                                       ",
"                                                                                                                                                                                                                                                                                                                        X o p ~ Z.D.G.G.G.G.V.B.] ' ] / & & & X . 7 A N $.0.0.R 7 6 8 7 @ 3 6 6 7 7 8 M M c M Z Z A A D F D F I T R F Z D D D D D A A A A S A A A A A 0 9 8 b { { +.:.[ ) v ) ,.Z.H.Z.!. X*X:X8Xv.'.8XQ.6.;.3.B.B.R.;XyXiX X_ .... .| | | 1.t.t.t.E.W.W.Q.R.G.F.bXAXBXBXBXpXwXwXpX<X&X&X&X=XyXzXlXkXkXkXzXlXhXhXhXlXiXyXyXpXkXmXmXmXmXmXnXbXbXbXbXAXDXZXDX*XP.#X#XW.Q.W.E.y.t.t.1. .| | | ~ k k O.9XvXeXeX XI.P.#XqXqX Xm.V.V.!.9XqX8Xf n r.y.t.Z Z N N P I U I R U T R R R $.$.$.$.%.%.$.$.U U T I P L J D A Z M M M 9 6 6 6 > > ; 0 A Z Z F J P P > . F                                                                 @ + O @ 6 6 8 M Z M N P P H I 9.9.9.$.$.9.R F F F N 0 M M 8 6 6 6 8 9 8 0 A Z A A A A Z E                                                                                                                                                                                                             ",
"                                                                                                                                                                                                                                                                                                                        . . * ~ 3.B.4.4.K.P.P.F.p X & $ . . . . . P g.q.9.%.0.T + # @ @ 6 6 6 8 9 9 9 M M M M Z Z Z Z H L L P $.$.$.F Z D D F F D D A A S S A A A S Z ; @ O ..P.I.P.XX;.p * * h o.D.Z.B.n.m.M.h . . . w k p s ( ^ k J.>X>X%XR.R.R...m | n  .X. .X.W.8X|.*X;X;XwX2X5X6X6X6X$X$X$X$X$X$X$X$X=XyXzXkXkXkXzXlXCXZXCXCXkX2X>X>X<XkXmXkXmXmXMXiX3X2X2X2XGXKXKXKXrX).#X#XQ.E.Q.E.y.t.t.t.n h j g ;.H.D.%X}.D.(.M.J.L.(.%XMXMXfXJ.I.I.pXMXZXbXV.U.XX&XG.O @ @ > H U Y U R R R R $.$.$.$.$.$.9.%.$.$.I I I P D D D A A N 0 0 0 6 @ @ 6 7 7 6 Z P P P M 9 0 0 @ .                                                             6 O . @ 6 @ 6 8 8 9 Z D A D U R I R 8.9.8.R R $.I A A A M 9 0 0 6 ; @ 6 0 M 0 D I P T M . . O                                                                                                                                                                                                               ",
"                                                                                                                                                                                                                                                                                                                        . . & v 3.N.4.B.L.P.P.F.h * p & . . . . . J d.0.0.9.0.R @ @ 4 6 4 6 = 8 9 9 9 c M M M Z N Z N D H H P 9.%.$.J Z D D D F D D D A D A A A A A Z @ # O ] I.J.L.I.>.s p p h o.G.V.V.V.Z.D.n . . . h ~ s k } _ ) ~.3X<X%XC.C.C.' n n | X.X.X.=.W.|.^.eXZXDXFXwX,XuXuXiX<X$X$X$X$X$X$X$X=XyXmXzXzXkXzXlXDXKXKXKXmX,X3X3X2XmXmXkXkXmXMXiX3X2X2X2XGXKXKXJXrX).#X#XQ.E.Q.E.u.t.t.t./ n m s Q.dXsXuX~.K.K.J.H.J.(.}.jXMXtXJ.I.I.6XjXCXcX>XoXXX$XC.. O @ 7 H I I U R R R R $.$.$.$.$.$.%.8.%.$.I P I P D D D A D S 0 0 0 6 @ ; 6 7 7 7 Z I P P M 9 0 9 . .                                                             @ . . @ @ @ 6 8 8 8 M A S D R $.U R %.$.$.R $.%.I D D A M 0 0 0 7 6 4 6 0 0 0 A I P T M . . @                                                                                                                                                                                                               ",
"                                                                                                                                                                                                                                                                                                                        . . * k <.3.3.4.L.I.{.L.v p p * . . . . @ I g.a.0.9.0.R @ @ 1 4 ; ; @ 7 9 9 9 c M M M Z Z N N D F H P 9.9.9.P Z D D F D D D A D A D S A A A N @ . . ' I.J.L.P.3.h p p k o.A.V.G.D.J.H.m . . . j ^ h h ] } _ }.2X1X#X4.B.6.( n n n X...X.1.W.|.Q.eXHXKXKXpX,XyXuXuX>X$X$X$X$X&X&X$X=XyXNXMXmXzXkXkXDXKXKXKXmX,X3X<XwXMXMXmXMXNXNXhX2X5X5X5XFXKXKXKXrX+X+XXXQ.Q.W.Q.y.t.u.u.| n ^ a |.xXxXsX#X).).I.I.I.J.%XxXMXgXI.I.I.uXxXZXNXuXOXXXOXC.. . . @ I $.U U R R $.$.$.$.$.$.$.$.8.9.%.$.I I I P D F D D A Z 0 0 0 6 @ = > 7 7 6 Z T I U Z 9 9 6 0 A                                                             @ . . @ @ @ 6 8 7 7 M Z Z D R $.U $.8.%.$.R R $.I D D D M 0 0 0 6 = > 6 0 M 0 A T P R M . . @                                                                                                                                                                                                               ",
"                                                                                                                                                                                                                                                                                                                        . . * n ^ ^ ~ ^ H.#X&X{.s . o . . 6 7 A g.g.k.f.F M Z M 6 4 4 ; @ @ @ 7 9 9 8 c M M M A A A A I R R $.9.9.0.T H J H D A A D D D D D Z 0 0 c 4 g / v [ >.>.>.{ s & & X X v D.H.B.} ( ] g @ > 7 z z d g f h h B.~.H. XgXpXpX-.* g f  .X.X.X.T.E.C.eXKXKXvX!.}. X X*X X}.}.#X#X#X}.}.=X2XpXpXnXCXNXNXFXKXJXFXwX$X&X&X-XwXwXwX9X8X8XQ.!.*X X XeXbXvXvXgXbXBXgXW.E.W.E.t...=...^ v n k }.yXyX;XB.4.4.,.{ ( / X.i.i.u.' / ^ t.E.W.W.R.F.D.H.B.* & ..X.0 7 7 N $.R $.$.$.$.$.$.$.R $.$.R R U U R I D F D Z M c 6 6 8 = = = = 6 6 ; A 8.$.0.M # . 9                                                               6 . . O 6 6 6 9 M c M A D D F $.9.%.$.%.9.$.P P I H S A Z 0 6 7 7 @ @ @ @ M Z Z 9 @ @ @ s.                                                                                                                                                                                                                    ",
"                                                                                                                                                                                                                                                                                                                        . O : ) ^ n h h F.#X&X{.p . . . . %.k.k.k.k.k.d.S 9 0 8 6 6 6 = @ @ @ 7 9 9 9 c M M M A D A D R $.$.$.%.9.0.R P J H D A A D D D D D M 9 9 9 @ h o.[ o.} } } & . . . . . h J.I.n.& . . @ 9 0 0 0 0 0 7 p p a 2.G.N.|.hXsXiX-.$ g a |  .| ' y.T.6.0XVXVX9X5.Y.R.R.Q.'.'.'.^.^.^.W.W.-X3X=X=XbXZXZXZXCXNXmXmX;X#X$X&X&X&X=X-X] X $ X m Q.E.T.~.#X{.XXGXKXKXPX'.E.W.E.| k k k n m n n }.>X>X#X] ( ` ` & . . . . . . . X X X a ` _ ) <.4.N.4.s & B.C.& . . 0 9.$.$.$.$.$.$.$.$.R I I I I R R $.T D F F M M 0 1 3 6 = * - = 6 6 @ Z 8.8.0.0 . . 9                                                         @ 8 @ . . . o 6 6 6 9 Z N N A F D F $.9.%.8.%.9.$.H L P F Z Z S 9 6 6 6 @ @ @ @ Z Z A 7 . . .                                                                                                                                                                                                                       ",
"                                                                                                                                                                                                                                                                                                                        . . * ( ( ^ v v F.#X$X{.: . . . > 9.g.g.g.k.k.d.A c M 9 @ 4 ; @ @ @ @ 6 9 9 9 c M M M A D A F R $.$.$.$.8.9.R P P L D A A A A S A D Z 9 0 0 @ h [ } o.O.O.o.& . . O o . h I.I.m.r . . @ 9 9 9 0 0 0 7 a p a 3.F.C.A.I.L.L.^ * a f | X. .X.T.E.T.y.y.y.y.y.y.T.T.^.^.W.W.].W.].'.|.;X3X>X=XnXZXZXCXzXjXlXjX;X#X%X%X&X&X-X-X..% p % | Q.Q.Q. X*X#X%XGXKXKXPX'.E.W.E.| k k j n n k k ~.>X>X%Xo.} [ O.p . . . . . . . * p p ) +.o.] <.4.4.3.s $ ) >.= O . 0 0.9.$.$.$.$.$.$.$.R P L L L R R $.I D F F N M 0 6 3 6 - * - > 6 6 @ N R R 0.0 . . 9                                                         . . . X o . @ 8 6 1 9 N Z Z A F A D R %.$.%.9.9.%.P H P F Z Z A 0 6 6 6 @ @ @ @ N Z Z 6 . . .                                                                                                                                                                                                                       ",
"                                                                                                                                                                                                                                                                                                                        . . & ) ) ) ^ ~ H.#X#XK.: . X > 9.f.f.f.g.g.k.d.A M M 9 @ @ @ @ @ @ @ 6 9 9 9 c M M M S D A F $.$.$.$.$.$.9.U H H H D D D A S A Z A Z 0 0 c @ h [ ] o.;.O.o.& O ; 8 8 . b K.I.Z.p . . ; 0 8 9 9 9 0 8 X X % 3.F.C.V.J.(.(.^ : f f n ^ n / T.E.T.y.t.t.u.y.y.y.y.!.^.W.W.].W.W.'.W.;X>X=X=XbXZXZXZXmXzXzXzXqX$X&X$X X|. X XX.% p & / E.E.E. X*X#X#XVXPXLXPX'.E.W.E.| j b j n n j j !.&X&X#X} ) } o.p O . . . . . . * p p ) +.[ ( +.3.4.;.s & v ;., O X l 9.8.9.9.$.$.$.$.$.R P P L P R R $.I D F J A M 0 6 6 6 * * * = 8 7 @ Z R R 0.0 . . 9                                                         . O . . . . @ 7 7 6 9 Z Z Z D F D F R %.$.9.9.0.9.P P P F Z Z Z 0 6 6 6 @ @ @ @ M M M @ . @ 6                                                                                                                                                                                                                       ",
"                                                                                                                                                                                                                                                                                                                        . . . * k ~ k k K.&X&X#XC.6.Z.Y.x.g.f.0.J P T P 9 8 7 6 @ @ @ 6 7 6 6 8 9 9 9 Z A Z Z F H H P $.9.$.$.I I U P D A A D D D A S A Z D 0 o o @ / m.m.M.( p p : l F P R J + g V.Z.[ o 8 8 0 M M M 0 9 0 7 . O o 4.K.J.Z.B.B.B.) a h f s f a m Y.E.y.y.y.y.y.y.y.y.u.Q.^.W.W.W.W.W.W.W.&X&X$X$XbXDXFXFXMXzXmXmXqX#X$X#X|.'.].].| % p & m T.T.E.^.|.|.|.8X8X0XPX'.T.E.i.n j j k ( ] ] ( H.#X#XK.s o * * 7 8 6 > 9 0 0 9 , & o h } ) / ^ ^ ( / & . o p [ [ R.T.@ = P 0.8.$.$.$.%.$.U I I I I I I P Z D D 0 8 8 6 6 = r , 7 7 7 8 6 M I P T 9 . . 0                     E 0 A A 0           A Z Q s.l.*.X.H . . . @ @ @ 8 M M 0 M Z Z S P I P I %.9.9.$.U R U P P I F M M M 9 6 6 6 = @ > @ o o o . @                                                                                                                                                                                                                           ",
"                                                                                                                                                                                                                                                                                                                        . . . . a k h h K.>X&X%XI.L.I.H.x.g.e.8.M M Z Z 6 1 6 @ 6 6 ; 6 8 7 7 8 9 9 0 A A Z Z H L H P $.9.%.$.P P P F S D A A D D D S Z Z D 9 . . . [ U.(.M.b + + + D R R 8.P + < ,.4.b O 0 M N Z M N 0 9 0 6 . . O 4.U.J.A.5.5.4.( h j f f f a m y.T.y.y.y.y.y.y.y.u.u.W.W.W.W.^.W.W.'.W.#X&X$X$XbXFXDXDXMXzXmXmXqX#X$X#X|.].].'.V $ p & n T.T.E.W.W.W.W.W.Y.'.GX8XT.E.i.b f j n } } _ _ H.#X}.L.: . . . 6 0 9 9 Z Z Z N 8 @ O g _ ) ~ p X o X . . . o ;.n.%X!.. . N q.8.$.$.$.%.$.R U U U I I I H M Z Z 8 3 6 6 6 - - 9 9 9 8 8 6 M P P P 7 . . 9                     @ X o . @           @ . . . . a ) % . . O @ ; 6 8 N M M N D S A I U I U 9.0.0.$.L P I P P I D c M M 8 6 6 6 > > 7 6 . . . . 3                                                                                                                                                                                                                           ",
"                                                                                                                                                                                                                                                                                                                        . . . X j k h a ~.<X>X&XJ.D.J.G.j.g.f.$.l Z Z M = @ 6 ; 6 6 4 6 7 7 8 8 8 8 9 S D Z A H H H L $.8.8.$.I P I F S D D D A A A A A A D 0 . . . ] U.J.v 6 P F A I R I R F . & >.,.h . 7 0 M Z M M 9 9 0 6 . . . ;.U.J.F.5.4.C.) r * * a j a n y.Y.y.y.u.y.y.y.y.u.u.W.|.8X|.|.W.W.W.W.#X=XOX$XBXFXDXDXmXlXkXMXwX#X#X#X|.].].'.V $ p & m T.T.T.W.^.^.W.W.E.'.vX8XQ.W.E.n j j /  X;X X XXXXX#XL.: . . . 7 M 0 M Z Z Z M 7 o . s _ ) ) & . . . . . . o o.n.$XQ.. . A d.0.$.%.%.$.$.R R U U P P P F N N N 8 @ 6 6 6 - - 9 9 8 8 8 6 S U P P 6 . . 9                     @ X $ . . F l.      . . . : j v ~ * . . o 1 @ @ 6 M M M M S Z Z P I I I 9.0.a.$.P P P P P P D 0 M M 8 6 6 6 > > 6 6 O . . . @                                                                                                                                                                                                                           ",
"                                                                                                                                                                                                                                                                                                                        . . . o j j a r H.&X&X&X%X#X#X!.$.R w.P 0 M M 0 @ @ 6 ; 6 6 6 7 7 7 7 7 9 9 0 S D A D P P L P R $.$.R P H H A Z D D A Z S A A A A D M = = = ' D.C.g 0 R R I R $.R R J @ < ..o.b @ 9 0 M Z N M 9 8 9 7 . . & V.I.L.V.3.4.4.<...:...k s a k t.t.t.t.y.y.y.y.y.u.u.E.W.W.W.W.W.].'.W. X%X#X%XfXVXbXbXBXCXCXCXrX}. X}.|.8X8X8XV $ p % / T.Y.y.E.E.E.E.E.W.W.W.T.y.y.u.| ^ n X.gXxXjXhX%XI.#XL.: . . . 9 Z Z A A D F A 9 @ @ d n v n < @ @ @ @ @ # @ ' o.H.C.& & N R R $.8.%.%.$.U U $.I D A D A N Z M 6 @ 6 6 6 - , 0 0 9 6 7 6 Z I P P > . . 6                     . * s : : X . 9     : : g ;.m.o.( * . . @ 8 7 7 9 M M M Z D D D P U U U 9.0.s.8.P P P P P P A c M M 9 6 6 3 6 8 9 0 . . . .                                                                                                                                                                                                                             ",
"                                                                                                                                                                                                                                                                                                                        E 8 . X a a * & o.V.n.G.pXiXsX*X& O @ = 6 6 6 @ @ @ 6 4 4 6 9 8 6 6 6 9 M M M A A A D R $.$.R I I R P M c c M S D S A Z S A D D D Z F U #.#.U Y Y L R 0.9.9.8.8.$.$.T Z S D N N A D H S M M M 9 9 9 7 . . 7.XXI.H.B.2.3.+.#X2X5X1X] a h j j b j X.y.y.y.y.y.y.y.y.y.y.u.E.8X8X].].].].8X8X8X|.^.W.VXKXKXKXeXW.8X8X|.8X8X8X| % p * / 1.1.1.....X.X.T.W.W.E.| j n / X.+.[ 1.gXxXlXlX}.m.H.Z.* . . . 9 D A F L L P P Z M M > . o X M P L L F A N M = X & [ >.<.B + ; T 0.$.$.R U R $.T Z Z S N M M c 6 @ 6 6 6 - 9 M Z l * r w z Z Z Z @ . . . A E E E E E W W W l * n 1.:.1.b . O 8  .R.F.R.V.3.2.<., O @ 7 Z N M M A Z Z H I I I $.8.8.9.9.9.0.$.P P P F D F Z 0 M M 7 6 = @ M F P F O . . 8                                                                                                                                                                                                                             ",
"                                                                                                                                                                                                                                                                                                                            . . p p * & [ 4.;.V.pXiXsX:Xo . . @ 6 6 1 @ @ @ @ @ ; 7 0 9 6 6 6 9 Z M N D D A D R %.$.$.U U R P 0 0 0 M A A S S A A D A D A Z J 8.8.8.R P P I $.9.9.9.9.9.%.$.T D A D D Z D H H A M M M 0 7 9 6 . X D.+XI.J.C.2.2.+.%X5X5X5X[ a k f f j j X.y.y.y.y.y.y.y.y.u.u.t.T.8X8X].8X8X'.8X8X8X|.W.W.IXKXKXKXUX].8X8X8X|.8X8X| r p * / 1.1.....X.X.X.y.W.W.E.m f k ^ X.+.X.+.pXxXhXjX!.N.D.V.* . . . 0 F D H P P P L S M N ; . O . N I I I L D D M # . . _ ,.>.f # @ T 0.$.$.U I $.$.T Z Z A Z M M l 6 @ 6 6 6 - l Z Z l r w w d c c Z @ . . . . . . . . . . . . & a n 1.:.<.m O O . X./././.B.<.<.:.< # @ 6 M M M Z A A Z H I I I $.9.9.9.9.9.0.$.P P L D D F Z 0 c M 8 6 6 @ Z W P F O . .                                                                                                                                                                                                                               ",
"                                                                                                                                                                                                                                                                                                                            . . : p % & o.B.>.V.yXuXsX:Xo . # @ 6 @ @ > @ @ @ @ @ 7 0 9 6 6 6 0 Z N Z D D S A R %.$.$.U U U P c 0 c M Z S A A D A D A D A N F $.$.$.I I P P R 9.9.9.9.%.%.%.R D A F D A F H H A Z N M 0 9 9 @ . . G.OXI.I.Z.+.+.+.XX5X5X,X_ w a p j b j X.y.y.y.y.T.T.T.y.y.u.t.y.].].8X8X8XW.W.^.8X8X8X^.IXKXKXKXvX8X9X8X|.|.8X|.| % * $ m 1.1.1.1.1.1...T.W.W.W./ f b n ^ / k ( fXxXjXjX!.N.F.B.& . . . M I P P P P P H N M M @ . . . M P H L F D D M o . . ] >.;.g . O T w.$.%.U I $.$.T Z S A N M M M 8 6 6 6 > - z M Z l r % % , 0 0 c @ . O X . . O . . . . . . : p j ....:.b O O O  .F.F.D.C.3.3.<., O O @ 0 M 0 M A S Z F P P P $.9.9.9.9.9.0.$.P P L D D F Z 0 M M 8 6 6 6 M D F A O . .                                                                                                                                                                                                                               ",
"                                                                                                                                                                                                                                                                                                                            . . & & $ & { 5.o.4.1XuXuX:Xp & : < @ @ @ ; @ @ @ @ = 6 0 9 7 8 7 0 Z Z Z A D A A R $.$.$.U U U P 9 9 9 0 Z A S S D D D A A A N P $.$.R U I I I R 9.9.9.8.9.$.$.R H H P H F F H H A Z M N 0 8 8 , b v J.XXJ.L.D.C.V.B.qXiXgXpX<.~ ( / b j j  .u.u.t.t.t.t.t.t.t.t.t.y.].].8X|.8X0X0X8XW.W.W.W.IXKXKXKXeXW.8X].|.|.8X|. .r a p | ........=...X.y.E.T.y.n a p j e.c.e.i.pXhXhXhX~.m.H.V.p & : : M D S F I I P P A A D 9 > > > A P P P H J P F 7 @ o m ( ) , o = I 9.$.$.U U R $.T F F F A M M M 7 6 7 6 > , 9 M Z l * % % - 9 9 9 = X & & p g g p & o o o . & & p  .' ] / f B f 6.}.{.{.<.] ..] , + @ 6 0 M M N F D F P R I U $.9.9.9.$.8.9.R P P P D D D Z 0 0 c 9 7 8 7 Z F P D O . =                                                                                                                                                                                                                               ",
"                                                                                                                                                                                                                                                                                                                          Z . . o X . & m / j ( &X3X,X%X] ( ] n . @ @ @ @ @ @ ; 6 8 M 0 9 9 9 0 M M M F P H H R $.$.$.R U U H = o $ > D D A A D D D F L H L I $.R R R R R R $.8.9.8.9.9.%.%.R I I I U P A A D Z M Z Z 8 > O m {.XXU.,.o.4.I.=XOXOXVXKXKXHX8XF.!.R.n p a m X.] | p a f a p  .=.X.t.W.^.^.^.rXFXKXSX6.y.T.T.IXKXKXKX0Xy.i.i.W.|.8XW...X.....X.X.X.| n m n n 1.1.m o p p $ D IXKXLXFXuX6XuXuX#XI.P.L.] ] o.{ d + O > R $.U U I I U R $.$.$.R R R R R $.$.$.F Z N ; . . l L H I $.$.$.$.U U U I P P I F M M M 9 7 7 8 9 A M 0 M , % % % * @ > @ - p r p :.3.5.1.C f C f # @ . X p p : 3.P.H.H.1X5X6X6Xm . # # 7 0 9 0 Z A S F I I I $.0.9.9.9.9.0.9.I P P P P P P M M M M 0 0 0 0 c 0 9 P R $.T O . s.                                                                                                                                                                                                                              ",
"                                                                                                                                                                                                                                                                                                                        @ O . X & o X * ^ / n ] *X1X,X%X_ ) _ b . @ @ @ @ @ @ 6 7 9 M 0 9 9 9 0 M M c F P H P $.$.$.$.R U R P = = = 7 D D D D D A D H P P L I R R U R R R R $.%.%.9.9.9.9.9.$.I I I I J D D D Z N N Z 7 @ O b {.L.O.+.[ 3.I.@XOXoXVXKXKXPX8XG./././ a h / X.' | a a a a p X.1.X.1.^.^.|.^.9XFXKXSX5.y.i.y.SXKXKXKX0X1.y.y.W.8X8XW.=.X.1.1...X.X.m j n n n 1.1.j . s s % K IXKXKXFXuXyXiXiX%XI.XXL.[ } [ [ , + . @ U R I U U R R $.$.$.$.R R R $.R R $.$.F A D 6 # O l Y H P $.$.$.$.U U U I P P I F M M M 7 6 8 8 9 A Z 0 M , % % % * @ @ @ = * * p ..<.1...m C C z # # . X g s p 3.I.J.D.;X5X5X5Xm . + @ 9 M 0 c A A S F I I I $.0.9.9.9.9.0.9.I P P P P P P M M M M c 0 0 0 0 0 9 J $.%.R O . l.                                                                                                                                                                                                                              ",
"                                                                                                                                                                                                                                                                                                                        . . O X o . . X ~ / n ] ;X2X5X%X~ h ^ f . @ 1 @ @ @ @ ; 7 8 0 9 7 8 8 0 N M M F J H P $.$.$.$.R U R P = = = 7 D S A D D D D H P P L P R R U R R R R $.9.9.9.9.9.8.9.%.I I I I H A D D Z M M M 7 @ O f I.Z.( ] ] 2.K.OXOXoXVXKXKXLXW.B.R.G.v a a ^  ./ ^ a a a a p  .1.X.1.W.W.W.!.qXHXKXSX6.Y.T.y.SXKXKXKX0X1.u.y.^.8X9X|... ...1.1...X.m f n j p ] 1.d . * p $ A IXKXKXHXiXyXiXiX#XI.).U._ ( ( ) = # . @ I R I U U U U R $.$.R R R R R R R $.R D Z A 7 . . 9 H V P %.$.$.R R U U I P P P D M M M 7 = 6 6 8 A Z c c , % % % & 4 ; 4 = * * p ..1.1.X.C C C d O . . . s f a 3.L.D.V.:X5X5X5X/ . @ @ 0 M 0 c S Z Z D I I P $.0.9.9.9.9.9.9.P L P P P I P M M N M M 0 c 0 9 9 8 P 9.0.$.O . l.                                                                                                                                                                                                                              ",
"                                                                                                                                                                                                                                                                                                                        O . . X & & & : n ^ f / }.:X>X%X[ ( +.( O @ @ @ @ @ @ @ 7 7 > 6 9 9 9 l Z M M F H H P $.$.$.$.U U $.P 7 = = 6 Z Z S A A D D H P P L I $.R R R R R R $.8.8.8.8.%.%.8.$.I P I I H A A D Z M M M 6 @ O g H.V.] O.2.4.J.XXXXXXbXGXGXIX9XQ.^.^. .h k ( 5.G.=.p d p d : X.1.+.u.|.|.9X|.9XIXPXvX6.y.y.y.vXPXGXPX'.1.u.u.W.^.^.W.y.y.y.1...X. .n f f k  .1.1.m * m ' v r.SXGXGXAXhXiXhXiX%XXX%X}.o._ ] _ & O . @ P U I U U U U R $.$.$.$.$.$.$.R R $.R F F J M 7 6 M H H I $.$.$.U U R R I H F H A M M M 7 6 7 8 0 F A M c , % % % = @ @ 4 < p p p  .X.X. .m C m f & & & p m n j 2.L.G.G.:X1X>X:Xm . @ > c Z M M A A A F I I I $.0.9.9.9.9.9.$.L H L H P P L M M N M M 0 0 0 0 0 9 P 9.0.R O . l.                                                                                                                                                                                                                              ",
"                                                                                                                                                                                                                                                                                                                        . . & p O.,.4.6./ f s f [ +.<.~.#X{.$XH.. . . . @ @ @ @ > 6 1 7 0 0 0 M A Z A P I P I $.%.9.$.P H I P M c 0 0 N Z S A A D D I U I I R $.$.$.$.R R R $.9.9.9.%.$.R $.R L H J P D Z S Z M 0 0 0 @ = f k o.Z.H.I.XXXXL.V.Z.F.~.#XP.*XVXAXAXDX0XN.N.~.<XyXwX/ & p * * F.}.~.*XcXkXzX9XX.r.t.t.......] E.'.'.'.y.1.u.u.u.u.t.y.qXhXqXa a k f s s * 1.pX5X1X}.D.:X5X5X1XoXXX+X&XAXDXZXFXnXsXhXgX~.A.D.D.f . . O D I P P R $.R R R $.$.R $.$.$.$.R R R R R R U $.$.R R R R $.$.$.R U U U I D D D Z M M M A A A D H P Z 0 0 , % % % X . . O g ^ n n b f z C ' ] ' :.C.B.Z.V.1.+.X.5.Z.V.H.~.2.;.( o @ 6 8 D P D D P P L I 9.9.9.9.9.9.9.%.R %.R F D F D S A S N Z M 0 8 9 9 Z F A D D A F Z O . l.                                                                                                                                                                                                                              ",
"                                                                                                                                                                                                                                                                                                                        . . & p ,.m.m.Z./ a p s ] ] { !.&XXX&X~.X . . . @ @ @ @ = 6 1 8 c 0 0 M D A A P I I I $.8.9.$.P H J F M M M M Z Z S S A D D I U U U R $.$.$.$.R R R $.9.9.9.9.$.R R U P H H H A Z Z Z M 0 0 0 + < ^ ~ } G.I.}.#XoXI.C.V.V.J.I.U.~.AXZXCXDXrXm.V.}.5XiXyX( % g : : /.#X#X*XmXMXMX9X^ ^ ) ' X.X.] ] T.W.E.E.y.t.u.u.t.t.1.t.fXlXqXr r j j s s * 3.sXuX2X%XJ.2X6X6X5XOXoX+X$XAXFXDXJXNXsXjXhX}.J.K.I.b . . o F P L P $.$.R R $.$.$.$.$.$.$.$.R R R R R U U R $.$.R $.$.$.$.$.R I I U I D D D A N M N D F F H P P N 9 0 , % % % X . . . f / n b f g z f ] [ ] <.H.J.K.F.1.1.X.5.V.V.L.I.[ } b O 6 8 8 D P D F I I P I 9.9.9.9.9.9.9.%.$.$.R D D H A N N Z N M Z 0 6 8 8 S P F P A M M 0 . . l.                                                                                                                                                                                                                              ",
"                                                                                                                                                                                                                                                                                                                        . . X & 3.V.Z.G.( f s s [ ..+.~.$XXXOXK.. . . . @ > @ ; ; 6 1 8 M c 0 N A Z Z P I I I $.%.9.%.P H H D 0 0 0 M A A Z Z Z A D I U U I U R $.$.$.R R R R $.$.%.8.$.R R U L L L L D Z Z Z Z M M M O = ~ ~ } G.K.~.#X#XP.n.m.m.H.I.J.~.AXZXCXDXrXn.m.F.!.}.~.a X $ X X F.#XP.*XMXNXMXqX( X.X.....+.....E.'.'.'.T.y.y.y.t.t.=.t.wXsX*XX $ h a r % . o.sXuX2X#XJ.5X6X6X5X=X&XoX&XAXFXDXJXmXuXsXuXJ.M.(.U.s . O O L $.U U $.$.R R $.$.$.$.$.$.$.$.$.$.$.R R U U U $.$.$.$.$.$.$.$.R I I R I D A A A Z S S F F D D H J M q 0 , % % % X . o O f / b b f f z b ..+.+.4.L.J.I.F...X. .+.B.n.J.#X3.<./ # @ 6 8 Z D Z D P I P U 9.9.9.9.0.9.9.9.%.%.R F A D A Z Z A N N Z 0 8 7 8 Z F F F A Z Z 0 . . l.                                                                                                                                                                                                                              ",
"                                                                                                                                                                                                                                                                                                                      E X X s k { >.4.4.m p * p _ ] ] G.$X&X&X#Xm f f g @ @ @ @ 6 6 6 8 M M 0 Z D A S P U I R $.9.9.8.H D F D M M M M Z A Z A D F F I $.R U R $.$.R $.R U U R 8.%.%.$.R U U I H F F H A M M Z M 0 9 9 d n ( _ B.L.I.~.#X#X}.8X X|.}.#XI.#XgXcXcXBXrXJ.K.H.N.N.B.r.w.r.r.r.~.#X#X#XqXeXfX|.^ m | n m | | | E.'.E.'.u.X.=.=.1.1...1.fXMXeXb v [ [ 1.i.x.8XkX1X&X#XJ.}.}. X}.P.I.J.K.fXbXbXbXBXmXmXlX*X#X*X;X1.v n n V D A A R $.$.$.$.$.$.$.$.$.$.$.$.$.R R R R R R $.$.$.$.$.$.$.$.R I P I I D D D Z z z z H P H F F H M 7 9 < % % % $ . . . d b f g , , < d m m / ..V.m.B.6.5.1...C.I.L.{.K.] ' s @ 8 8 9 A F F P U R I R 9.9.9.9.9.9.0.$.R R T F A D A N N N M M M 0 8 6 6 A I P P M 7 9 7 O . s.                                                                                                                                                                                                                              ",
"                                                                                                                                                                                                                                                                                                                  . @ p k h 6.3.& X & & o . . X k ^ ~ ) #X>X=X&XL.H.H.G.: O O @ 9 9 9 0 M M M D P H F T 8.8.%.9.9.0.$.D S A A Z Z S S Z Z Z H P P P R $.$.$.$.$.R $.R P I I R 8.8.%.$.I I U I A Z Z A M 0 0 M 6 + O O ..B.,.B.XXXX~.~.!./.9XZXZXZXpX>X>X>XoXXXXXXX%X&X>X#XB.4.,.vXGXGXPXGX*X{.#XI.( ^ / ( a o o . X & * : u.E.T.E. .* p : ..<.+.6.VXJXFX9XJ.XX#XgXFXHXFXFX*XU.P.L.j p a v ;.>.o.o.L.XXP.I.bXJXJXFXNXNXCXCX*XI.).K.g . O = I $.R $.$.$.$.$.$.$.$.$.$.$.R R R R $.$.$.$.$.$.$.$.R $.R H F H H D D F M y y y K R I P L H 0 8 8 < % % % $ . . . @ 8 > @ . . . . . . . p ) ~ f ' F.Z.B.#X5X,X,X3.p v s 0 M M M P R U $.9.9.9.9.9.9.9.9.9.9.9.I P P H A A A Z N Z M 9 9 9 8 6 @ @ J 0.w.w.9 . . Z                                                                                                                                                                                                                                     ",
"                                                                                                                                                                                                                                                                                                                E . . p ~ ~ B.B.& . . . . . . X v ( ) _ #X>X&X%XL.H.K.F.: # . @ 9 9 9 0 Z M M F P H J R 8.8.9.9.9.9.$.D Z A A Z Z Z S A Z S P I P P R R R $.$.$.R R T P I I R 9.%.8.8.U I U I A Z Z Z M 0 0 0 > O O . ] m.,.m.XXXX{.~.!./.9XCXCXCXpX>X>X>XXX#XXXXX%X&X-X}.4.3.>.eXHXHXKXDX$X#X#XI.( ~ ^ ( s & & . . & * r y.W.E.Q. .r : * +.5.O.y.IXKXJX9X(.#X$XiXFXHXFXFX X(.P.I.^ a a k ;.;.o.o.K.XX)._.gXDXHXJXCXNXCXCX;XI.).L.p . O > U $.R $.$.$.$.$.$.$.$.$.$.$.R R $.$.$.$.$.$.$.$.$.$.R $.U H H H D A A D N l 9 z K $.I P L H 0 8 8 < % % % $ . . . @ 8 6 > . . . . . O . : / n s ' D.G.m.{.>X>X@X<.h ^ ^ B Z M N I R U $.9.9.9.9.9.9.9.9.9.9.9.I P P H A A A Z N N M 9 9 9 8 6 @ @ H 9.$.9.8 . . A                                                                                                                                                                                                                                     ",
"                                                                                                                                                                                                                                                                                                                E . . p ^ ~ C.Z.& . . . . . . X ^ } _ _ %X>X&X%XG.Z.D.V.& O . O 9 9 9 0 Z M M F P P P $.8.8.9.9.9.9.$.A N Z S Z Z Z S A A A P I I P R R R $.$.$.$.$.T L L I R 9.9.8.8.U I R I A Z Z Z M 0 0 0 @ O . . ) @.O.,.I.).XX}.}.!.9XCXCXCXyX>X<X>X&X$X$X#X&X>X>X#X4.3.>.eXFXFXJXDX&X#X$XP._ ~ / ( s & & . . & & % 1.T.Y.T.| % * * [ +.O.6.GXKXJX9X(.}.#XuXFXJXHXHX*XU.XX).) h h ~ ;.>.;.,.{.oXXXXXgXCXCXFXZXCXCXCX*X(.U.D.: . O @ $.w.$.$.%.$.$.$.$.$.$.$.$.$.$.$.$.$.$.$.$.$.$.$.$.R R $.U H H H F D D F N 7 7 d K $.I P P P c 8 q < % % % $ . . . @ 8 7 6 # . . . . X . : / n h ] H.H.F.I.OX&X;X<.p v n V D A Z I R U $.9.9.9.9.9.9.9.9.9.0.0.I H L H D D D A Z Z M 9 9 9 8 6 1 @ D %.$.$.9 . . 8                                                                                                                                                                                                                                     ",
"                                                                                                                                                                                                                                                                                                                E . O p ~ v 6.B.: # . . . . . X ^ ] ( _ #X>X%XXXF.F.H.G.: X X o 8 9 9 0 Z M M F P P P R 8.8.9.9.9.%.R N N A A Z Z Z A A D D P U I I R R R $.$.R R R U L P I R 9.9.9.9.R U R I A Z Z Z c 9 9 7 @ o X X [ N.2.B.{.XXXX#X}.~.*XCXCXNXyX>X<X>X$XXX#XXXXXXX$XP.B.4.,.eXFXDXHXAX&X#X$XP.) h b v p % * g , * * & t.E.T.E. .r p p +.3.O.y.VXHXGX9X(.#X#XyXAXGXGXGX XU.P.I.~ h h v o.2.;.>.P.oXXXP.tXnXcXBXCXNXNXNX*XU.).J.s o & , $.8.$.%.%.$.$.$.$.$.$.$.$.%.$.$.$.$.$.$.$.$.$.$.$.$.R $.R P H H F N N A M 7 7 z K $.U P P I l 6 q < % % % X . . . @ 6 ; ; O . X o o o . & n j p ( F.F.F.L._.qXBXT.h / ^ C Z M 0 P R R $.9.9.9.9.w.9.w.%.%.9.9.I H L H D D D A Z Z M 9 9 9 8 6 6 @ J 9.%.%.8 . . 0                                                                                                                                                                                                                                     ",
"                                                                                                                                                                                                                                                                                                                E . O * a a : , N Z M c o . . . o & & ) o.{ ] <.;X3X>X&X' m / b 7 8 7 0 A A S P U U I $.9.9.w.9.$.$.R D D H H Z Z Z Z Z A S I %.$.R $.R R R R U U I U U I U R 9.9.9.%.I I I P Z Z Z S 9 @ @ + g / ) ~  XpX6XpXBXfXA.D.J.%XhXhXsXsX*XI.{.P.V.4.N.,.v p p / C.C.B.eXNXmXNXcXN.+.3.o.& . X X v ) 6.fX|.>.2.;.UXGXIXGX0X(.H.H.tXgXfXfX;X*X;X&X$X$X#X}.}.}.}.}.[ s n h X X o = d g z 7 :.Z.B.4.B.G.V.F.pXlXhXdXBXVXAXbXY.>.m.5.N A D I 9.%.$.$.$.$.$.$.$.%.%.$.$.$.$.$.$.$.$.$.$.R R $.R F D F A y r r z H F P $.8.$.I P P z - 6 - % % % $ X X X . . . . @ 6 > > 6 > @ o X X . & ~ ) ~ G.OX&X;XqX!.K.P.' # o O J 0.9.9.9.9.0.0.9.9.9.R L P P P F H F M M M M 0 0 9 6 6 3 6 9 0 9 R f.d.P @ . . A                                                                                                                                                                                                                                     ",
"                                                                                                                                                                                                                                                                                                                E . . & a p . O F J D A @ . O O . . . ~ ( ~ v { 1X,X,X>X{ / ] | 8 8 8 0 D D A P U U U 8.9.9.9.%.$.$.R H H P H Z N N Z Z S Z I %.$.$.$.$.R R R I I I U U U U R 8.9.9.$.I I I P Z Z Z D 9 @ @ # f ] _ _ qXdXaXdXZXfX,.Z.D.%XhXsXuXaX%XJ.I.L.,.O.,.>.p . . j C.Z.B.fXxXlXxXgX>.] o.] X . . . ~ ` V.xX:Xn.B.n.SXKXKXKXeXU.P.{.hXxXxXjXoX_.+X&X&XXX#XK.J.L.L.I.) & * & . . + @ 4 6 5 2 ' m.2.<.;.,.>.,.tXjXaXaXCXDXFXGX/.S.D.V.N M M I 9.$.$.$.$.$.$.$.$.%.%.%.$.$.$.$.$.$.$.$.$.R R $.R F D F N t e w z P P I 8.9.$.I P P d - > - % % % $ X $ $ . . . . = 8 6 6 6 > @ O . . . X k k s G.>XOXOXtX#XP.$XX.O O . J 0.9.9.9.0.0.0.9.9.0.R L L L F D D D M c c 0 0 0 9 6 1 @ 6 0 0 0 8.j.g.P o . . A                                                                                                                                                                                                                                     ",
"                                                                                                                                                                                                                                                                                                                E . . . & & . . A H D D @ O # # . . . n _ ) ^ +.,X,X,X>X} v ( m 9 9 q 0 A A Z J U I U 9.0.9.9.%.$.$.R L P P L Z N N Z S S Z P %.$.$.$.$.$.$.R I I U U R U R R %.%.8.$.I P I P Z Z Z D c 1 @ @ f _ ) ) :XdX7XsXCXfX>.m.M.}.jXhXsXdX:XU.I.I.,.>.N.,.h & X n C.B.B.eXMXxXMXhX,.} o.[ & . . . / ` V.xX*Xn.B.n.SXKXKXKXrXU.I.I.hXxXxXlX&X+XoX3X=XXX#XI.K.K.P.{.] * p & . O @ @ 6 7 6 4 [ m.3.<.,.B.,.m.pXjXsXdXCXDXFXGXR.n.M.4.N Z N P %.$.%.$.$.$.$.$.$.%.$.$.$.$.$.$.$.$.$.$.$.R R $.$.F D F A t t w z J L P $.8.$.I H P z = 6 - * % % $ X X $ . . . . @ 6 > > = = @ O . . . & ^ ~ h F.<X&X&XwXI.U.XX' O # . P d.0.0.9.0.0.0.0.9.0.R L P P F D D D M 0 0 0 0 0 9 6 4 ; > 8 9 9 9.z.k.P O . . 0                                                                                                                                                                                                                                     ",
"                                                                                                                                                                                                                                                                                                                A . . . & o o @ M A D D 6 # @ + . . . j / ~ ~ ] &X3X3X;X2.o.,.{ 8 8 8 0 D A N H U U U 9.9.9.9.%.$.%.R P L L H S Z Z N M l 0 P 9.$.$.$.$.R R R I I I U R R R R 8.$.$.R I I I P Z M Z F c ; @ @ / >.O.O.tXxXhXhXNXfXB.Z.D.}.iXpXpXiX%XD.J.F.>.O.,.>.a X X h N.N.,.eXMXzXMXgX;.) ] ] < O O # ^ _ 6.hX%XM.Z.m.SXJXJXJXeXI.`.#XgXhXlXgX%X).XX&X#X~.~.L.K.I.{.XX] p s : . # @ @ 8 9 9 6 ] B.<.o.o.,.O.,.qXiXpXpXBXDXDXAX/.M.J.B.B 0 M P $.$.$.$.$.$.$.$.$.$.$.$.$.$.$.$.$.$.$.$.$.$.R $.R F A D N t e e z P P P R %.$.I H P z > 6 = % % % $ $ $ $ X . . . @ = = = = = @ @ . . . & v v a V.&X#X#XwX#X}.%X .o @ o P 0.9.9.9.0.0.0.9.9.9.I H L L D A D A c c 0 0 9 9 9 6 6 @ 6 0 0 0 $.g.d.l @ 0 9 E                                                                                                                                                                                                                                     ",
"                                                                                                                                                                                                                                                                                                            3 0 . . . @ I P P H @ @ 7 8 4 @ @ @ . . . X : s p p [ H.K.~.wXwXpX*X> O X > F D A P $.$.$.9.0.9.9.$.R $.R P F F D A Z A M , < < P 9.$.$.$.R R R R U U I U R R R $.R $.R I L P I L M c M S 9 # O . R.2X<X1XGXJXHXVX$X1XpXpXiX%XG...:.<.m p p p B V K V o . . * G.XXU.tXiX2XuX1X~ p h C N M M N , & j G.D.D.A.M.qXMXlXnXcXcXBXbX XH.}.R.m s b ;.Z.B.B.B.{.OXOXOXV.:.>.o.& O # > F L H F Y #.Y H = & & : 5.C.B.,.qXNXzXzX;X$X=X}., O O N %.R $.$.%.%.%.$.$.$.$.$.$.$.$.R $.$.R R $.U U R I Z N S M i t e x 9.$.$.8.8.8.R P K d 7 6 = $ $ % * * % * $ X X X & % % * z z 9 7 4 6 6 > & o X ^ >.o.[ qXhXhXhXT._ +.<.z @ 8 R 0.9.0.8.U I I L A F F Z M N M 0 0 0 8 @ > = 6 6 @ M 9.%.q.D > @ @                                                                                                                                                                                                                                             ",
"                                                                                                                                                                                                                                                                                                          @ . . . . . 6 $.$.$.I @ + @ ; @ @ @ @ . . . . * g p * v V.D.L.uXuXdXtX< . . > H D D I $.$.%.9.9.9.9.R R $.R J F D D S Z Z M 7 7 7 I 0.$.$.$.$.$.$.R U U I U R R $.$.R $.R I P P I L M c M Z 7 # . . Q.uX5XyXFXKXKXVX_.1XxXdXjX:X@.i k ! & . . . 6 Q Q Q O . . & J.>XOXpXyX>X2X=Xf * a z S D D F > . p ,.A.J.D.V.:XdXaXaXjXFXDXNX!.S.A.N.X . . } m.>.,.n.XX@XOXOXG.,.N.3.< + @ 6 F L H L I P P F + . . o O.@.@.` qXxXjXjX1X=X>X#X: . . M 8.R $.$.$.$.%.$.$.$.$.$.$.$.$.$.R R $.R R U I U I N M Z l u t e x q.9.9.9.8.9.$.P V y 7 8 > o o & r r r r $ X X X & * $ * z z z l 8 9 0 6 X . . h [ ) ) qXxXjXjXQ.O.N.C.g . O T s.0.0.%.I I I H D F F Z M M M 0 9 0 8 @ @ @ @ 3 @ A f.d.f.M . . @                                                                                                                                                                                                                                             ",
"                                                                                                                                                                                                                                                                                                          @ . . . . . > $.R R P @ @ @ > @ @ @ @ . . . . p f p p / F.K.P.yXuXaX:X> O . > P J D P $.$.$.9.9.9.9.R R R R J F F D S Z Z M 9 7 8 I 9.$.$.$.$.$.$.R U U U U R R R R R $.$.U P L I L M M M Z 6 . . . F.5X3X2XDXKXKXVX_.1XxXjXjX:X,.k ~ ` : . . . 9 M M c 7 @ . & I.>XOXpXyX>X2X;Xj p h B Z Z S A < . s m.Z.D.M.m.;XdXsXsXhXHXFXNX}.M.J.B.& . . { V.n.m.m.XX=XOX&XB.O.,.>.< 2 + 6 D D D F P P P J @ . . & 4.N.,.@.qXMXxXjX>XoX=X~.< . . N 9.$.$.$.%.%.$.$.$.$.$.$.$.$.$.$.$.R $.$.R U I U I M M Z l e u e x 0.9.9.9.9.9.$.P V y 6 6 > & & & w w w w % X X X o = $ & d z z z 7 8 q 6 . . . h o._ _ qXxXjXjXT.` >.3.g . @ T s.9.0.8.I I I P D F D Z M M M 9 9 9 7 @ @ @ @ 4 @ Z d.e.d.M . . @                                                                                                                                                                                                                                             ",
"                                                                                                                                                                                                                                                                                                          @ . o @ @ o 7 R T T P @ @ @ ; @ @ @ + . . X X * p p p / Z.H.L.yXyXuXqXz & : z P J D P $.$.$.9.9.9.8.R U R U L F F D Z N Z M 9 0 9 P 8.$.$.$.$.$.$.R U U U U R R R R R R $.U L L L H M 0 9 0 > & & & !.yX2XwXAXPXPXbX_.;XhXpXpX X>.h h v : . . . 9 M M M M 7 O & ~.>XOXwXyX3X2X;Xb p h B Z N S A > . p 6.V.V.m.N.qXsXiXiXhXDXZXMX}.A.H.4.& . . } m.,.n.m.XX&X$X$XV.>.m.B.d @ = 6 F F D D P P P P @ . # : ,.n.>.O.qXkXhXhX<XOX4X{.< . . N w.$.$.$.$.$.$.$.$.$.$.$.R $.R $.$.R $.$.R U I U I M l M z i i i V 0.9.9.9.9.9.$.P x t > 7 < & $ * w r r r % X X X o = = & d x x z 9 9 0 6 . . . s ] ) ) qXjXsXsXQ.+.B.B.g . o I 0.9.0.$.I I I J D F D Z M M M 9 9 9 7 @ @ @ @ @ @ D d.e.d.N . . @                                                                                                                                                                                                                                             ",
"                                                                                                                                                                                                                                                                                        6 .               @ . @ 8.f.0.U 9 9 0 0 ; @ @ @ @ o O o d s h : & ^ } [ +.+.o.<.&X>X>X>X}.I.XXC.@ ; ; D 9.8.9.9.9.9.9.R R R R P P I P Z N Z Z D D A R 0.9.9.$.$.$.$.R U R $.R R R R I I I I L A A F A > @ O . k ;.O.@.vXFXFXGX9X~.#X~.J.D.V.' C f : X . X < M M M M M M M Z 9 4 > H.>XOXwXyX3X2X;Xp . o 0 A Z Z D Z N N B k ~ v j F.#X~.~.1XuXiXpX1.k ~ j 9 9 9 z p : d g ,.A.N.,.:XpXpXtX<.} o. .H F A D P P P P M 0 0 B ,.,.^ r 4./.A.F.pXsXsXqX< . . Z 0.$.$.$.$.$.$.$.$.$.$.R $.R $.$.R $.$.$.$.P H P H y w w g &.w.&.0.a.q.q.0.9.0.0.I B t t i t t e e f N N N , $ $ $ z M l M P I U I F D F Z @ @ # & a p * G.&XI.&XcXcXwX1X .. . l %.$.$.I F F H D Z A Z M 0 0 9 > > > ; ; @ > 6 @ l 0.d.e.d.l . . @                                                                                                                                                                                                                                             ",
"                                                                                                                                                                                                                                                                                      @ . . v.            @ . @ d.c.j.9.7 7 9 0 6 @ @ @ @ O . X g b m p X ` ,.B.+.[ _ o.%X&X&X=X&XoX=XG.. O # F 0.8.8.9.%.9.9.$.R R R I I I P Z M M Z F H F $.0.0.9.$.R $.R R T R $.$.$.R R I L I I P A A F A > @ . . v ,.,.,.vXKXKXJX X(.U.U.J.m.,.a . . . . . . 7 D A D A Z Z Z Z 0 q > F.>X+XgXlX3X2X1Xp . . 9 Z Z S A D F F q o a a a B.I.U.U.<X5X,X1X( % * : M Z N M @ . O o O.N.O.} qXdXdXhX6.O.,.+.L F A D P I I I Z Z Z N ,.,.~ $ } m.@.m.iXjXjXtX< O # A 0.R R R $.$.R $.$.R R R R $.$.R R $.$.$.$.L F P F y w % y w.e.0.q.a.q.a.0.0.q.0.I M t i i i t t e x D A Z < $ $ % x N N D I U R T W W P Z @ @ + & r % & B.).(.%XNXNXuX5X=.. . 9 R U U P S D F A Z Z Z 0 9 9 9 ; @ @ @ @ > 6 8 @ M 0.q.q.e.l . . @                                                                                                                                                                                                                                             ",
"                                                                                                                                                                                                                                                                                      @ . O               . . o a.z.g.9.0 0 M M 7 4 > @ O . . . p k v : . v ,.B.] [ ] <.;X<X3X>X).I.).3.. . . W d.9.9.9.9.9.9.$.$.$.$.I I I P Z Z Z N A A A $.q.0.9.$.I I R U U $.$.$.R $.R U P P Y L D F P D @ O . . h @.O.@.vXKXJXJX*X(.P.P.U.J.M.v . . . . . . 6 Z Z S S Z Z Z N 0 6 = F.&X+XbXnX4X2X<Xg . . 9 S Z S A D D D c d h h h V.).I.I.1X5X2X1X] p h f M M Z A 6 . # : >.m.>.O.tXdXdXhX<.` } | P P P P I I I P M M c B 4.>.) * [ Z.N.G.sXdXjXtX, O # N 0.$.$.R $.$.$.$.$.R $.R $.R R $.R $.$.$.R P L P F y r * y $.&.$.w.a.s.a.0.w.0.0.I M t i i t w w e g A M M = X $ % f B N D I I I P D D D 0 O O O & p r % G.oXU.;XNXmXyX3X .. . 9 $.$.$.I S D F A Z Z Z 0 9 0 9 6 @ @ @ ; 6 6 4 # 9 0.d.d.g.M . . @                                                                                                                                                                                                                                             ",
"                                                                                                                                                                                                                                                                                    k.p h h w.    6 6 8 F $.I I %.%.$.J 6 7 9 9 @ o o O b / / / s s p n C.F.F.B.n / ^ [ R./.F.K.1X1X5X|.g j b M P 9.$.9.9.9.9.R I I I P F H F S A N D I I I 0.d.q.0.I H H H I R $.$.$.$.R R I L L H H l 7 8 8 g f s * y.eX0XeXeXfXtXfXT.@.m.4.[ } _ : O @ @ 6 6 6 0 Z Z Z A A A A N 9 4 > V.XXU.fXNXiXlXfXg . # M D Z S Z D D F S < a h a B.P.I.K.>X2X,X3X/ & p g Z Z Z D 6 . # : [ o.] ) |.:X*X*XK.(.(.6.M 0 0 Z R I P P M M Z N b s * & ( O.} o.tXjXxXfX| f f N I P P U R $.$.$.R R $.R R R R $.$.R $.$.R L D F A y e w y $.w.w.0.f.f.d.0.9.0.0.R D t i i t d d y B I P P z % % w z M M D &.&.$.$.P P P A > 6 6 o X X X ;.D.n.G.cXxXiXuX1.: g z l N D A Z A A Z M M c 8 8 8 7 6 > > @ @ @ > F P T 9.I R $.9 . . @                                                                                                                                                                                                                                             ",
"                                                                                                                                                                                                                                                                O % $ d.        v.. p ) } O.) O . . . . H v.c.z.I Z D 0 @ @ @ @ O . . . +.V.B.2.s p ] G.>X%X!.6.j n n ^ o.[ ~ 1.sXdXdXqX>.n.B.p 8 $.$.9.0.0.0.T F F F A A Z Z S D Z I 9.%.%.0.e.f.q.D N N N P %.$.%.$.$.$.R I P H F F 7 . . X ] O.o.) 8XJXHXJXfX_.+X+Xo.h ` ~ . . . @ 8 7 0 D D D A A Z A A A A N N 7 @ f V.U.(.qXMXMXCXbX< . ; D D A Z Z S D F D @ v ] v 4.U.J.J.>X,X,X3Xb . $ < A A A D 8 @ + < / v h a O.m.,.m.<X5X5X*X< O # 7 R U I P Z M A Z # . . p o.^ k ~ tXxXxXgX1.} o.V M N N I R R R R R R R R R R R $.$.$.R $.R F A D N d e e a 0.q.q.d.h.h.h.0.9.0.0.0.L i u i t 0 0 8 F w.%.9.V e t t B M l N r.&.&.w.R R $.P 9 0 l @ . . . ( >.O.} qXxXsXjXT.) o.n . @ c M N N N M 0 0 9 6 @ 4 > 6 6 6 1 @ @ > q.g.g.R M Z A 6 . . @                                                                                                                                                                                                                                             ",
"                                                                                                                                                                                                                                                                o a r c.        v.. p h ) } ) o O . . . A j.g.g.P A D l @ @ @ @ . . . . { B.6.<.p & }.2X&X}.J.B.n ~ ~ ~ o.o._ 3.sXdXdX:XO.@.,.: q 9.$.0.0.9.9.I D F F D A A A A D S I 9.$.$.0.e.d.q.H A A N P $.$.$.$.R $.R U P P L L 9 . . . v ` _ i '.JXJXJXfX+X@X=X2.v } ) . . . @ 7 6 9 S A S S Z Z Z A A A N N B f ' D.U.(.tXMXxXMXbX< . @ A D Z Z Z Z D F S @ ) o.( 6.J.H.J.OXyXhXpXC . & , D A Z Z M M 0 B / ~ n k 4.D.m.D.cXCXCXtXd O @ 9 U R T I Z M Z Z @ . . g ,._ ~ } tXxXxXfX{ ~ ] V Z A A I R R R R R R R R R R $.%.$.$.R $.R F A A N y e e f q.a.0.q.g.g.h.0.9.0.0.8.L i i i t 9 9 6 A $.R $.x u t t l M l N r.&.&.8.T I R J 9 0 M = . . . [ n.>.@.tXjXsXsX6.~ } n # 6 Z Z Z N Z M 0 0 0 6 @ ; > 6 6 6 6 @ @ @ %.q.q.R Z D J = . @ 9                                                                                                                                                                                                                                             ",
"                                                                                                                                                                                                                                                                & k k e.        v.. p a ) } / X . . . . N g.f.d.P D F Z @ @ @ @ . . . . { C.B.5.a * }.2X#X{.J.Z.^ ~ n n [ [ ) 5.sXdXdXqX,.n.n.p 9 $.%.a.q.9.$.P A D F D D A A A D A I 0.$.$.8.0.e.q.L D D N P R R R $.R $.$.U L P P P 0 . . . k ) ! [ eXHXJXJXfX+X@X@X;.k ( v . . . @ 8 7 9 Z S A A A Z Z A A A N N B , b 4.m.n.qXxXlXMXfX, . ; Z A A Z Z Z S A S @ ) o.( B.J.J.A.oXiXMXcXL . & < A A Z Z Z Z M M | v h k 4.D.m.(.cXNXMXtX3.<.<.X.I R R R J D F F @ . . p <.] ) } tXxXxXfX../ ] C M N A I $.$.$.$.R R R R R R R $.$.$.$.$.R A N Z N y t e f d.d.q.q.g.g.g.0.9.0.0.9.H i u i t 9 0 > A R R 8.x u i t z M z B &.&.&.8.R R R J 9 0 Z 6 . . . } ,.O.O.qXdXsXdXp.) o.~ @ 8 D S S N N c 9 0 0 6 6 6 @ > 6 6 > @ @ = 8.0.0.I M Z Z 9                                                                                                                                                                                                                                                   ",
"                                                                                                                                                                                                                                                            q V h o.4.O.X.        h ] ] v h v h & + O . A 0.9.$.8 ; 8 8 4 @ @ @ . & / ( ] ] ] ..2.,.D.C.b b m m * & o & k ~ h ^ G.F.G. XpXpXgX|.} _ | N $.0.$.F A F F D D D A F H F $.g.d.d.%.I R R M M Z M P %.R R R T I U P D N 9 6 f ^ a / 0XqXqXcXgX*XrXrXR.} O.O.a X & o @ @ > 0 A Z Z Z Z Z A D A A A A D A M c 9 > ] 4.@.*XjXjXxXfXb f b N Z Z Z Z D H H D @ ^ O.] B.U.D.A.pXxXxXcXL . o 7 P P H H A M M l & X X X ^ { [ o.-.-.-.-.G.G.6.=.T R $.$.I P P P 8 ; @ > d , & s }.>X&X%XZ.C.G.<.b @ o F $.I I R R U R U R R R $.$.$.$.$.$.A M M M N N N L d.d.0.e.g.g.g.f.f.d.e.q.K r % % g I I H R q.0.d.$.H U U j i t i ^ ^ | w.9.9.9.T M Z F c > 6 ; b ( v h G.6XxXxX XJ.}.B., V *.#.M M M 0 8 9 9 6 6 ; 6 @ @ @ M R I T 0.e.w.M O O @                                                                                                                                                                                                                                                     ",
"                                                                                                                                                                                                                                                            . * j ;.,.>.O.Y 6 F *.>.;.:.s : s ~ p + o . D 9.R I @ O @ @ 4 = @ @ . : [ o.' ^ ^ ] V.D.M.o.. . . . . . . . h v h v O.@.` !.xXxXxX:X@.) v = T a.8.H D F F D A A D L L F $.g.g.g.%.P I P z M Z N I %.$.R R I P I H A l @ # m O.) 1.cXxXxXxXwX_._.+X>.a k k & . . . 6 8 7 M F D A Z A S S A D D A A A N M 0 9 @ ( N.,.:XjXdXjXfXb p f M Z Z Z Z H L L D + ^ 2.{ V.I.J.A.gXMXzXnXY . o 7 P P P P A c M 0 # . . . h ) / ^ X . . X *.&.Y I R R R $.I P P H 8 6 8 6 @ @ # * I.oXXXP.H.F.H.B./ . . A U P P U U U U R R $.R R U $.$.$.$.D M N M D F D T f.d.q.d.g.h.f.f.f.f.d.q.K r $ $ d $.$.I w.f.d.f.0.T 8.R k u t t k k V 0.0.w.0.R A D P Z 8 8 4 g k g , n.2XMXmX;XXX&XG.o , z N M c c 9 8 8 8 6 > 6 6 > @ @ A d.a.q.q.q.$.0 . . @                                                                                                                                                                                                                                                     ",
"                                                                                                                                                                                                                                                            . & p [ >.,.;.& . . h 4.>.:.h p h v : O O . D 0.%.T @ O @ @ @ 6 6 @ . p ] ] / ~ n ) N.V.D.4.o . o X . . . . v ~ k ) 4.N.@. XxXjXjX}.` ! h @ R d.0.P D D D A A A D L P F R f.d.g.9.I R I z l M N I 9.$.$.R I P P F Z c + O b o.) +.gXjXhXjX1X).#XoX4.k ) ) * . X O > > @ M D A S S A Z S A D D D D D A M 0 9 @ ] N.,.:XdXaXdXpXf X & M A Z Z Z H L L H @ ^ ;.[ V.I.M.M.gXzXzXnXY . = 8 P P H H Z c M 0 o . # O ~ ] ( ) * X X o H L H H R R R R I P P D 8 6 8 8 > < o : I.&X#X#XF.A.F.N.^ O . N I P P I U U R R R R R R R R $.$.R D N Z N N D A P f.f.a.d.j.h.g.q.w.q.0.w.V w % % d T $.U 0.g.f.f.9.I T I i e e t j k V 0.w.w.0.R D F P Z 6 4 @ g k f p M.5XhXhX&X{.#XC.. . # 7 N M M 9 9 9 8 6 @ 6 6 6 @ @ M 0.9.9.q.q.8.N . . @                                                                                                                                                                                                                                                     ",
"                                                                                                                                                                                                                                                            . . X ] >.,.>., o . b B.>.;.v a h v & O . . Z 0.8.R @ O @ @ @ 4 6 6 . h { } n p : a ,.V.D.4.X . o . . . . X ) ~ h ) N.N.@. XxXjXjX X! i a @ E g.s.I F F F S A D F P P F R d.d.f.8.U R P 7 9 M M I 0.8.$.R I P P D Z 0 + . a ` ! o.cXxXjXxXpX).#X$X2.h ~ ~ & . o o > @ @ 0 D D A A S S S A D A D A A A M 0 9 @ } B.,.*XaX7XdXiXf X : M Z Z Z S H L P P > ~ o.' m.#X%XXXgXxXxXkXY # > 7 P P H P Z 0 c M @ O # # ..B.4.<.* . . O N F D H R R R R P P P H 9 8 8 9 > = O * L.&X#X}.F.F.H.B.} < X M I H P I U R R R R $.R R R R R $.R D Z S N x x A L q.d.0.d.h.h.g.0.8.0.0.8.V e % w g T R I 0.g.f.g.0.T T P y e e t f i x 9.w.0.a.%.F P I M ; @ @ g j j f A.$X#X#X#X}.%XC.X O @ 7 M M M 0 9 9 8 6 @ 1 4 ; ; @ M 9.$.9.d.d.0.A 6 6 9                                                                                                                                                                                                                                                     ",
"                                                                                                                                                                                                                                                            . X & v ;.Z.G.2.:.;.o.[ ] ] { { { o.] / / / z 9 0 9 O . . O , f f b 2.V.G.G./ * * * s v ^ v o @ @ o O O O o p : & s O.o._ 6. X X X X X.X|.=.+.u.t.N 9 Z P F F H H J P H R a.q.q.0.8.8.R N M Z N I 8.$.$.R A N 0 , n | v :.|.9X0X0XtXyX6X*Xy.{ o.o.h X & * 7 0 0 0 M M M A D D D D D A A A D D D D A A N M 9 O +.K.J.#X}.F.R.u.B l N A A Z Z A P U U R 7 h ) n 9XkXxXmXNXhXxXkXY O @ 6 I I P I H N A A 6 @ @ + 6.H.D.D.( j k f > 6 6 0 R $.R R T I T U N M N N 6 O . o <.Z.B.V.I.}.#XH.V.V.G.| 6 > 8 P U U I U R R R R R R U U U F D D H K K I R w.0.0.q.d.q.q.0.0.8.I T I i e u x w.w.$.q.g.f.h.e.q.q.w.V g x g t t i $.9.0.s.8.P I T A 7 7 6 & & & * 4.H.Z.A.A.F.H.3.s s v b 7 8 9 8 6 8 6 4 6 @ > M D N P 9.9.R M l 7 %.                                                                                                                                                                                                                                                          ",
"                                                                                                                                                                                                                                                            . p p o.D.L.I.J.L.L.3.n | | 5.6.5.B.B.4.3.4.s . . . O O . . p / n ^ K.I.I.P.] p a : . . . . @ @ @ @ @ @ @ @ . . . & ( ) v _ @.@.O.*XdXdXdXF.,.n.>.< # Z U I P P L P H H R q.0.0.0.0.0.8.P F F H I R R $.U M 0 4 X } O.O.I.jXNXDXFX<X>X3XD.t % * w X . . . 0 F D D P L H F D D D A D A D D A A A A A D A D 0 . <.XXXXXXn.! r . 0 F D D A A S S I $.$.$.7 : h p eXNXxXZXDXjXmXnXY . . = I U U U P D H P 8 @ @ + B.K.J.D.O.} [ ( o # O 7 $.%.R R R R $.R F A D D 6 # . . ^ ] _ o.$X=X&XP.D.D.&X:.. . @ P R I I R R U R R R I I I I F F F P U Y 8.0.0.0.0.q.d.d.q.0.0.$.P I $.x i i ! d.a.0.d.f.f.f.f.f.g.f.K B N z u e t $.9.9.s.%.I I T A 0 0 9 O . # . 3.H.Z.V.N.N.N.;.) ) } v @ 1 6 6 6 6 6 6 @ @ 6 P R T $.0.0.I . . . l.                                                                                                                                                                                                                                                          ",
"                                                                                                                                                                                                                                                            $ s p C.P.L.L.J.D.D.<.m ( ] <.5.2.6.6.<.<.<.s . . . + # . . : v h v G.L.L.I.] a h p . . . . @ @ @ @ @ @ 1 = . . . & ( ) k _ N.,.>.:XjXjXsXG.@.,.o.@ # Z R I P P H H H D U q.0.0.0.9.0.8.I P P J P U U $.R N M 8 X ( o._ D.sXNXDXDX1X>X1XL.~ a a h & . . . 9 S Z Z H H H F D D D D D D D D D A A A D A A F Z O :.P.I.XXZ.} h . 0 A A A A A A D I $.$.R ; * a : eXNXxXCXZXlXMXnXY . . @ I U I I P F P P 8 @ @ O 4.U.J.D.{ ( _ / @ @ @ 9 $.$.R $.R R $.R F Z A Z ; O O . ( +.o.4.&X>X&XI.V.V.$X:.. O ; T $.U U R R U R R R U I I I F F F J U U 8.0.0.0.0.q.d.f.f.0.0.9.I U R x u u x q.a.0.d.f.f.f.d.d.f.f.K V N z i i f $.9.9.0.$.P P I Z 9 0 0 o . # O 3.D.V.C.C.C.Z.>.v h p < 1 6 6 6 6 6 6 @ @ @ ; J T T $.q.q.T . . . l.                                                                                                                                                                                                                                                          ",
"                                                                                                                                                                                                                                                    . . 9 M p s p V.XXI.L.D.D.H.2./ ] X.5.4.2.6.4.<.:.4.s . X X # O . . % s p a G.K.I.I.[ a k a . . . . + @ @ @ @ @ 6 ; . . . & ) ^ h _ N.4.,.:XjXjXsXV.O.@.[ o # Z R U U P F H H D I 0.0.0.9.9.0.9.I P P J P U U $.$.M Q 6 X ! ` ! M.sXCXDXDX5X,X2XP.) k k k & . . . 8 Z M Z H H F D D A D D D D D D D A A A A A D F Z O 2.P.U.XXA.} h . 9 A Z A A A D D U $.$.U @ * a p eXNXMXCXCXzXMXnXY . . @ I R U U P H P P 7 o # . 4.K.J.D.} ) _ ^ @ @ @ 9 %.%.R R R R $.R D N N M @ # O X ' <.+.B.>X3X>XI.V.V.&X-.. X > U $.$.R $.R $.R R R U I I U F D F P U U 8.0.0.0.0.q.d.d.d.q.0.w.U R R x e e x 0.0.0.d.f.f.f.e.e.d.d.V B V V U I I 9.9.9.0.R P P P Z 9 0 0 @ . . . <.Z.N.B.B.B.V.O.& o X @ 6 1 1 4 6 6 6 @ # O @ F T I 9.f.f.$.@ 6 @ l.                                                                                                                                                                                                                                                          ",
"                                                                                                                                                                                                                                                    . . p 6.6.4.4.3.3.>.:.^ / ( v a h j ( ' ^ ^ <.5.<.5.3.3.6.6./ f s / B.B.6.6.o.[ :.;.s & * & o @ @ @ > ; > 6 6 6 6 6 @ @ @ o * & X p _ _ _ G. X|.}.*X*X:X XX.( +.X.M 9 F P P P H I 8.8.8.0.q.e.q.T P P P F M N N M m  .v u.qXqXqXqX:X*XqX9X6.,.6.o.p & & & > 9 7 7 N F P P I I P P P P H F F F D A A A A A A D A D g 1.qX2X#X:.^ p < 6 M Z Z A H P I P U U U U ; & p p qXjXhXhXmXzXmXcXY . . @ I R R R T I U I M 8 9 7 b / v ] Z.A.D.B.< # @ 7 $.$.R R R R R R P H D D 8 ; 6 > d g g b { :.:.3.4.5.V.G.6.G.6.V l 9 0 P U I I I I I P P P H H P P I I U $.0.0.9.0.0.0.0.0.0.8.I I H z g d V 0.q.d.f.g.f.f.q.9.0.9.Y Y Y #.U I R 9.$.$.8.T F F F M 0 0 0 o X o X G.$X#X%XI.K.P.B.o # . O 1 @ 1 6 8 8 8 D J D D D F P J M M J                                                                                                                                                                                                                                                                   ",
"                                                                                                                                                                                                                                                    . . h H.J.I.I.o.k v h X X X $ $ $ & a a p * ..5.5.<.D.{.XXP.2.o.[ 3.XXXXXX}.v * s s X . . . > 7 7 7 7 8 8 7 6 6 6 6 @ @ @ + . . . o k v v o.,.@.>.pXdXdXsXG.n.m.o.o . Z I I P I I R R $.0.d.f.d.T I I I A 6 6 @ . } n.O.9XNXxXMXMX/.S.(.m.w % a r . . . . 9 F A N L I U R R R T U U I P P P L D A A D S D A D D V s !.aX6X:X& O @ 4 Z A Z S S I U U $.U I U I > & a p qXsXuXuXlXxXxXcXY . . @ I R R R R R $.$.D M Z Z O . . : I.XXXXK., O @ 7 R $.R R R U U U I P P H 0 9 0 9 1 O . . . . . / 3.;.o.I.OXoXP._ % . . D I P P P P L P P W P I I I I I I U 9.9.9.9.0.9.9.0.0.R P F N M N M H q.d.d.f.g.f.f.0.%.$.$.$.$.8.$.P H U 9.$.R $.I D D A M 0 0 9 O & & o }.6X5X5X<X=X3XL.o . . . ; ; 6 7 0 9 0 q.k.f.d.D N P 9 . . Z                                                                                                                                                                                                                                                                   ",
"                                                                                                                                                                                                                                                    . . s D.D.J.J.;.) ( n * & * & & & % a s p p ..5.5.3.D.I.I.L.<.] ] >.XXP.P.I.) a h h o . . O 6 6 > > 7 7 7 7 6 6 6 6 @ @ @ + . . . & ^ ) ~ <.C.>.4.6XaXaXpXV.,.n...o . N P P I P I R $.$.0.e.d.q.I P I I D 8 9 @ . [ ,.O.9XMXlXxXlX~.A.J.Z.k a ~ a . O + @ l F Z N H I I U U U U U U I P P P H D S A A D A D Z N V h !.uX6X:X: # > 6 M A S S A P U U U U I U U @ & j a qXhXiXuXlXjXjXcXY . . @ R $.R R R R R R A M M M @ . . s L.I.).H., O @ 7 R R U R R U U U P P J H 0 9 0 0 6 6 @ O . . o ' 4.2.>.K.).P.J.} j O O D I J P P P L P P P P I I I I I P I 9.9.9.0.0.0.0.0.s.R N B z z A N H e.d.d.f.g.f.f.0.%.9.$.$.R $.U K V I 0.$.$.$.I A A F M 0 0 9 O & & o }.5X2X2X>X&X=XF.o . . O 6 6 6 6 9 9 0 0.f.d.0.D M D 9 . . G                                                                                                                                                                                                                                                                   ",
"                                                                                                                                                                                                                                                  G . . g J.J.H.K.;.) _ ^ * & * & $ & & a a * p +.B.6.B.H.I.I.I.o.^ ) O.XXXXXX{.] h n v o . . . > 6 > > 7 8 8 7 1 1 6 4 @ @ @ O . . . & ( _ ) ;.C.>.4.yXsXdXsXB.O.@.( . . 0 P I I P I $.$.$.q.e.e.0.I I U $.D @ @ # . ) O.` 8XCXMXMXNX}.J.P.D.h a ~ a . # @ @ M F A N L U I I I U U U U U L L P H D S A S A A F c o k t Q.sXsX;X& . @ @ M D D S D I U U I I I U U @ & a a qXjXiXsXjXjXxXhXY . O > R $.R R R U R R A M M 0 @ . . s K.P.XXL., O o > T R U U R U R U P P P P M 9 0 0 6 6 4 @ . . . ] C.4.N.I.oXXXL.} k . O D I F H L P L P P P P I I I I I P I 9.9.9.0.0.0.9.9.a.Y t u u x D N L f.f.d.f.g.f.f.q.9.9.8.$.$.$.I i i x 0.$.$.$.I D D F Z M M 0 O X & X }.6X2X1X&X$X&XF.o . . @ 6 6 @ ; 8 6 8 0.g.f.d.J A D 7 O O G                                                                                                                                                                                                                                                                   ",
"                                                                                                                                                                                                                                                  | ] ] [ o.] ] { n p s p X X X X X o o & & X X j / / / o.4.2.3.F.F.G.G.B.B.V.B.h & * & . O O O @ 6 6 6 8 9 8 8 8 9 9 9 8 6 6 = O # + @ : p * v ] ~ ( }.:X*X*X*X X*X.Xm s | | N M M D 9.9.9.0.q.0.9.P l M M B / / h ^  XqX0X9X*X*XqX9X<.o.] ^ & & & & 7 0 0 0 J R I P I U I U U R R U I U I I I I F S A A A A M 4 1.K.K./.y.u.=.< 7 9 9 N D A A A I R R U H A D A @ : v v *XyXwX1X:X}..X.Xz # @ 7 $.8.R R R U R R D Z Z M @ . # o :.J.I.D.< O O ; I U I U U R U U I I I P A M N N M M 0 9 @ o @ d b b v ' { { ;.>.>.{ ' , 6 > l F F H L H P I I I I I I P I %.9.8.8.8.$.8.R $.K e u u V U I U q.q.0.0.0.0.q.0.9.9.9.U I U K e e i U I I U P Z A F M 9 9 8 b ] ] ] F.>XuXyX%XP.$XG.o # # > M 0 7 Z I P I $.9.9.$.9 = @                                                                                                                                                                                                                                                                           ",
"                                                                                                                                                                                                                                            6 . X O.V.m.4.k * p p & X X X . . . O @ @ @ . . . . & * * & j ) ~ ^ }.&XoX{.] _ [ } & O . . # + + @ @ 6 6 6 8 9 8 8 0 0 c c c 0 0 8 @ @ 1 @ # O . p j p f Z.U.(.J.uXsXdXuX4.} @.] > 6 > M q.0.9.0.0.9.9.F @ @ 2 f 4.>.} 3.gXxXCXrXS.(.U.,.k k X . . . . O M A A D T 9.$.$.R I I U R R R R I I U I I U F A D A D F q # F.>X3XF.O . + A D A S A A A A D R $.R R A 0 M c O s ) ) {.=X&X$XI.@.` } , 1 @ 9 $.8.R R R U U U J D A Z @ @ @ O k A.(.N.< O O @ I U I U R R R R U U U I F S A A D D A M 8 @ 6 + . O O . . X k m.Z.D.B.: . . 8 D D F F F P I I I I I I I I $.$.$.$.$.$.$.U R K e u u K 8.$.$.9.9.9.9.8.8.9.9.9.9.9.I Y I K e w y H P P I H M Z A 0 6 4 4 +.V.B.6.m.{.sXsX%XI.XXV.X O # 9 R I J R d.e.d.T P T P @ . O                                                                                                                                                                                                                                                                           ",
"                                                                                                                                                                                                                                            6 . & 2.4.,.4./ s h j & X X X . . . O @ @ # . . . . : p p & b ( ^ ( !.XXXXL.[ [ o.O.* O o . # @ @ @ 6 6 6 6 7 8 7 8 0 0 0 0 0 0 0 9 @ @ @ @ O # . s n s j D.P.U.I.yXuXuX6X,.} @.] @ @ 7 A q.0.9.0.0.0.9.F @ @ 2 z ,.>.O.3.gXxXNX9XM.J.I.C.~ ) * . . o O o 0 Z Z A I $.R R R I R R R R R R U U U I I I F D D D Z c B ' ;.;.,.` # 8 N A A A Z S A A A D R R R R A M Z Z + s ) ) }.<X&X&XXX4.O.>.z @ @ 7 R $.$.R U U U U F Z Z M @ @ ; O / J.(.B.= O O @ I U I U R R R R U U I I D Z Z Z Z Z Z M 8 7 6 6 @ @ @ . . & v 4.m.B.4.& . . 9 F F F F F J I I P I I I I U $.%.%.$.$.R $.R 9.K u i u V R I R 9.9.9.9.9.9.9.9.9.9.0.U P I K w w d H L I U P Z Z S 9 6 4 ; ..C.4.3.N.{.uXaX%XI.XXV.X . . 9 T I P $.q.0.0.P P R T @ . @                                                                                                                                                                                                                                                                           ",
"                                                                                                                                                                                                                                            O . o 2.B.N.B.) h b j & . X X . . . . o O . . . . . p a p & b ] n v K.oXXXK.[ { +.o.& # . . @ @ @ 1 6 6 6 6 8 8 7 9 0 0 0 0 0 0 0 9 @ @ 4 @ . . . j ) j v F.P.H.H.yXaXaXpX>.` @.) . O 2 Z d.d.a.a.q.0.0.P # . O : O.@.` >.cXMXCXrX(.K.`.C.~ ) * . O o O o 0 Z Z S I 8.R $.$.R R R R R R R U U I I I I D Z F D o o ;.M.O.k ` k . 0 D Z S A A S Z A A A T R R R D Z F F # p ) ! K.=X$X$XI.,.,.4.d O . > R $.R R U U U U A M M M ; @ 4 O ( K.J.B.= # O ; U U U U R R R R U U I I D Z S Z Z Z Z M 9 8 6 = @ @ O . . & n B.Z.Z.B.& . . 9 P F F F F W I I P P I I I U 8.9.%.$.$.$.%.8.s.#.u u e V R I R %.9.9.9.9.9.9.%.%.0.0.I L P N w w d P I I U P A Z Z 8 @ 1 + ] C.4.2.B.}.uXaX%XP.$XG.X . . 6 P P J 9.g.d.a.T I $.T O . @                                                                                                                                                                                                                                                                           ",
"                                                                                                                                                                                                                                            . . X ( { { +.n a s p X . . o M A A M 7 7 7 O O # @ & % & X s ( ;.6.L.P.P.G.k b m n * & : & o # o @ 8 8 7 7 0 0 9 9 0 0 0 0 M M M M 7 9 9 6 @ # # s ~ k ] 3.<.[ ] }.%X%X%X X X*X.X| n  . .A A A $.0.0.R 0 p j p =. X X X9XqXqXqXQ.o.+.2.( * p & o 9 0 9 9 A H J P I T T R P P R $.R R R R R R R R I I F Z F D 8 8 X.:.V C V C 8 M S Z S S A A L P P P T R R R P M q 0 =.D.Z.V.:X6X5XyX1XY.~ ( B 0 9 M R R R R R U U I L D D A 9 9 c 6 f n.n.O.= O O > I U I I U T R U I I U I D S S Z S S Z Z M M D N 0 9 8 o O @ g m / ( ) / / n B D F F J F J I I I P I I I U R R R I P I I K V V x f g N U I R $.$.$.$.$.R $.R U $.$.P H H N d d l H X.r.t.#.1 1 + + O O X 5.H.G.V.+.C.5XuX}.J.I.6.X . . 7 T T R P A A A 0 9 9 F                                                                                                                                                                                                                                                                                 ",
"                                                                                                                                                                                                                                            . . . s v v ~ a : * & . . . @ q.k.g.$.M M Z @ O @ 6 o . . . p ~ D.XXH.G.F.<.& & * * p a g a X . . o 9 9 8 8 c c 0 0 0 0 0 c A A A Z M M M l 7 6 ; p k v ;.<.( ^ ^ B.M.S.J.sXjXdXpXm.4.Z.<.O o o H $.$.J O _ ;._ !.dXsXmXAX!.(.U.[ r a a & . . @ 9 F F D D P U I U I P P P N Z R $.U R R $.R R R R R R F Z A D F F Z 0 Q Z Z Z S S A A S Z S D U $.R R I I U R $.0 O 4 /.3XoXoXuXdXjXjXxXE.. & Y $.U U U R R R R U I I I P P P Z Z D M o _ O.` & + # > P I P P I I I I I I I I D S A A A S Z Z S L 8.I D D D 6 @ 6 @ . . . & ;.4.,.m Q F F P P P P I P P P I I I I I I H S S D i u i D S M H I I U R R R U I I I I I I I F A A A M Z Z V <.6.G.6.X.n f < . . o C.P.L.L.) +.wXyXF.n.A.o.. . . 0 8.R 9.M . . . . . . W                                                                                                                                                                                                                                                                                 ",
"                                                                                                                                                                                                                                            . . X n ^ ~ ) a * * & . . . @ 0.g.d.T 0 c Z @ # @ @ o . . . s ^ G.XXJ.G.F.5.* * p p p p a p X . . O 6 7 7 9 0 0 0 0 0 c 0 0 N Z A Z 0 0 l 0 7 > ; b ( ) ;.2.( ^ / V.J.M.I.iXhXdXpXn.,.V.:.O @ @ H $.8.P O ) O.) R.uXiXCXGX}.U.P.2.a k h * . @ > 7 D A Z N P I I I P P P H M Z T $.U R R R R R R R R R F S A D D A D S Z S S Z Z A Z Z S S A D I U I I U T U U $.0 O 4 F.@XoXXXyXjXjXlXxXi.. : L R I I R R R R U I I I I P P P N M S 0 o } O.} < + @ 7 P P P J P I I I I I U U F S A A A Z Z Z Z A $.J N A D 8 6 8 6 . . . o { ;.O.b 0 F F P L P I P I I I I I I I P P L D F W k u t N M M J U U U R R R R I U I I I I I F D D A M N Z V >.B.B.K.,X$X}.X.. . X 7.L.J.F._ <.wXyX/.M.J.<.. . . 0 9.$.9.Z . . . . . . F                                                                                                                                                                                                                                                                                 ",
"                                                                                                                                                                                                                                            . . o n ) ~ ) a * * * X . . O q.k.f.T 0 M Z @ @ @ @ O . . . p k G.oXJ.D.H.5.* * p a r r p : . . . . 6 8 8 9 c M 0 0 0 0 0 0 N Z A Z M 0 0 9 7 > > m [ ^ o.N.} _ ] A.J.(.I.sXjXjXpXN.,.M.+.O O O F $.9.I O ~ o.k C.sXlXFXGX}.U.XX4.k ! ~ * . @ @ < A Z M M H I I I I P H M M M T R U R U R R R R $.R R F S D D A D D Z S A D S Z S S A S A A A I R R R R R R R R 9 O @ H.4X@XOXuXxXlXxXMXi.. . A R I T R R R R T I I I I I I I N 0 M 8 o o.,.o.< + @ < P I P F L I I I I U U U F Z S S Z Z M N M Z U F Z D F 9 6 8 ; . . . o { ;.;.b Q P F P J P I I I I I I I I I P P P D W W a e r M M M P $.U U $.$.R R I I U U I Y I H D F D M Z M V >.B.N.L.5X>X&X1.. . . 7.I.L.L.( 1.1X6X~.A.H.<.. . . M 0.8.0.0 . @ @ @ @ O E                                                                                                                                                                                                                                                                                 ",
"                                                                                                                                                                                                                                              . X s k h h * X X o N P H P R $.R Z @ ; 6 @ @ @ @ # . . . :.G.I.{.<.[ +./ X X X n { [ [ ] f : p p @ > = 6 M M c M N N M N A A A D H F J l o - , b / m n b p p g o.>.O.>.}. X X XI.I.I.F.C b n z 7 6 9 y.}.~.H.rXiXuXhXrX<.>.N.) * p : < 0 M M A P H D D P R R $.U H A M D H I R R R R R R U I I I I F A D D A A D D D D A A S S S A L I P P U U R R U U U I P Z 0 0 X.3.<.2.F.*XuXiXxX.X( ] Y I T R R R R R I P I I H F F F F A A N > f n j > @ @ 6 F F D A F H H H J L P J F F D F H F D D Z A P P P I U S M M 9 O . . X ~ _ ` C Z F F F F F F H J P P P L H D D D N z x x d r d D D F I $.U U I I I P P I I P H F H A Z A S M M M l g h s ' F.G.G.R.Q.Q.Q.C.B.B.B.B.H.%X&XB.o.O.n . . . @ 9 7 7 0                                                                                                                                                                                                                                                                                               ",
"                                                                                                                                                                                                                                              . . * p * * X . . . $.c.z.k.P D F 9 O @ @ @ @ @ @ . . . . G.#X{.I.( h v a . . . / B.6.6.7.] m / ~ o O . o M M M Z D D D D D D D F I I U M . = < @ @ = @ . . . . v ) ~ ) ,.n.>.V.$X$X&XI.X.X...d . . < *XyX<X3XgXyX4X4X(.k ~ ) p O + # 8 I P P P I P P P I %.%.9.R L H H I I P I $.R R R R R P Z D A A A A A S S D D D D A A D D A A I $.U U U U U U U I I P F D H J @ . . . ! J.2X,XhXpXOX#Xr.P U R R R R R I I I P D A A A P I P L M @ + @ @ @ @ 6 S A Z Z D D D D D D D A H L L P I I I P A Z J I I U $.P D A M @ O + o k ~ k C G D D D D D A D D D D D A A M M M z e u t z z N P P I U R R U H J J P P I I F D A A Z Z Z Z c 0 0 8 . . . & } [ _ }.aXaX7XF.o.2.2.I.XXXXXX{ h k p . . . . . . . R                                                                                                                                                                                                                                                                                               ",
"                                                                                                                                                                                                                                              8 6 : p * * X . . . T j.f.d.P F F 0 @ @ @ @ @ @ O . . . . C.#XP.P.] ~ ( k o o X n 4.5.<.<.( n ( ^ o . . O M M M Z F D D D D D D F P P I M o > < @ @ @ @ . . . X ~ _ ) _ B.B.4.V.#X#X#XH. .' X., . . * #X2X>X>XgXyX,X,XD.~ ) ` s # @ O 8 P J F H P P P P I $.%.9.R L L L L I P I $.$.$.R U U H Z A A D A A S S A D D D D D D D D D A I R I U U U R R I I I P H D H L > . . . } P.2X,XhXpX@X%Xr.P U R R R R R U I I I F A D D P P P H l @ @ @ @ @ @ 6 D D Z A D D F F D D A Z H H L P P P I P A A P I I U R F Z Z 0 @ @ @ < n ) ~ V D D D D D D D D D D D D D A M M Z z e e t z z B P I I U R R U P P L P I I I F D D D S Z Z Z c 0 0 9 . . . : ;.O.[ }.6X6X6XF.O.3.2.J.XX{.P.{ h v p . . . . . . . E                                                                                                                                                                                                                                                                                               ",
"                                                                                                                                                                                                                                                    X * p X . . . I z.g.d.P A F c @ @ 6 @ @ @ O . . . . V.$XXXXXo.~ _ n o o . v 3.2.2.2.( v / n O . . # Z D D D H F D D D D D F P L I M o > < = @ @ @ . . . X ^ _ ) ( 4.B.4.V.#X#X%XK. .] X.: . . & ~.3X=X=XlXiX,X5XJ.k ~ _ a O # O 7 P P F F I P I P U $.%.8.U H H L L P P I %.$.$.$.$.R P N A D A A Z A S Z A D D D D D D D D A I R U R R R U U I I I P H D H P > . . . } XX,X,XhXyX@X&Xr.E $.R R R R R I I I I F A A A P I I H 0 o . o @ @ @ > A A Z Z A D F F D A Z M D H H P I I I P D D I I I I R D M M 0 @ # @ > m ^ ~ V F F D D D D D D D D D D D A Z Z S z e e e z z B I I I U $.$.U J L P I I I I H D F F S Z Z Z M 0 M 9 . . . p ;.O.} }.aX7X7XF.o.<.O.F.I.I.K.[ h ~ p . . . . @ @ 6                                                                                                                                                                                                                                                                                                 ",
"                                                                                                                                                                                                                                                    . X & 7 Z l M I 9.9.$.M 8 0 8 @ 4 ; @ @ # # b ] ' ] D.I.I.L.^ a k a X X . s ] ] ] ] { ;.2.<.b g g g 9 9 0 M F D A A D F D D H H H A 9 c M 0 9 9 6 # o @ o p a p p ] { ] o.F.F.F.V.X...X.+.<.[ <.qXiXpXgXrX}.P.P.m.p * p < 7 8 7 A R R T T R R R T R %.$.$.U L P I I I I U $.$.$.R I I P Z D D A A A A Z A A A A A D D F L L H P I I U U U U I P H H H A A A D 8 @ ; ; n D.>XOX:X}.I.!.#.P U U R R R U I P I I F D A A P P I P c 6 > > @ @ @ 6 D D A A L P I P I P P H P I I U I P P P H H P I I I I F S A Z 7 6 8 6 g h k f M l Z F D D D A A D D D D A l l l z z z z x N H I I P I P P P J F L P P P P A M N N M M M M 0 9 0 8 @ o O o s s p 1.}.!.!.V.3.3.2.I.#XXX#Xo.v ) ] X. . .N                                                                                                                                                                                                                                                                                                       ",
"                                                                                                                                                                                                                      9 . @ 9 @ @ 9.                6 . . T c.g.g.R Z F D ; @ @ @ @ @ 1 @ # # . :.I.J.L.G.C.Z.B.p X & X . . . p k k j f 3.D.H.F.5.:.<.' . . . @ F D Z A F F H F F D D S F F F A Z Z M 6 6 7 @ . . . . h v k ^ o.o.o.+...1...J.oX).#XlXMXMXCX8X` O.O.} & . . 7 F F P $.a.0.9.9.%.%.$.$.%.$.%.%.R U U R R R R R $.$.$.I L P F S D A A A Z A S A A A A A F D P I I I I P P I I I I I F Z A S Z Z Z Z 9 8 0 0 @ <.XXI.,.} ;.;.#.I I I I I I I I P P P D A A A P I I P M M M N D D D H H H F F I U R $.8.$.$.$.$.%.9.9.I L L P I I I I I I I P H L H M 0 c 8 o a s d 6 @ 0 F D D D D D D D D D Z z d d B D D S H L P I I P H D D D F F F D D D D M 9 0 0 0 c M 0 6 7 8 6 4 @ @ O . . . * ~ k k 4.F.C.C.%X3X>X3X2.) ) V.wXwXwX                                                                                                                                                                                                                                                                                                        ",
"                                                                                                                                                                                                                      8 . X . . . O                 9 . . R z.f.g.T Z F D 6 @ @ @ @ @ 1 @ . . . [ J.J.D.Z.C.V.4.: . X X . . . s ~ n n k 5.D.F.D.2.:.<.' . . . @ D A Z Z F H H H F F D A F F F Z M M 0 6 6 6 @ . . . X v ) ~ _ 2.<.;.<.+.1.+.J.XXU.~.hXxXxXMX|.` @.>.O.& . . 6 D F P $.q.9.9.%.%.8.8.%.%.%.%.%.R R U R R R R R $.$.R I H L H D D D D A A A A A A A H P P H P I I I I I I I I P I I J D A A A Z Z N 9 6 8 9 ; ,.oXP.;.} >.>.#.I I I I I I I P P P P D A A A P I I I Z M M A w.w.w.$.H H F H U U U $.9.9.$.%.9.9.9.9.I L L P I I I I I I I P P P P M 0 c 8 & a h d 4 @ 0 F D S A S D D D A D Z z z z z F D S F P P P P P J F F D F F F D D D D M 0 0 0 c 0 l 0 6 6 8 6 @ @ @ @ . . . s ] ) ( B.F.Z.Z.&X3X>X>X2.) ) G.yXwXwX                                                                                                                                                                                                                                                                                                        ",
"                                                                                                                                                                                                                      @ . : X . . . . . . l.        6 . . R c.g.g.R Z F F 8 @ @ @ @ @ @ O . . . ] J.D.D.V.B.m.4.: . o X . . . s ) ~ n b 6.H.J.D.<.+.<./ . . . # Z Z Z Z D H H H J F F M M A A M 0 0 9 @ 6 6 @ . . . X ^ _ ( } 4.4.4.2...1...D.).U.P.gXxXxXMX8X} >.,.O.& . . 7 F H L R 0.9.9.%.%.$.%.8.%.%.8.%.R R R R R R R R R R R P L L H D D D D A A A A A A A L P P L J I I I I I I I I P P I H D D D A Z Z Z 9 6 8 8 ; 4.OXXX>.O.,.>.#.P P P I I I I P P P P F D D D P I I I Z M M A $.$.$.U H H F H U U U $.9.9.9.9.9.9.9.9.I L L L P I I I I I I P P P P M 0 0 0 < h h d 1 = 0 D A A A A A D D D D Z z z z z D D S H P I I I P F F F F F F F F D D F M 0 0 0 M M M 0 6 6 6 6 @ @ 4 @ . O . h o.[ } V.H.F.F.&X3X>X>X2.~ ) V.wXwXwX                                                                                                                                                                                                                                                                                                        ",
"                                                                                                                                                                                                                    F & * n 2.2.2.:.: & & J         1.:.<. .A Z A 9 @ 6 8 6 @ @ @ @ @ @ o p / ' 6.H.H.J.3.] o.[ & . . O @ @ @ : : g b b ..5.<.<.B.6.6.5.3.3.3.X.@ @ @ > N D D F S 0 7 d z l N A A D A 0 l M 0 @ @ @ = p p : s [ { ] ..3.5.;. XpXpXtX:X*X*XqXy.! } ( s 7 8 6 D $.R $.8.0.9.9.9.9.w.0.9.9.9.9.9.%.$.$.$.T I I I P P P F D F D D D D D A A A L P L P P P P P P P I I P P H H P I P H D A A D S S A A 9 > 6 6 O 6.=X=X4.p s m H H F H J P P P P P P P P P P P P L P L A N M A U R R U H H L P 8.8.$.$.$.$.$.$.$.$.$.$.I L L L H F F F F F F D F J P S M Z M 8 d , , d , l c 0 0 M Z Z Z Z N M M l l M N D A S D F F F F F D D D D D D D Z M M M 0 9 9 9 8 8 8 8 6 6 ; ; @ @ 6 4 @ ; @ < f p g F.$X#X#X~.K.H.H.( p s b | =.=.                                                                                                                                                                                                                                                                                                        ",
"                                                                                                                                                                                                            D O @ @ $ p p ~ J.U.L.D.n f n p . @ + m I.I.XX] . . . . . . . @ @ @ @ @ @ @ o s <.B.F.H.J.I.<.v ) ~ o . . @ 6 6 3 + . & j b / ' |  .C.V.C.G.{.XXXXY.. . . O N A A A 0 6 . g C < N J P P P F F F D 9 8 9 8 # . . X v ~ h ( B.,.>.qXMXMXzX~.S.J.U.O.k ! % . M F S R q.0.0.w.9.9.9.9.0.0.q.0.9.9.9.9.9.8.8.%.I P I P D F D A S S A D A D D D A D P I I I I I I I P P I P F D D A P P P D Z S A D D D D D 0 > 7 @ . 6.<X3X7.. O M H D D D D D D F H H L L I I U I F D D A A A Z A I R U U P H P P 9.9.9.$.$.R R R R R R U I P L L D D S S Z Z Z A D F F A D D A q 6 6 7 g g 7 0 8 > 0 Z M M M l 0 0 Z S Z S A A A A A D A D A Z S S S Z S S M 0 0 9 8 8 8 8 6 6 @ @ @ @ @ ; 4 1 1 6 8 8 q @ . . . F.>X&X&XF.4.4.4.g . . . . . . s.                                                                                                                                                                                                                                                                                                      ",
"                                                                                                                                                                                                            G O . . $ * & h G.D.D.V.v f n p . . . h L.J.L.' . . . . . . # @ @ @ @ > = @ o a o.,.D.L.L.I.2.) } _ & . . o 6 @ @ @ . * j j / ( ( ] 6.C.C.G.K.L.I.6.. . . O Z D D Z 8 @ . , C > Z P P P P A A D A 7 8 9 8 . . . X n / v ( 4.>.O.qXMXMXlX#XU.I.).2.k k X . M F A T 0.9.9.9.0.9.9.9.0.0.0.0.9.9.9.9.9.9.%.$.I P I I F F D A S S A Z S A D A D D P P P P I I I I P I I I F D D A P I P F D A D A D D D D 0 6 8 @ . 6.<X3X3.O 7 P H D F D D F F F H H L L I I I I F D A D A Z N A I U U U L H P I 0.9.8.8.$.$.$.$.$.R R U P L H H D A A A Z S S A D F D A Z A Z 8 6 6 , s g 7 0 9 > M A Z Z M l 0 c N Z Z A A A A A D D D D A A Z Z Z A A S M 0 0 0 9 8 8 8 6 6 6 6 ; @ 1 6 6 4 6 @ @ 1 6 @ . . o F.&X#X#XF.B.B.C.b . . Z   1 . s.                                                                                                                                                                                                                                                                                                      ",
"                                                                                                                                                                                                            s.X < : * r * h C.G.G.C.v j b p & X . m L.J.K.' o & o o o o & = @ @ @ @ ; @ * v <.4.D.H.F.H.:.~ _ ^ o . . # @ @ @ @ . p ~ n ' [ / / 6.6.6.G.I.I.I.C., , g g N H N N 7 < , z g > N P I U I F D F D 0 9 9 7 . . . X h n s ^ B.n.,.qXMXxXkX}.U.K.I.2.k v & o l D M P 9.$.9.9.w.0.0.w.0.0.q.0.9.9.9.9.9.%.%.R P J I P F D D D D A D A D D A A A D P P I I I I I P L P P P F F D D L P P D A S D D D D D F 0 6 8 @ . 6.>X>X3.. ; D H D F F D D D F H H H H P P I I D D D A A A Z A I I U I H H P P 9.9.$.$.R R R R R R U I P H H H D A A D S A S A A D F A Z A Z 8 6 6 , g g 7 0 9 > l Z Z M M 0 0 M N Z Z S Z Z S A D A D D A Z Z Z Z Z Z Z M 9 9 9 8 8 8 7 6 6 4 6 4 @ 6 6 6 > > @ @ @ 6 # . . o G.%X}.}.G.B.C.V.b . .       6                                                                                                                                                                                                                                                                                                         ",
"                                                                                                                                                                                                    b.G G F | ( ) ) o.o.{ { ( ( ' ( h h s ~ o.[ ] B.L.J.L.C.=.1...1.+.{ B.<.* : & . . X n } 4.Z.2.{ [ { s X X X @ @ @ @ @ @ @ @ . / 4.;.I.#Xm g ' ] ( <.oXoXXX{.:X;X1X*X( n m s $ R.;Xy.. 6 0 P $.R R $.$.$.$.P F F Z 6 @ ; @ . X . n P.I.U.;XuXuXyXB.O.O.O.} / / ( _ , O . 6 R R R 9.0.q.q.q.0.0.0.0.0.9.0.0.R P P L A N A A A A S H I I I I P P F A A D I R U U I P I P D A D A H P L P F D D D D A A D D D D D 0 6 7 @ . 1.#XP.D.g . @ A F F F A A A A A Z A H F D D F D D D A A A Z A L P P P D S D D P I I L D A A A L P L H F D D D A Z A A D A A N Z S A S A A S 0 9 9 9 9 9 9 0 9 > 6 6 6 7 l 9 0 0 M M M N M M N N Z M M M c 0 0 0 0 9 9 8 7 6 6 6 6 > 6 > 4 @ @ @ @ 4 4 6 > 6 @ 6 l M M > . . X G.#XP.#XC.o.>.4.f . .                                                                                                                                                                                                                                                                                                                 ",
"                                                                                                                                                                                                    9 . . . v [ ) ) ;.;.;.;.^ ^ ( ) k h p ~ o.o.O.Z.L.L.I.G.1.5.1.5.5.<.V.<.* p & . . . n _ o.5.+.[ ] _ p . . . @ @ @ @ @ @ @ @ . / B.>.{.&Xm p ( _ ) ;.&XOXXX#X5X5X6X1X_ v v h  .}.,XG.. 7 0 I %.R R %.%.%.R F F W D 8 7 7 6 . . . v ).I.U.>X6X6X1X4.} o.[ ( ~ / ( ] : . . > R R T 9.q.q.q.q.0.0.0.0.0.9.0.0.R P H H Z M Z Z Z Z Z H U U U I I I F S D D U $.R R I P I L S Z D A H P P P F D D D D D D D D D D D 0 6 6 @ . <.#XI.D.s . O A H H F D A A A S Z A L D Z Z D F A D D A A S D P P P P S Z A S D H F D A A S S L L H H D D D D Z A A A A S S Z Z S S A S S Z 0 0 0 0 9 9 0 0 9 7 = > > 7 0 9 9 0 M M M N M M M M Z M 0 0 0 0 9 9 9 8 8 8 6 4 6 6 > 6 6 > 1 @ @ @ @ @ 1 6 6 6 @ 6 M N Z > . . . G.>X&X1XG.O.>.,.f . .                                                                                                                                                                                                                                                                                                                 ",
"                                                                                                                                                                                                    @ . . . v } / ) ;.;.;.<.( ] ] ] v h p ~ ;.o.o.D.P.P.XXG.1.5.1.1.+...6.{ . X . . . . h ] ( } +.o.{ o.s . . . # @ @ @ @ @ @ + . h ,.O.XX>Xm & ] [ ( >.&XOXoX&X,X5X5XwX! t % t H.%X3XT.. 8 M I 8.R R %.R R R D D F Z 6 7 9 6 . . . s U.U.(.=X7X7X6XC.O.;.O.} b n v v X . . 4 9.$.R a.d.q.d.q.0.0.0.0.0.9.0.0.R P P L N M N N N Z M F I I I I I I F Z Z A R %.$.R I I I P A A A A H P P P F D D D D D D D D D D A 9 @ 6 @ . <.$XXXD.& . O A P H H S S S A A Z D P D A A D D A D A D D D D P I I P Z Z Z Z A A D A D A S S L L L H F D F D Z A A A D S S Z Z A A A Z A Z 0 9 9 9 0 0 0 0 0 9 7 7 9 0 0 9 9 0 Z Z Z N N Z Z S S N c M c 0 0 0 0 9 9 9 6 6 6 6 6 6 6 4 @ @ @ @ @ @ @ @ @ @ O ; A D D > . . . !.6XuXaXG.O.,.N.h . . s.                                                                                                                                                                                                                                                                                                              ",
"                                                                                                                                                                                                      l.v.l.z : : p o.;.;.{ j k v h p & o : v s s [ ;.;.2.+.] ]  .<.B.6.V.G.3.<.6.p.p.6.( ) } } v s s g & . . # @ @ 1 6 6 > @ o  .V.K.H.G.6.: X n ^ n ( V.G.C.G.%X&X&X*XQ.R.T.Q.%X&X3XY.. @ > P 9.R R R R R R P P P H 0 9 6 > m ^ v 3.1X:X:X%X{.}.}.o.) } _ [ { ] ] ;.] / ' n #.*.#.H T 8.8.8.0.0.0.w.0.w.0.0.$.L D D D D F F F F D P R R R I P F D D D F I I I P L F H F A A D D F F F F F D D D D D D D F F F A 9 > > @ . { I.K.J.' O + H I P H F D D A S Z A F A A A D D S A D D D D D F F F F Z Z Z Z Z Z A A A A A A D F D D D D A D A A A A A A A S Z S A S Z Z Z 0 0 9 9 0 0 0 0 0 0 0 0 l M 0 0 0 c c c M 0 0 0 0 0 0 0 9 9 9 7 7 8 8 6 6 6 > @ ; 6 6 ; 6 ; > > @ 6 0 0 0 M A A D M 7 8 9 g h s s }.5X5X5XC.) [ { p . @                                                                                                                                                                                                                                                                                                                 ",
"                                                                                                                                                                                                            E . . X [ ;.o.] * * p * . . . . . . . $ p p p k n k f 5.H.F.G.#X>X&X<X5X5X5X<.v ] ] * . . . . . @ @ @ > 6 6 8 9 6 > !.&X&X&X;.r . . a h a s ^ ^ n ] L.I.I.{.sXaXuXhX<X&X=X<.. . . D 9.R R R R R R R R R I Z 0 O & B.Z.n.|.jXdXdX X@.N.>.k h k h o.V.4.4.H.K.K.XXN.k ( ^ & Z I P T 0.0.0.0.0.0.0.0.8.D M M P I P P P P L R 9.9.$.P D Z J P P I D D F D A S S S A A A D D A D D D D D D D D S D L P H D 0 6 8 6 . ( A.M.I.G.@ 2 P U L F H H H A Z A A S A D A Z Z S A S A D A D Z Z Z Z Z N Z Z Z A Z A D D A A Z Z Z Z Z Z Z A S S A A S D F S Z Z Z Z Z Z Z 0 0 9 9 0 0 0 0 0 c M M M M 0 0 c 0 9 9 9 8 6 6 6 6 6 6 6 6 > 6 ; 4 6 3 4 @ @ @ @ ; 6 4 6 @ 6 6 4 8 P I F I 9.0.d.I # # O b +.[ [ }.<X&X=X1.a n n & . G                                                                                                                                                                                                                                                                                                                 ",
"                                                                                                                                                                                                            E . . & o.;.o.] * * : * . . . . . . . : h h s n n k s 3.H.F.D.#X>X&X>X2X,X,X:.k ( _ : . . . . . @ @ @ 6 6 6 8 9 8 > !.&X&X&X,.h . . a j a h } [ _ o.I.).P.#XuX6X6XiX&XXXOX2.. . . A 9.R R R R R R R $.R I N 9 O & >.m.>.!.jXdXdX X,.m.,.k s k h o.C.5.4.H.K.K.P.,.k ) k o Q T P T 0.0.0.0.0.0.0.0.$.Z M M P I P P H L H R 9.9.$.P F A P P P I D D D D D A A A D D A A D A D D D F D D D D S S H P H A 0 8 0 8 # [ J.M.I.C.@ 2 P R P F H H H A Z A A A A D A Z Z S S A A A A A A Z Z Z Z N Z N Z S A A D D A A A A A Z Z Z A A S S S A Z D F Z Z Z Z Z Z Z N 0 0 9 0 0 0 0 0 0 c M M M M M l c 0 9 9 9 8 6 7 7 6 6 6 6 6 > 6 4 4 6 6 > 6 @ @ @ ; ; @ @ @ @ @ ; 8 P I H I 0.0.a.I + @ + f ] _ _ }.3X&X=X1.a v n X . W                                                                                                                                                                                                                                                                                                                 ",
"                                                                                                                                                                                                            s.. . & { ;.o.] * & * & . . . . . . . : s s a h j s a 5.H.F.D.%X>X&X=X1X,X1X+.k _ ` : . . . . . # @ ; 6 6 6 7 9 6 @ F.&X$X&X2.a . . a j a n { o.[ <.I.XXP.{.5X6X6XuX&X+XOX3.. . . N $.R T R R $.$.R R R I A 0 . & ;.,.@./.jXhXjX Xn.m.4.h p j h [ B.5.5.H.I.I.XX,.a ! k o c I P T 0.0.9.9.w.0.9.0.R Z c M P I P P H H H T 9.9.$.P F D P I I I A A A D D A A S A S A A A A D D D D D D D D D D F H F A 0 0 0 0 # ] J.Z.K.3.O + P I H D H H H A N S A A A A A S S S Z A S S A A A A Z Z N M M M Z S S A D D A A A A A Z A S A A S A Z S S F H A N Z Z N N N N 0 0 9 0 0 0 0 0 0 c M M M M M M c 0 9 9 9 7 6 6 7 6 6 6 6 6 > > ; 4 4 = 6 6 @ ; > 6 ; @ @ @ @ @ @ 6 F P P R a.0.a.J # O # s ( ( ) !.>X&X&X1.a v ^ l Z s.                                                                                                                                                                                                                                                                                                                ",
"                                                                                                                                                                                                              6 . o ) _ ( v X . . . @ 8 9 0 l 0 9 o o X X X o X X b [ [ { <.5.<.B.K.H.H. X X*X:XG.<.2.4.m X & @ = 6 6 6 9 8 ; B 4.' m ' z > @ @ o o o & p p d j ;.;.o.o.F.K.F.~.bXAXAX0Xa s s N I P I T U R U P L P H V b : b K.P.I.}.*X*X:XG.O.O.o.a X X X f ] ] ] 6.P.{.P.}.}.~.~.R.X. .=.X.M M A P 0.0.$.R R T I P P P L P R T I R $.$.$.I P P P I I P D Z A S Z S S A A D A A A A D D F H L L D D D D P P P H N M Z c # ~ ,.O.B.2.N 0 P I P H D D D H L P P P P P J P F D D D J P P P A A A A J H F H H H H H A S S A A A A A S A D D S S A Z Z A A M c c c 0 0 M 0 8 8 8 7 6 6 8 8 7 9 M M N 0 7 7 7 7 6 6 6 > 6 6 6 6 6 1 @ ; @ @ > = ; 6 6 6 3 = 6 6 9 M 0 9 D P P P F J I F 9 9 9 = . . . / B.6.4.H.P.P.{.' X & <                                                                                                                                                                                                                                                                                                                       ",
"                                                                                                                                                                                                              A . @ v ~ ~ k . . . . 8 M Z D P P F o . . . . . . . : ~ v v ~ n j ' B.4.,.5XaXaXaX&XI.I.).{ . & & > 6 4 6 9 8 6 V ;.X . . # 4 1 @ + + + + O . . o ~ ~ k v 4.B.@.m.fXBXBX9X) ) / V F J P I I U I D D F D n ~ h ] &X&X&X#XU.I.).n.] [ ( & . . . * ~ ^ ^ O.#X#X{.;X5X2X,X3X4.[ 3.{ X + 7 A 0.q.$.I $.9.9.w.U L L P %.%.$.R R $.R I I I P P P J Z Z S Z Z Z S D D D A A D D D D H I I I F D D D P I I I A M Z c # j O.` O.<.Y D P I I P D A A H I I I U U I I I P H H H I I T I F F D F U U I I P L P H A S S S A A S A Z Z A A S A D Z Z Z Z l 0 0 0 0 0 0 9 8 6 6 6 ; 6 6 6 6 7 9 9 9 8 6 6 ; > @ @ @ ; 6 6 > 6 6 > ; ; @ @ @ @ ; 6 6 > 6 6 6 6 Z P F D w.d.d.w.F H T Z . . . . . . . X.H.F.G.F.H.J.L.m . . #                                                                                                                                                                                                                                                                                                                       ",
"                                                                                                                                                                                                              A . o v ) ) v X . . . 7 0 0 Z F F F @ . . . . . . . p ( ) ) ^ ^ n { G.V.m.1XuXuXuX%XJ.H.J.' . X o = 6 1 6 9 9 9 | o.& . . @ @ @ @ @ @ @ @ X . . o ( ( ~ ~ B.V.B.A.+X+XoXF.~ ~ n V J P I I I I P D A D H m v h _ oX&X$X#XI.I.).B.} O._ X . . . : ( ( ( >.XX#X{.&X2X>X3X>X4.} >.[ . @ 7 D q.d.9.R 9.9.0.0.U P P P $.$.$.$.$.$.R P I I P H H F Z Z Z Z Z Z Z D D D D D D F D D P I P P D A A A P I I T D c M 9 . h O.O.v z D D P P P L D D A H I I I I I I I I L H H H I I I I P P P P U R R U P L L H A Z A A Z S A S A Z A A A A D Z Z Z Z M 0 0 0 0 0 0 0 7 6 6 > 6 6 6 6 6 6 1 6 > > 6 6 6 6 4 @ > @ @ @ 1 @ ; 4 6 > > @ @ @ @ = 6 = ; > 6 6 Z P F F 9.q.0.%.F H I A . O X . . . . ] F.Z.G.L.I.I.P.' . . O                                                                                                                                                                                                                                                                                                                       ",
"                                                                                                                                                                                                              A . o v ) ( n X . . . 6 8 8 M D W F @ . . . . . . . a _ ) ^ v m n ..F.A.Z.1XaXuXaX%XD.D.J.( . o o o @ @ ; 0 l M | ' o . . o @ @ @ @ @ @ @ X . . o ^ ( v ~ B.Z.V.D.XXXXXXZ.h k ~ V I I T U I I P A Z D V n k k } oX@XoXXXI.I.P.4._ O._ & . . . : ] ] _ ,.#X#X{.:X,X>X3X<X,.` >.` X # 6 A d.d.0.%.9.9.9.9.U P P P %.$.$.$.$.%.R P P I H F H F A Z Z Z M N Z D D D F D D D D D J I I P D S S S P I I R F M M 9 . s O.O.p + S F P P P P D D A H P I I I I I I I P P P P I I I I I I I I R $.$.R P P L H A Z Z Z A D A S Z Z A A D D D A Z Z Z c 0 0 0 0 0 0 0 6 6 6 6 6 6 6 6 6 6 4 ; 6 > 6 6 6 6 1 6 > 1 > > @ = 6 > 6 6 @ @ @ @ @ @ @ @ @ @ 4 1 M P F P 0.d.q.9.H D I N @ . . X . . . ] G.V.Z.L.}.P.XX] . . .                                                                                                                                                                                                                                                                                                                       ",
"                                                                                                                                                                                                              F . . p h a p 9 9 7 8 P T T D 9 c M 6 @ @ @ @ O O O & * * : o.+.( ( [ [ [ 6.G.G.}.}.J.}.1X*X.X.X.X=. ...V @ 6 8 7 z 7 @ @ 6 9 9 9 8 8 9 8 @ @ O o * : & * ] o.] 3.;X<X<X}.B.V.G. .6 8 0 P P H D 7 > @ 7 <.B.,.G.pXiXpX*X>.N.N.2.+.,.2., + @ + & : p * ~ B.4.<.C.{.XX{.;XqXqXqX9X..( X.1.V M A A D P $.9.$.R R $.%.8.%.$.T P P P P P F A A D S S S Z Z Z S D H P P F F F D D J J F F A Z Z Z P I I P A N Z M O X p p z Z F F F F A F P I I I I P P P F F D A P P P P F F H F F F D F F P P J D A A A M M M M 0 M M 0 0 0 0 0 M M M 0 0 0 0 8 7 8 7 7 7 7 7 6 6 6 > 4 6 6 6 6 6 6 6 = 6 6 6 6 6 6 6 > 4 6 6 @ ; 6 > 6 6 6 7 9 9 0 M M M D P I I J D F P N 0 0 9 > @ 6       A & m b a V.:X&X*XG.4.C.V.v . . O                                                                                                                                                                                                                                                                                                                       ",
"                                                                                                                                                                                                                . . % * . # D F M A 0.0.a.P @ 6 8 6 > ; @ @ @ @ @ # . . o n.n.v s ~ v k ~ ~ ~ D.I.H.*XaX7X7X7X6XR.,.V.1.# @ @ O 8 9 8 6 0 M M M 0 c M 0 6 @ @ @ . . . . h ^ h ..yXuX6X=XI.XXXX' O # o D J F A @ O . & B.F.Z.K.lXxXxXqX` o.o.;.4.m.4.d @ ; > @ . O . : } ( ~ _ D.L.J.&XjXxXxXhXD.n.Z.Z.g . > 7 9 M $.w.9.9.9.9.9.9.8.R P D D P P I F Z S A D D Z S A D A A P I P F H P H L P D A A D D A A I R P F Z Z Z S @ . . . l P F D A A N A R R $.R I P P P A Z M M P I P P S Z N N Z Z Z Z Z S Z Z Z Z Z M c 0 c c 9 9 9 9 9 8 8 8 9 9 9 8 7 7 7 > @ 1 @ ; ; 4 6 4 @ @ @ ; 6 6 6 6 6 6 6 > > ; ; 6 ; 6 4 ; > ; 4 > 6 6 > 6 6 6 9 M M D I I P $.d.d.f.T Z F P @ . . . . . .         $ ..[ ^ !.6X6X6XC._ o.o.p . . +                                                                                                                                                                                                                                                                                                                       ",
"                                                                                                                                                                                                              6 . . & X . # M Z l N 9.9.0.F @ 6 8 > @ @ @ @ @ @ @ O . . & m.,.& * ( ) v ( ] _ F.I.H.%XaX6X6X6X5XC.2.B...# # O . > 7 6 6 0 M M M 0 0 0 9 4 @ @ @ . . . . n ( ~ +.2X6X6X&XI.P.P./ . # @ F P J F 6 @ O & 3.V.n.F.sXjXjXqXO.O.O.>.4.B.,.< + @ @ @ . . . p [ ] ( [ H.I.U.:XjXhXjXpXV.,.m.m.f O 4 < 0 N R 9.%.9.9.9.9.9.8.R P D F P I P D Z D A D D A A A A A D P I P H U $.R U I D D D P P P P I I P F A Z S A @ . . . l P D D A A Z D I U R R I P P L A Z Z N H I I P A A N A A A Z Z S A A S S Z Z Z M M M M 9 9 9 9 0 9 9 9 9 9 9 8 8 8 8 6 > @ > 6 6 4 6 6 4 @ @ @ @ ; 6 > 6 6 > > 6 @ 6 6 > > > > 6 ; @ > 6 6 6 6 6 6 9 M M D P P D R 0.w.q.P M F P > . O . . . O       v.X ] ] ~ !.5X5X,XC._ o.o.p . . .                                                                                                                                                                                                                                                                                                                       ",
"                                                                                                                                                                                                              s.. . . . . o M D N A 0.0.a.F @ 6 6 @ @ @ @ @ @ @ @ O . . : M.>.. & / ^ k / ( ( F.I.J.%XsXuX6X6XyXV.O.B.{ O O . . @ 6 6 6 c N M M 0 9 0 9 @ @ @ O . . . . n ] ~ +.1X6X6X>XP.XX{.m . . @ F I I P 8 ; O & ,.V.,.G.iXjXxXtXO.>.2.,.n.m.>.: . # @ @ . . . : [ ] ( { K.P.I.&XhXjXjXpXV.,.m.M.s O @ @ 8 Z R 9.9.9.9.9.9.9.8.R I D F I I I F S D D D A S Z D D D F P I P L R w.$.R P D D D P U I I I U P D S M Z Z @ . . . 0 F A A N M N D R R R R I I P P A N N N H P I I A A N A A Z Z N S A A S A Z S Z M M M M 9 9 9 0 0 9 9 9 9 9 9 8 8 8 8 6 6 ; @ 4 4 @ 6 6 6 6 = @ 3 6 6 > 6 > 1 > 6 @ 6 6 ; @ @ 6 @ @ @ @ @ @ 6 > @ @ 8 M Z D T I F R e.d.g.T M D F @ O @ @ @ @ @       E o ' ] ! !.uX5X5X6.^ [ [ : O Z                                                                                                                                                                                                                                                                                                                         ",
"                                                                                                                                                                                                                > . . . . 0 d.d.g.a.A M M 8 @ @ @ @ @ @ @ @ 4 4 4 > > > , n g @ o & & & & * s ( ) ~ ] 3.R.~.K./.eXbXbXfX}.}.}.|.B O o @ 0 M c M A A A A M 0 9 7 @ . . . p f d n L.I.L.{.&XOXoX{ & p , > ; 6 6 z j : m #X&X&X%X}.}.%X!.{ o.[ Z.L.D.H.*X.X' <. .@ ; @ @ * * & v O.;.>.4.K.}.K.}.tXtXtXgXqX}.}.}.1.m  . .N J P I 9.9.%.I P P H D D F J P P P P J L P H H H P I U I I R $.R R H Z D D P R I I P H H F A M Z Z 9 9 9 8 M A A A 0 0 0 N J H H A M 0 9 7 0 0 0 0 M M M M M M M M M M M 0 0 0 0 9 8 8 8 8 6 8 7 7 6 6 6 6 6 6 6 6 6 6 6 3 6 6 6 6 6 @ @ @ 1 1 6 6 6 6 > @ @ @ @ @ @ > > > 6 ; > @ @ 6 7 7 9 M M M P T I U T I P P T P M 0 9 9 M N D 9 o o >                     Q p C.C.B.!.&X&X%X..a n n X 0                                                                                                                                                                                                                                                                                                                           ",
"                                                                                                                                                                                                        l.      Q . . . . 0 g.g.k.g.M 9 9 > @ @ @ @ @ @ @ 4 @ ; 4 6 9 7 7 # O # O . . . . . * v h a h k 2.A.m.m.cXCXCXmX2X2X,X3Xm . . o 0 M 0 M D F F F A N M 0 @ . . o : g - k Z.A.m.K.&X&X&X<.r s p . . # @ f ~ h ] :X2X2X:XH.D.J.Z.] ] _ F.I.H.K.iXqX>.V...4 4 ; @ . . . s } ` ` } m.A.n.F.hXxXxXCXkX2X2X,XZ.) } ( X 9 D J 9.%.$.I H P H A A D H I P P P P P P P P P P I U R U U R I I D N A S I R R U F A F F A Z N M M M Z M N A A Z 0 9 0 M A A F N 9 4 @ @ 8 0 0 9 9 0 0 0 0 0 0 0 0 0 0 0 9 9 8 8 6 6 6 6 1 6 6 > @ 1 @ > @ @ @ 6 @ @ @ @ = 6 6 6 4 @ @ @ @ @ @ 6 4 6 6 @ @ o @ @ @ > > > 6 6 6 = = 8 7 9 M F F F 8.q.9.0.0.0.R I $.I ; @ o . . . . . . . 8                 . . . b H.H.F.K.XXXXP.] p h s X 7                                                                                                                                                                                                                                                                                                                           ",
"                                                                                                                                                                                                      6 . .     @ . . . . 9 g.f.j.f.Z 0 c 7 @ @ @ @ @ @ @ @ @ @ ; 6 7 7 > o O # O . . . . . : ^ v h ~ ` N.H.Z.A.cXNXNXmX1X<X>X=Xb . . . 9 Q 0 c F P J F N M c 0 @ . . o d g & k D.H.Z.K.$X$X&X<.r a p . . o @ p j s ( &X1X<X&XK.H.K.V._ ] _ F.I.J.I.gXqX>.B.' + @ @ o . . . v O.o.} o.A.H.A.K.hXxXMXZXlX>X3X3Xn.! ` ~ . 5 G F 0.9.$.I H P H S A D P I P P P P P P P P P P U R R R P J H F A Z Z Z P $.R R H D D D A N N Z M M M M N A A N 0 9 9 0 A F F A 9 6 @ @ 9 0 0 0 0 0 0 0 0 0 0 0 0 0 0 0 9 9 8 9 7 6 6 6 6 6 6 6 @ 3 = > 1 > 6 ; ; @ @ @ 1 6 6 @ @ @ @ O . O o @ 6 6 6 @ @ @ @ @ @ @ @ @ > = > @ @ 6 7 8 M F D D $.0.$.8.0.9.U I $.I 6 @ @ . . . . O 8 6                   @ . . j F.F.A.I.oXoXXX{ a h s X . 6 l                                                                                                                                                                                                                                                                                                                       ",
"                                                                                                                                                                                                      @ . o Z q O O @ @ O 0 d.q.f.a.Z 0 0 8 @ @ @ @ @ @ @ @ @ @ @ > 7 6 @ . O o O . . . . . : n h s h ~ 2.A.N.V.fXnXBXcX<X<X2X3X' = , < l N M M F F D Z M M M 0 @ . O o p h a b V.V.N.H.$X#X$X<.a h a . . . O p v h } ;XwX2X;XH.F.H.B./ / ^ B.H.J.I.iX;XB.G.] O @ @ @ . O . h o.} ( _ B.A.V.H.pXlXlXBXgX4X3X3XZ._ +..., 7 H H $.R T J F P P F F F P I P P P P P I P P P I R R R $.J Z A Z Z Z Z Z P R R R H A D A Z Z N N M M M M N A A N 0 0 9 0 N A D N 9 6 @ @ 9 0 9 9 9 0 0 0 9 0 0 0 0 0 0 0 9 8 8 7 6 6 6 6 6 6 6 > @ ; ; 3 3 6 @ @ @ @ @ @ @ 6 6 @ @ @ @ O . O o ; 6 6 6 > @ @ @ @ @ ; 6 6 8 8 8 6 6 8 9 9 M F F F R 8.R $.%.$.P J R D . @ o @ 0 7 @                         + . . h D.F.Z.L.XXXXXXo.h k h & X . .                                                                                                                                                                                                                                                                                                                       ",
"                                                                                                                                                                                              0 A 0 < p p p X . . @ 0.g.q.$.l 0 N N 8 6 6 6 @ @ @ @ @ @ @ @ @ @ > 6 > > @ @ @ @ @ @ @ @ @ @ o X X X X X p k +.4.5.6.6.F.XX).bXDXtXqXtXtXT.o.2...7 4 @ > D F D A 9 @ @ @ & ,.D.<./ / v <.L.H.H.<./ ] ] & . . & ;.B.,.G.gXzXzXtX2.o.<.o.] p X p n h ( J.XXpXiXQ.2 9 0 0 3 6 6 > & & o o ~ ] _ o.V.F.Z.B.}.,X>X4XbXIXIXIX|.M.K.Y.= @ @ 9 D F P 8.9.8.R P P P I I P I $.$.$.R R R R I P A D F D Z Z Z D J F H D S Z Z N Z Z N M 0 0 0 0 0 0 0 M M M 0 7 7 7 7 6 6 6 6 6 6 6 6 6 6 6 6 6 6 > ; 6 6 6 6 6 6 6 6 = @ @ @ @ @ @ @ @ @ @ @ 6 6 1 1 ; @ @ @ O o o @ @ @ @ @ 6 4 6 7 6 6 7 0 0 0 0 0 0 D H P I 9.9.9.9.$.$.%.T F P P 0 @ @ @ @ @ @ @ @ Z s.                                  s.p g & ] $XXX&XG.( [ { [ [ ' +.6.<.& . Z                                                                                                                                                                                                                                                                                                                     ",
"                                                                                                                                                                              O . G         W . . . & h h a X . . @ k.c.z.q.9 7 9 9 @ 1 > 1 6 ; @ @ @ @ @ @ @ = 3 6 6 > > @ @ @ @ @ 4 4 @ @ # . . . . . X : [ 4.} } ) 4.).U.bXJXjXaXjXjXR.@.N.;.< # . @ F J F F M @ > @ & m.L.4.j j h { F.G.G.;._ o...& . . & 4.Z.m.H.cXMXMXgX<.[ { o.{ * . X : * h n.{.sXdX.X@ 9 N M 6 8 7 @ . O . . j _ ( } >.,.@.} K.,X4X4XAXKXKXJXrXU.XXF.. . . 8 H D I 0.0.0.R P P P I I I I $.9.9.$.T T I P P H H L D Z Z A D D D D A Z Z Z N N Z Z M 0 0 0 0 9 9 0 M M M 0 @ @ > 6 6 6 > 6 6 @ @ > 1 @ @ @ @ @ @ @ @ 1 1 @ 1 ; > 1 @ @ @ @ @ @ ; ; @ @ @ 1 6 4 6 > @ @ @ o . . . @ @ @ @ 6 6 6 6 7 7 6 8 M M M Z M Z P P P R d.f.d.f.a.q.q.R D P P > . . . . . . . .                                 s.@ O X n b p { OXOX=XC.s v ^ [ +.] 2.L.V.& . 9                                                                                                                                                                                                                                                                                                                     ",
"                                                                                                                                                                              O O . @ Q 0 4 . . . . & h a p . . . @ g.c.k.d.l 9 0 0 @ @ > 3 ; 3 4 1 @ @ @ @ @ @ 6 6 > ; ; @ @ 6 @ @ @ @ @ @ @ @ # . . . & p o.m.<.O.[ B.).U.bXJXjXsXjXjXG.` @.` O . . # F P P P Z ; > + & m.U.,.n n k ..F.F.H.2.} O.+.& . . o @.n.@.Z.hXMXMXcX3.O.2.<.) & . X : : n Z.%XsXdX.XO 5 S N > > @ O . . . . v o.} O.N.N.>.} I.,X,X,XAXKXKXKX*X(.U.B.. . . 6 F F I d.a.a.R P P P I I I I 9.0.0.8.P H H I P P P P D Z S S D D A D A S Z Z Z Z Z Z M 0 0 0 0 0 0 0 N N M 0 > > 6 @ @ @ @ 6 6 6 6 6 6 1 @ @ @ @ @ @ @ 6 6 4 3 @ 1 6 ; @ @ @ @ @ = 6 6 > 4 @ @ @ ; 6 @ @ @ o . . . # # @ @ 6 6 6 > 7 7 > 7 M M N D A D I I P I a.f.f.g.d.d.d.$.D P I @ . . . . . O O @                                 W . O = k j % ] >X&X>XV.h ~ / { O.o.6.L.C.& . 6                                                                                                                                                                                                                                                                                                                     ",
"                                                                                                                                                                              X & o X X X X X X X o & p r * < 7 7 l a.g.g.0.0 8 9 7 @ @ 6 6 3 4 4 6 6 6 6 6 7 8 7 7 6 6 7 7 6 7 6 6 4 > @ @ @ 6 @ o O . o : / [ ( ) n o.F.Z.0XvXpXpXpXpX XR./.T.m s b f M N S F Z 7 8 4 o { <.' k b j ] V.V.G.+.) _ _ a : & p R.}.!.}.tXfXpXqXo.[ { ( p o . o o & z { G.qX:Xi.z V N M 8 8 8 @ O # # # j / ~ _ >.O.} _ F.#X#X#XbXGXVXVXrX}.%X!.m V  .V  .#.#.R T T I I I I I I I I $.$.9.$.H D F P P P P I F Z Z Z A A A A Z M N M M M M M c 0 0 0 9 9 9 9 M M 0 9 ; = 6 @ o @ > 6 6 6 6 6 6 6 @ @ @ @ @ @ @ = 6 6 6 6 6 6 @ @ @ @ @ @ 4 3 4 6 @ @ @ @ 1 6 6 7 7 ; @ @ # @ 6 7 9 9 8 7 6 > @ @ @ 9 9 0 Z M N F F A D R R %.9.R R R F 0 M D F                                                 W . @ g o.[ ) <.{.}.#X7.p s k / ] ( { G.C.g & X . .                                                                                                                                                                                                                                                                                                                 ",
"                                                                                                                                                                    l.A G D ^ ^ / p g m n m f p s f * . . . I g.f.d.T P T J 6 @ @ @ @ @ @ @ 4 3 @ 8 0 0 9 9 9 9 9 0 0 c M 0 0 0 9 9 9 9 ; @ @ 4 6 6 6 @ O . . X $ $ . a ] _ ( ` K.).I.I.gXmXzXhX}.H.P.C.X # & < M M 0 0 @ O . X f j s n ..+.<.m p p a ] +.( [ fXjXjXiXF.B.D.B.k v p o > > @ @ @ > @ o o a a ] H.K./ @ D D A 0 6 9 9 8 o o o & v k s ^ _ ) ( _ J.$X).I.fXNXMXlX>XpXcX|.,.V.1.@ @ o Z R R R P P I I P H P H A A Z Z D H H L A c M M M Z N N 0 0 0 0 0 0 0 0 0 0 0 9 6 ; > 6 8 7 6 @ @ @ @ . O 6 7 7 8 8 8 7 6 6 3 3 @ @ @ @ @ @ 3 @ @ @ > 4 6 6 @ @ @ > > 6 6 4 6 ; > @ > 6 9 0 0 M Z M 0 J I I R Z 9 0 9 O . . . . . O o o o @ @ O O o # @ @ @ O O O . . 9                                                   E % p +.XXI.P.F.o.+.<.n . X $ $ X X X ^ ;.[ ..m * X                                                                                                                                                                                                                                                                                                                 ",
"                                                                                                                                                                    R . . X ~ ( ^ a a n n / n h k k * . . . T j.g.d.P D P F 6 @ @ @ @ @ @ @ @ 3 ; 8 0 0 0 0 9 9 9 0 c c M 0 0 0 0 9 9 9 1 @ @ @ 6 6 6 6 O . . . X X . a ] _ ( } K.).U.U.gXMXxXjX#XU.).V.. X & < M M 0 8 @ # . . f j s / 1.1.<.n * * p ] o.` O.gXxXxXsXF.n.A.B.h h % O 4 > @ > > > @ . . & * [ I.P.] # F A A 0 6 9 0 9 @ @ O X h h a ) } ) _ _ J.+X_.U.pXNXMXzX5XsXMX Xn.D.:.O O . M $.R R I P I I H F D D A Z Z Z D H H L Z c c 0 M N M N 0 0 0 0 0 9 9 9 0 0 0 9 6 @ > 6 6 6 6 @ @ @ @ . O 6 7 6 8 8 8 8 6 6 6 6 @ @ @ @ @ @ @ @ @ @ = 1 1 4 @ 1 @ 6 6 6 > @ @ @ @ @ > 6 9 0 0 N A Z M P U R R Z 0 0 9 . . . . . . . X X O @ O O . . . . . . . . . . . 6                                                   z a a o.oX).XXH.{ { o.v . X X X . . . n O.o.<.) a $                                                                                                                                                                                                                                                                                                                 ",
"                                                                                                                                                                    s.. . o ~ ) ~ * : b b m b h n n * . . . T j.f.d.P F P F 6 @ @ @ @ @ @ @ @ 1 @ 8 0 0 0 0 9 9 0 0 c 0 0 0 0 0 9 9 9 8 @ @ @ @ 3 6 6 6 O . . . X X . h +.o.] o.P.XX).I.gXMXxXjX~.J.).C.. . . O q 0 8 5 @ O . . s h h ( <.<.<.^ p * : v ( ! [ gXxXxXhXL.A.H.V.h h & . @ @ @ @ ; @ # . . : s o.I.~.] O S N N 9 6 9 9 9 @ @ . X h h h ] +.{ [ _ H.OX).U.gXNXNXzX5XhXNX X@.m.} O . . c $.$.$.R I R U H F F D Z Z Z Z D H H P A 0 0 0 M N N N 0 0 0 0 0 9 9 9 0 0 0 0 6 @ = > 6 6 6 4 @ @ @ O O 6 7 6 8 8 8 7 @ @ @ @ @ @ @ @ + O O O + @ @ @ @ @ @ @ @ @ @ @ @ @ # + @ @ @ @ 9 0 0 M A A N P T R R N 9 l 7 . . . . . . . . . . @ @ @ @ @ @ . . # @ @ 6 F E R                                             F . . X p * { XXXXXXH.;.<.2./ X X O . . . O j o.{ :./ a $                                                                                                                                                                                                                                                                                                                 ",
"                                                                                                                                                                    W . & a ^ ~ v ~ ' ] ] +.^ p p p , 9 7 7 T d.q.0.M 9 M M 6 6 ; @ @ @ @ 4 6 6 6 9 0 0 0 0 0 9 0 0 0 0 0 0 0 0 c M c 0 8 6 6 7 7 7 6 7 @ O O # O o X p b ^ 4.m.D.A.Z.B.|.9X.X X%X&X>X*Xi.i.i.t.| | V C o . . X f j f / ] [ [ f & o & :.4.>.B.pXhXhXpXV.>.4.o.: * X O 6 7 8 0 l 0 9 @ O > d m +...C M P P J A N D D A 7 @ @ @ * : : j ^ n } O.B.F.V.N.^.9X9X X&X1XwXqX9X9X|...X.] X.#.M Z A F H F F F D A Z N N N A A D D M 0 0 0 0 M c M 9 8 8 8 9 9 9 9 8 9 8 8 6 @ ; > @ @ @ @ @ @ @ @ @ 6 6 6 8 9 8 8 9 0 9 0 Z Z Z N N M M M 9 0 0 9 M A A D Z Z M l M M M M l 0 0 9 9 0 M M M M 0 0 0 0 M 7 d z , & & & & * * & . . . O o @ @ . . . .                                                           8 . X m ( / <.J.H.J.V.] ] ] g . 0   0 . @       u.X.v a $                                                                                                                                                                                                                                                                                                                 ",
"                                                                                                                                                                    0 . k ^ ^ n n 4.Z.B.B.A.] . . . Z f.0.0.R T R I @ O @ @ 4 3 ; 6 6 > @ 6 9 9 9 0 0 0 0 0 0 0 0 0 0 0 0 M Z Z Z Z S S Z M M M 9 8 9 9 6 @ @ @ @ @ @ . . p L.I.;.] _ ^ ! k t ) 1X7X6XuXxXjXxXpX,.2.2.[ o . . X j B B C k k k & . . & K.#XP.{.>X2X2X;X+.~ ) h . . . @ 0 0 M P I U P 9 6 8 8 6 O O Z 0.9.$.%.R U R R T 0 8 9 7 # # @ # . . } M.+.( ( / ) ) ) O.U.U.(.tXCXNXcXoXXXXXA.) . . + 8 0 0 S D A Z N M N M M M M M c 0 0 0 9 9 9 9 6 @ 4 6 6 7 6 7 6 1 1 @ @ 6 6 @ # . O o @ @ @ @ = 6 6 6 9 0 9 9 F P P I 0.0.0.0.g.g.f.a.I U I I q.g.k.g.0.9.8.$.0.e.f.d.$.R I H 0 0 N 9 4 6 @ . . . . & p p p h v v ^ _ ( v p p : . . . X 0 W W                                                           9 . . : 5.C.B.B.;.;.4.[ a a * . .       . Z             $ . s.                                                                                                                                                                                                                                                                                                              ",
"                                                                                                                                                                    0 . h v n n v 4.A.B.B.Z.' . . . A f.q.q.$.T R I @ @ @ @ 1 1 3 ; ; > @ 7 9 9 9 9 9 0 0 0 0 0 0 0 0 0 0 M S Z Z Z Z Z Z N N M 9 8 8 8 6 @ @ @ @ 3 @ . . s H.H.;.+._ ^ ( ( k ] <X6X5XuXhXhXjXpX2.O.;.[ o . . o b B B B j k h & . . : L.XXI.I.>X3X2X;X:._ } ^ . # . @ 0 0 M P R $.I 9 8 8 8 8 9 0 P 9.9.$.9.R I I I P 0 8 9 7 @ @ @ @ O . } M.2._ ] _ } [ [ ,.).).U.tXNXNXgXI.I.{.Z.~ O O @ 8 0 9 Z A A Z N M N M M M M M c 0 0 0 9 9 9 0 6 @ 6 6 7 7 7 7 6 4 @ ; 4 > 6 @ o . O @ @ @ @ @ ; 6 6 6 9 0 9 9 A J F P 9.0.0.0.f.f.d.q.P P I I 0.d.g.f.8.$.R I 9.q.d.d.$.R I F 0 0 M 9 4 7 6 O . . . & p * p h v n ^ ] ( n p p : . . . @                                                                 . X & p 2.6.4.3.;.;.4.{ a a % E         . 9                                                                                                                                                                                                                                                                                                                                 ",
"                                                                                                                                                                    Z . v ) ~ n v B.D.V.B.C.m . . . Z g.q.q.0.9.9.R 6 @ @ @ @ @ 4 ; @ 1 @ 7 9 9 9 9 9 0 0 0 0 0 0 0 0 0 0 M Z Z Z Z Z Z Z M M M 8 8 8 8 6 @ @ @ @ 6 @ . . p D.F.>.<.[ ( ] ' k ] 1XuXuXuXjXjXjXpXo._ [ ( . . . X b B z z j h h o . . : L.).U.U.3X,X5X>X;.} O._ o # . @ 0 9 9 P 9.9.U 9 6 6 @ 6 0 M D $.9.%.9.R I P I P 9 9 9 7 @ @ @ ; O . O.A.O.^ ~ ! } o.o.N.oXoX).gXNXNXcXP.I.XXN.r . O O 4 5 5 Z D D A Z Z Z N N Z M M l 0 9 0 0 9 9 0 6 @ 4 6 7 7 7 7 6 > @ > > ; = 6 # . . o @ @ @ @ @ 6 > > 9 0 9 9 D P P U 0.a.a.a.k.k.g.d.I T R R f.k.k.g.9.%.$.R 0.d.f.f.9.$.$.P M 0 M 8 3 8 8 o . . . & r r p v v v ~ ( ) h * * & . . . 1                                                                 @ X X & <.5.3.3.<.<.5.+.a r X                                                                                                                                                                                                                                                                                                                                               ",
"                                                                                                                                                                      9.d f v n k B.J.H.F.F./ . . . D k.f.d.T F P D 6 @ @ @ @ @ @ 6 6 7 6 8 0 9 9 9 9 9 9 0 0 c c 0 0 0 0 M Z Z Z Z S Z Z Z Z M 0 9 0 M 9 6 6 > @ 6 @ , s ' K.L.' m j s n ( ~ ^ 5.Y.G.R.;X:X:X*XF.F.H.F.' / / / n j f g , : * : h h ( :X1X;X:X}.{.XXL./ h ~ n 7 8 7 9 A M M R 0.9.$.H D D N M A A F R 9.9.9.R I I P P Z Z A M 8 8 8 8 + . h } [ O.V.F.{ ( [ O.N.N.>.R.9X|.|.{.P.#X}.T.i.p.' n | V l 9 9 9 0 0 l 0 M M c c 9 8 9 8 8 9 9 9 6 1 > 6 6 6 6 6 > > > ; ; > = ; @ @ o @ 7 7 7 9 0 6 6 6 7 7 6 6 9 0 0 N J P J P T T I J N N A D T T T P D D A A D J P P D D D N = @ @ o O @ @ . . . . X & & * v v n ( [ ' ( ( ( ^ g g j d                                                                 *.' ( ( ..+.+.+.( ( [ ( * P                                                                                                                                                                                                                                                                                                                                                 ",
"                                                                                                                                                                        6 . j b s 4.K.P.P.XX:.O & & H g.f.d.0 O @ @ 4 ; @ @ @ @ @ > 9 9 9 9 9 0 0 9 9 9 9 0 M M M M M c M Z Z Z S D D D S D A S Z Z Z D Z 0 0 9 6 ; 1 ' B.G.#XK.: . . . p ^ ~ ~ h a a ) M.M.N.Z.2X5X5X2X!.H.I.G.v h k p . . . n B.,.m.cXxXxXcX5.O.@.} X . . o S D Z F U I I 9.9.9.9.9.0.0.9.R $.$.R $.%.9.9.R I I P I P P I P Z Z M 0 @ . . . ) J.6XaX1.r ~ ~ k a a k ` ) O.P.XX#X2XuXaXaXI.V.D.V.: . . . @ 6 7 7 9 0 0 9 7 6 6 6 6 7 7 6 6 4 6 4 4 6 6 > 6 4 3 @ @ @ 4 6 6 6 @ > M Z Z I P 8 8 8 @ O O O . . . . . . . . . . . . . . . . . . . . . . . . . . . . . . . . . . . @ 9 9 9 9 9 0 8 . . . X b v h ] 1...5.A.D.G.1.1.5.| . 6 @ >                             9 6             0 6 8 8 z f V.I.L.V.] _ [ ( $ & p $ 1                                                                                                                                                                                                                                                                                                                                                   ",
"                                                                                                                                                                        6 . f j a 4.K.I.I.XX=.. & X H k.f.a.0 O @ 1 6 6 = ; @ @ @ 6 8 9 9 9 9 0 0 9 9 9 9 0 M M M c c 0 M Z Z Z S D D S S A A A Z Z Z D M 0 0 9 ; @ + / B.G.XX}.g . . . p ( ) ( ( _ ( o.H.J.V.D.,X5X5X2XH.F.H.B.a p a * . . . v >.@.,.gXxXxXcXC.@.,.o.X . . @ S D A H U U U $.$.%.8.$.9.9.%.R $.$.$.$.%.%.8.R P I P I P L I P N c 0 9 o . . . ) (.iXjX6.a / ) ) ~ h ( +.[ 3.XXoX$X2XuXuX6XH.N.V.6.& . . . 1 6 4 4 9 M c 0 8 6 6 6 7 7 7 7 6 6 6 4 @ ; ; ; 6 > @ @ @ @ 6 6 6 3 @ @ M M M I P 8 9 9 > @ @ @ . . . . . . . . . . . . . . . . . . . . . . . . . . . . . . . O                       G . . . v n h ] 1...5.Z.D.G.<.1.1.n . . . O                             O . . T         @ . . . $ r B.L.J.V.[ ] [ / % % $ . @                                                                                                                                                                                                                                                                                                                                                   ",
"                                                                                                                                                                        4 . g j a <.H.I.P.XX3.< f p V 0.9.%.9 O @ 4 6 = = = 4 > ; 6 8 9 9 9 9 9 0 9 9 0 9 c M M M M M c M Z A A S D S S D A D A A S S A M c c 0 ; @ + b 2.B.I.!.g . . . p / / / ) / ~ ] V.Z.N.V.>X3X1X<XF.G.H.B.j h ~ h X . . ^ B.4.B.pXjXlXgXC.>.,.o.& . . @ Z Z N F U I I $.%.9.$.$.$.%.$.R $.$.$.$.$.$.$.R P P P I P P P L N c 0 0 o . . . ] I.gXMXu.r v ~ ~ h a ~ { ] ;.P.XX).;X5X5X5XF.B.Z.V.b < p g 8 7 7 < 8 0 0 0 8 6 6 6 6 6 7 7 6 6 4 > @ @ @ @ @ @ @ @ @ 1 ; 6 6 8 6 8 N N M F A 6 8 9 > @ @ @ 9 W F F F F G G G F G G G G F F F G G G G G F F F F G G F F F                           F E J g p p / ..] <.Z.D.Z.1...=.n & & & <                             & & X O         @ . & p p j 6.D.D.B.] ( ] / & & l F R                                                                                                                                                                                                                                                                                                                                                   ",
"                                                                                                                                                                      6 # . s j j s o.XXP.XX{.F.F.H.' @ @ @ @ @ @ @ @ 4 ; > 6 6 6 7 9 9 9 9 9 9 9 0 M M M M 0 0 0 M Z Z Z S A S S D S D D D D A A A S A S S A S 8 6 6 g a h f , @ @ O @ @ = < < & o X * ~ v j ^ <.3.<.2.L.L.K.H.G.G.L.6.m m h Q.hXgXpX*X#X&X%X[ ) ( ) n b b f 7 8 > 0 R R R 9.9.9.9.9.%.%.8.8.8.$.$.R I I I I I P P F L P L L F D A F 7 . . . Q.6X2X5X .. o & X . . p n k ~ { O.o.4.Z.B.C.P.XX{.{.~.}.#X}.6.<.<.1.d O O O @ @ ; @ ; 6 6 6 6 > @ @ @ @ @ @ @ @ @ @ > 6 @ ; P $.8.R A N Z 9 O . O . O . . O                                                                                               J . . p v k ' <.<.1.=.=.X.1.C.B.C.5.Z 0 N 9 q 8 6 7 8 6 q 9 Q V ] ' b . O 0 Y t./ b ..4.3.4.:...o.[ f p p & . E                                                                                                                                                                                                                                                                                                                                                         ",
"                                                                                                                                                                      . . X v h h a { XX{.XXXXI.I.P.{ . . . @ @ @ @ @ 6 @ 6 6 7 7 8 9 9 9 9 9 9 9 M N N N c 9 9 9 c S Z Z A S A A D A A A D D S A A S Z D D D D 0 8 8 g * % X . @ @ @ @ @ @ @ @ # . . X h s s n [ [ ( } L.I.I.I.I.I.XXG._ ] ~ |.xXjXdX#XU.).I.( ~ ^ ) ( ( ^ b @ @ o 9 9.$.$.9.9.9.9.9.9.%.8.9.8.%.$.R P P P I I P P F H P P H H F F F 9 . # . .XuX3X,X' . @ @ . . . : n k v _ _ ( o.2.o.o.P.$X#X#X#X$X&X$XA.N.C.6.: . . . o > > = = > 6 6 > > @ @ @ @ @ @ @ @ @ ; 6 6 @ @ R 0.q.9.D N A 9 . . . . . X X .                                                                                               W . . p j n ( [ ]  .*.*.X.5.H.F.R.6.X O & & . . . . . . . . . j ....m . . . p [ [ ( 5.V.V.V.+.] [ ] a p p X . s.                                                                                                                                                                                                                                                                                                                                                        ",
"                                                                                                                                                                      O . & ) v v h :.oXXXXXI.J.H.L.] . . + @ 6 @ @ @ @ 4 4 7 7 8 9 9 9 9 8 8 9 9 M Z Z Z 0 9 9 9 M A Z Z S A D D D S D D D D S A S S D S D D D 0 8 8 , * * o . @ @ @ @ @ @ @ @ . . . X j j n / +.o.} { K.P.~.P.I.I.XXG.( ) h |.jXdXaX#XI.XXP.( v ~ ) ^ ^ ~ s @ @ + 9 0.9.9.0.9.9.9.9.%.8.8.%.%.%.8.R P I P I I P P F H L H H F F J P 9 # O . Q.uX,X2XX.. @ @ . . . p ~ n / [ [ } <.4.O.<.XX&X$X$X$X$X&X#XB.2.5.3.* . . . # 6 6 1 1 ; @ @ @ @ @ ; @ @ @ @ @ @ @ @ 6 6 @ @ I %.9.R D A F l . . . . . . . .                                                                                               G . . s ) ^ ] +.}  .*.X.X.t.F.F.R.6.o O < = . . . . . . . . . s ] ] b . . . s ..] / 5.V.B.B...] +.[ h a r . . E                                                                                                                                                                                                                                                                                                                                                         ",
"                                                                                                                                                                      O . & O._ v h ;.$X#XXXJ.D.D.L.' . O + @ 6 6 @ @ @ @ > 7 8 9 8 7 7 6 8 9 9 8 M Z Z Z 0 9 9 9 M A S Z A D D D D D D D D D S S Z S S S A D D 0 8 8 < & & o . @ @ @ @ @ @ @ @ . . . X j n n / :.o.] o.~.#X#X#XP.P.XXG.( ^ h |.dXaXaX#XP.XXP.) k ~ ^ ~ ~ v a @ @ # 9 0.w.0.0.0.0.9.9.9.8.8.8.%.%.9.R P I I I U P P F H H L L H J P P 9 # # . Q.6X,X2X .O ; @ . . . s / m / { [ _ O.3.;.>.#X&X&X&X&X&X&X#XN.<.3.3.& . . . O ; 6 @ @ @ @ @ @ @ @ 6 4 @ @ @ @ @ ; > > 6 @ @ I 9.8.R A Z D 0 . . . . . . . .                                                                                               R 8 0 b ( ^ ] { ]  .*.*.*.t./.F.R.6.o . = = O . . . . . . . . s ] ] k . . . g { ] / 2.V.V.B.{ ] +...h p x E R                                                                                                                                                                                                                                                                                                                                                           ",
"                                                                                                                                                                      6 . X ~ ~ v h ^ o.{ ' H.&X$X=X6.* j n d 4 6 @ ; ; > > 8 7 7 9 8 8 8 0 M M 0 0 0 0 0 M M M M Z A A A A A D D D D D D D D D D A A S A A A D M M Z c > @ @ 9 0 0 0 0 7 6 6 , / ' ' v & o & : g p * p o.2.<.3.4.4.3.B.Z.V.n.qXNXNXcXF.n.V.4.~ v k ] }.%X#X/. . .] | 8 0 9 I 9.$.$.8.8.%.$.$.R R R U P P P P P P J H F F F H F F P P 0 O O O 6.}.] ' B 6 8 6 @ @ 6 < , , < : : & h ( ) ( o.<.<.<.A.D.G.D.I.K.H.H.F.!.!.!.C...1.1.m - , , o O O o @ @ @ @ # O O O L w.#.U F D F M @ @ @ o : b f s p * & O                                                                                                     d.& & k ) ~ n C C f | 1...X.X.1.1.5.5.1.1.=.K V V X.X.X.5.B.B.<.C n | +.4.4.6.{ ^ ) ^ g p f f X E                                                                                                                                                                                                                                                                                                                                                                 ",
"                                                                                                                                                                      Z . . h v h h h h s * /.,X>X,XF.k ) _ z 1 > @ 6 6 > 6 8 8 8 8 9 9 9 0 Z N M 0 9 0 9 M S Z S S A S A D D A D D D D D D D D D D A A A A A A A A F Z 6 @ > M Z Z S A 0 8 6 8 ..>.,.] . . . . # . O o v ^ ~ ^ [ ] / 2.K.K.(.qXZXZXnXB.@.>.O.~ v h [ 1X5X5X&X2.;.4.[ O # . A 8.U R $.9.$.$.$.U U U I P P P L H H J H F F F F F F H P M o # # 3.J.X . 8 0 9 8 @ 6 8 4 @ @ + . . . p v ~ ~ j j k j 2.B.3.B.XX#X#X}.&X,X3X2X}.N.C.C.( r a a X . . . o @ @ @ . . . . #.h.h.h.D 0 M 8 . . . . s ' ( ^ ^ k & O                                                                                                       . . p v v j a d * g | | m  .G.F.H.R.T.Y.y.r.*.r.y.Y.y.G.H.J.Z.+...+.3.V.Z.F.] a h s & X & o . E                                                                                                                                                                                                                                                                                                                                                                 ",
"                                                                                                                                                                      8 . . s v h s h m b p /.3X>X2XF.a v v , @ @ ; 6 6 > 6 8 8 8 8 9 9 9 0 Z M M 0 9 9 9 M S Z S D A A A A D A D D D D D D D D D D A A A A A A Z Z D M ; @ ; M M M Z A 0 8 4 < ] ;.>.] . . . . . . O o / ( / ( [ ] ( <.J.J.(.qXNXNXlXC.@.,.O.~ v k { ;X2X2X&XO.o.>.` O O O Z 8.R R 9.0.9.9.$.U U U I P P P H H J H J F F F F F F H P M @ o # B.U.* . 8 0 9 7 @ @ 6 @ @ @ O . . . a ) ) ) ^ ~ n n 4.Z.B.V.#X$X#X{.%X1X<X3XI.3.4.5.n X & $ . . . . # @ @ + . . . . H e.e.d.P S D 0 . . . . p ^ ^ ^ ] ~ X .                                                                                                     l.. . : v ~ ~ j g d g | | | X.V.F.F.T.y.6.5. .*.*.y.y.y.F.J.U.G...X.] <.B.C.Z.] k v v p & X . @ 0                                                                                                                                                                                                                                                                                                                                                                 ",
"                                                                                                                                                                      . . . a h s p s b b a H.2X<X2XH.~ ) ) < + @ ; > 6 6 6 9 9 8 8 9 9 9 0 N M M 0 9 9 9 M A A A D D A A D D D D D D D A D D D D D D D D F F A A A D M 6 6 8 M M N Z Z 0 8 6 < ] ;.>.o.p g g , . . o o n m k m ] ]  .<.K.U.(.qXlXjXiXC.O.>.O.^ ^ ~ { &X3X3X&X4.,.m.o.< < < A $.I R w.q.0.9.$.I U U U P L P H H H H L H F L F F F F P M @ @ @ B.U.: O 9 c 9 8 @ @ @ @ @ @ O . . . a ( ) ) ~ n j n 4.V.N.B.P.#X#XI.}.<X>X3XI.2.4.2.] ( { { m g s s p p g d o . & , V w.w.e.W Z S 0 & o o o p ~ ^ ) } ~ X .                                                                                                       . O : k ~ ~ p * & d | |  ...G.G.C.C.y.6.t.X. .*.y.y.y.F.I.I.D...]  .+.4.6.V.] h v ~ p & . Z                                                                                                                                                                                                                                                                                                                                                                     ",
"                                                                                                                                                                  s.6 . . . X X X p ] j b k { }.&X%X#X}.XXXXm . O @ > 6 6 7 0 0 9 9 0 0 0 0 c 0 0 M M N Z Z D D D D D D D D D D D D A A D F F F F A D D F P P J F F F F D D A A F H F J D Z D M , : ~ ,.:XqXtX Xk n ^ n * o X & ] [ ) T.gXgXgX*XP.#XP.) a s h ] O.[ o.H.}.K.}.pXpXpXtX~.}.~.=.f n m 7 0 D Z F I I I P F F D F H H L D H J H H F D D F N 0 c M V V 9 6 M A Z M 0 0 0 0 8 8 6 + @ @ & : * * ( ] ( ( / ^ ^ h b m m o.3.C.C.6.V.H.H.F.P.&X=X>X{.H.L.L.4.o.2.<.: . T.qX6.n  . .< o # , :.:.{ <.;.^ ] ] h * X .                                                                                                           l & & & . . . . & * : g / / n n  .| | C C V X.+.1.| b b b v n h ~ ] ] ] g X & & X .                                                                                                                                                                                                                                                                                                                                                                         ",
"                                                                                                                                                                = . . . . . . . . g o.j b n f G.#XP.#X&X&X=X' . . O 6 6 6 7 0 0 0 0 0 0 0 0 0 0 0 M Z Z Z Z A A D D D D D D D D D D D A F H H P H A D A F I P P H F H F F F F D P P P P F F P D # . a 4.uXaXaX1X_ ( [ ] X . . o [ o.) W.NXNXMX*XS.J.A.s & % p +.>.o.o.Z.H.Z.K.sXjXjXsX=X=X=X;.r k k X + 0 9 Z I P P P D A A F H H H A H P P H F F A F A M N Z q 5 0 0 Z D Z Z N M M M 0 0 8 @ @ 6 + . . . ' [ [ [ h a a & . . X / +.o.[ / 4.I.I.I.$X&X&X>XXXH.H.H.4.+.3.<.: . }.aXR.v ] ( & . . p 6.m.4.A.B.^ ( ] g X X .                                                                                                             @ . . . . . . . . . . * : & < f g g d g f / ] ' * . . . s a p k ^ ~ ^ & . . . . .                                                                                                                                                                                                                                                                                                                                                                         ",
"                                                                                                                                                                Q . o . . . . . . a o.k n b j F.%X}.#X#X&X&X' . . # 6 8 6 8 0 0 0 0 0 0 0 0 0 0 0 M Z Z Z S A D A A D D D D D D D A A A H H H P H S A S F I P P H H F F D D D F P P I P F D F D @ # a N.yXuX7X:X! k ) ~ X . . & [ o.) Q.MXxXxX*X(.I.J.v p a h O.O.[ +.D.L.J.}.hXjXjXuXoXXXXXO.r k k X + c 9 A I P I P F A A D H H H D H L H H F F F F A 0 M M 9 9 8 7 M Z Z N M M M c 0 0 9 > > 6 @ . . < ( ] ] } v h h * $ % p ] <.2.<.] B.I.I.I.$X&X&X>X{.D.H.F.3...<.1.& . !.uXR.~ ] ( o . . : 4.B.,.V.B.^ ( ] * . . .                                                                                                             O . 6     @ O . . . X : p & d C b j g g j  .' ' p . X X h h s ^ ] _ ] z q 9   . .                                                                                                                                                                                                                                                                                                                                                                         ",
"                                                                                                                                                                9 . o . . . O o O f ] b n b s 6.!.F.}.=X>X3X<.& g g > 6 6 8 0 0 0 0 0 0 0 0 0 0 0 M A S S S A A D A A D D D D D D D D D H L H P J D A A J P P P H L H H F F F H P I I P W F P F @ O * ..:X1X1X*X1.5.Y.6.p : : s ,.4.O.Q.lXjXjX Xn.J.H.v * p p ) ( ^ ( C.F.Z.H.pXpXpXyX:X;X;XC.( 1.1.f , V B N D D F J D A Z N H H H A F H H H D F F F A M M M 0 9 9 9 M S Z Z M M M c 0 0 9 6 6 8 @ . X n :.<.2.3.j p p * & * p / ] ] ' ~ ;.F.G.G.K.}.}.}.H.V.V.G.B.4.B.4.f * /.5XR._ o.] h p p n 2.4.>.4.:.n n | H q Z                                                                                                                             O . @ 6 < < o : n n b g , g m / / d 6 8 > p s s / ' ) v           R                                                                                                                                                                                                                                                                                                                                                                         ",
"                                                                                                                                                            E . . X . . . O P E T D : b n b k h k t Q.aXuXuX}.m.D.C., O O @ 0 0 0 0 0 0 0 0 0 0 0 M A Z S A D D D D D D D D D D F J P H P P P P P P P P P P P P P P P P P P P P P P P P I I I P q 7 # o ] O._ 6.kXmXMXcXC.4.5.C.XXXXP.%X6X6X6XG.~ [ O.p . . . . . . X ~ } } o.Z.D.m.!.mXMXmXhXiXhXcXQ.,.B.B.m O O O @ 8 N @ V N N N S F F F F D F F A A H F D Z M Z Z Z Z N Z M M N M M M M 0 0 0 4 O X ] ~.#X$X$Xf . . o @ > > o o X . . & h h h n ^ / n  .[ ] [ H.OXoXXXB.<.C.G.C.B.B.B.G.D.J.C.( ( ( ) s o X 7                                                                                                                                   . 6           < k m b & . X . . .         @ . X & * $ o                                                                                                                                                                                                                                                                                                                                                                                     ",
"                                                                                                                                            G @             6 . . . . . . o R 0.%.F & b n n n h h w Q.sXuXaX%XM.J.F.d O O @ 0 0 0 0 0 0 0 0 0 0 0 N S S S A A A D D D D D D D D F P L P J P P W P P P P P P P P P P P P P P P P P P I I I I I F 8 6 @ @ _ o.) 7.xXxXjXsXV.N.4.V.#XXXP.&X6X6X5XG.! } } & . . . . . . X ~ ] _ o.V.Z.,.R.sXsXsXjXjXxXlX!.n.m.V./ . . . O O ' V.1.M N M Z F F F F F H H A D H H H A Z Z Z Z Z Z Z M N M M M M c 0 0 0 6 O X } {.$X&X&Xf . . @ @ @ ; O . . . . & h p p s m n n ( [ [ ..J.OXOX$XC.5.5.5.4.B.B.B.3.3.B.3.( / ( ( s . . ;                                                                                                                                   s.            I k ~ k X . . G s.s.        Z @ 6 o o . =                                                                                                                                                                                                                                                                                                                                                                                     ",
"                                                                                                                                            F 6     A 0 + . . . . . . . . O R s.9.P < ^ / ^ ~ ~ ~ i .XdXsXsX}.S.(.V., O O @ 0 0 0 0 0 0 0 0 0 0 0 M A S S A A A D D D D D D D D F P P H L P W F P P P P P P P P P P P P P P P P P P P I I I I F 6 @ @ 7 o.>.} G.jXdXdXiXC.3.<.6.I.P.I.&XuX6XuXF.) } } & . . . . . . o _ +.[ o.Z.Z.,./.sXaXuXhXjXxXlXR.@.,.4.b . . . # . 1.aXQ.0 A M A F F F F H H H A A H H H A Z Z Z Z Z Z Z Z N M M M M M 9 0 0 ; . X [ XX$X&X%Xf . . @ @ @ @ O . . . . : n s a b / ( / [ <.+.<.F.K.H.F.6.5.5.1.6.C.V.B...] ....( _ ] [ k . . 6                                                                                                                                                   ~ ~ h X . .                     Z . . @                                                                                                                                                                                                                                                                                                                                                                                     ",
"                                                                                                                                            D > l.l X X $ & X X . . @ @ @ > T %.R P < n n n ~ ^ ^ k Q.pXyXpX%XH.I.H.g + o @ 7 7 8 9 0 0 0 0 0 c c Z A Z S A A A D D D D D A D D F H H F F F W P P P P P P P P P P P P P P P P P I I I I I U R P 7 @ @ 8 ] o.) 3.pXpXpXtXB.3.2.6.{.#X#X:XyX2X2XG.! ( / & . . . . . . o / ] ) _ 4.3.O.G.wX1X;XpXhXsXhX^.B.V.V./ X & & : : 7.uXQ.9 A N A F F D D D F F D A F D D N N Z Z Z N N Z Z M M M M M c 0 0 0 @ . . / {.$X$XL.g . O @ @ @ > o . . . . & g : * p k v v _ ..] ] 5.4.<.1.<.5.5.<.5.5.3.5.] | ] ] / ^ ) ( V F G 8                                                                                                                                                   j k h 9 0 0                                                                                                                                                                                                                                                                                                                                                                                                                 ",
"                                                                                                                                        @ 0 : a a a ~ ( ( ~ & . . O P 0.9.8.7 ; 6 6 o X X X h ( ) ^ ] O.[ [ qXjXhXpX6.} +. .o # O @ 0 0 0 M Z S Z A A A A A A D D D D D D F H H F D D D A F P P P P P P P P P P I I I I L P P P R $.$.R R R $.R Z 0 M 0 o X . p Z.D.A.D.A.G.B.R.cXmXNXeXM.M.A.( & % & > > > 6 1 4 6 4 o X X X a h a ~ O.O.O.K.=X$X$XgXlXhXlX9XO.N.4.,.M.K.L. .O 7 M Z A A A A A A D D A N N M N Z N N M M M M M M c 0 9 0 0 0 0 0 @ + O & C.J.V.p O @ ; 6 @ 6 6 6 @ @ @ @ O . . . . . X X o o X X p n h k / ( ] ' ~ k h s & & p p o o o o                                                                                                                                                           = . Z                                                                                                                                                                                                                                                                                                                                                                                                                       ",
"                                                                                                                                      6 . . * s h h ^ ] ` ) o . . O T q.0.8.> + @ 4 + . . . s ( ( ( _ [ _ } qXxXjXiX6.} 2.X.X . O @ 0 0 0 M A A A Z Z S S A A A D D D D D H H H F A D D A H P P P P P P P P P P I U I P P P P P R $.$.$.R R $.R A M N 0 . . . p Z.A.F.D.H.D.M./.NXCXZXeXn.S.A.( $ % & 7 8 9 9 8 6 8 6 + . . . p f s / O.O.o.H.=XXX#XcXMXxXMXqXn.Z.N.n.(.U.M.n # > M N Z N Z N A A A D Z M M M N N N N M M M M M M M 0 9 0 0 0 0 9 > @ O & B.D.N.& + 6 ; 6 6 6 6 4 @ @ @ @ O . . . . . O . o X . . : k h j m / ) ) n k j s o X * * . # . O                                                                                                                                                           @ . 0                                                                                                                                                                                                                                                                                                                                                                                                                       ",
"                                                                                                                                      q . . & a a a v ( ) / o . . O R d.0.8.6 @ 6 6 @ . . . s ) ~ ~ ( o.} o.tXxXdXpXo.! } / O . . + M M M Z A S Z Z Z S A A S A D D D D D F H H D A D D A F P P P P P P P P P P I I I I H L L L R $.$.R R $.$.R Z M Z 0 . . . g J.I.K.K.J.H.M./.AXCXZXfXm.M.D.} % * * 6 7 8 8 6 4 6 ; . . . . f j k _ ,.,.O.K.=XoX&XnXMXxXNXqX@.n.@.@.J.I.G.z O > M Z Z Z Z A A D D D N M M M N N N N M M M M M M M 0 9 0 0 0 0 0 6 @ O & V.U.Z.: + 6 ; 6 6 1 @ @ @ @ @ @ @ . O O # @ @ @ . . . . p v b k k n ^ / / ^ ^ n o X p % . . . Z                                                                                                                                                           @ . 0                                                                                                                                                                                                                                                                                                                                                                                                                       ",
"                                                                                                                                      9 X o : ~ ) ^ ~ ~ ~ v o 1 > 7 T 9.$.T = @ @ 6 @ . . . * / [ [ ] ] _ } qXiXuXpXC.5.C.5.< o = < M c 0 M D A Z S S A S A S A D D D D D F F H F D F F F P I P P P P P P P P P I I I I P P P I $.8.$.$.$.$.$.R F A J Z O . O g V.D.A.G.L.I.(.~.bXnXmXrX>.,.V.( & * < l M M l 8 8 8 7 # . . . p f j / { [ _ C.~.K.K.eXhXhXkXeX^.!.Q.W.L.I.F.g O > 9 0 M N M N N N N A Z M M M M N N N M c M M M M M 0 9 0 0 0 0 0 6 @ + = 3.V.2.= + 6 4 6 6 6 @ = @ @ @ @ ; 4 4 @ 6 6 6 6 o . . . : f a s ^ ] ] [ ~ j n f . . $ = E s.                                                                                                                                                                                                                                                                                                                                                                                                                                                                                                                                                                                          ",
"                                                                                                                            A . d ..X.( ' ' ) 4.H.H.o.h h p @ g.c.k.W M M 0 @ + @ @ @ @ @ @ . { L.J.4.^ ( ( +.N.K.XXpXsXsXtX<.[ 2.+.> @ @ 9 D A Z Z Z Z A S A A D F H H H F F F J P P P P P P P P P P P P P P P I I I I R $.$.%.9.0.0.0.0.9.9.9.%.%.0.R 8 7 9 6 o p ~ ( #X$X#X$X$XoXOXF.v ) } a O @ > U $.R T P P P F 8 > ; @ O @ = @ X X . v } ) ~ ,.).XXU.rXFXDXDXVX}.I.XX;.. o . O 7 8 7 7 0 0 0 c M M M M M M M M 0 0 0 0 0 0 0 9 9 9 9 8 8 8 6 4 6 4 o o o @ 1 4 4 6 @ @ @ ; @ 1 4 1 6 4 4 @ 6 8 8 8 8 7 7 8 o . . p 4.Z.Z.D.b . & X . . .                                                                                                                                                                                                                                                                                                                                                                                                                                                                                                                                                                                                 ",
"                                                                                                                            Z . p ) ~ ( [ +.( 4.I.L.;.h h * 4 z.v.c.L M Z M @ @ @ @ @ @ @ O s D.L.U.4.^ ) ) ] +.J.XXiXjXjXpX,.@.N.+.= + @ 8 D Z Z Z Z Z A S A A A F H H H H H H P P P P P P P P P P P P P P P P I U I I $.%.%.%.9.0.0.0.0.9.9.0.9.9.0.R 8 8 9 4 . & k / }.$X#X$XXXoX&XH.~ ) } p O + > R $.R T P P J D 7 > 6 = # @ @ @ O . . h _ ) ~ 4.).).U.rXFXDXFXAX#XP.#X<.. . . . 6 8 7 8 0 9 9 0 M M M M M M M M 0 9 0 0 9 9 9 9 9 9 9 8 7 8 6 4 6 1 # . @ @ 4 4 3 @ @ @ @ @ ; @ @ @ @ @ @ @ @ 6 6 6 7 9 9 0 o . . s 6.Z.Z.D.h . o X . . 6                                                                                                                                                                                                                                                                                                                                                                                                                                                                                                                                                                                                 ",
"                                                                                                                            Z . a ( ( ] { } ~ <.J.L.:.h v r @ g.c.k.F M A Z 6 @ @ = @ + + O :.XXI.I.4.^ ~ ~ ] <.I.$XsXjXxXgX@.O.@.` O O O 4 A A A Z Z S A A A A Z D H H H P H H P P P P P P P P P P P P P P P P I U I U %.%.%.%.9.0.0.0.9.0.0.0.9.9.0.T 8 6 8 @ . X j v I.XX).XX&X&X>XI._ } O.s O + @ I R I I H F F Z > @ > ; @ @ @ @ . . . h [ } _ Z.oXoX_.rXFXDXFXAXXXU.XX{ . . . . 8 9 9 9 0 0 q 8 0 M M M Z Z Z Z 0 9 0 0 9 9 9 9 9 9 9 8 7 8 6 4 1 ; X . > 6 6 3 = @ @ @ @ @ @ @ ; @ @ @ @ @ @ @ 6 @ 6 9 0 M @ . . h B.Z.V.Z.s . & X @ @ E                                                                                                                                                                                                                                                                                                                                                                                                                                                                                                                                                                                                 ",
"                                                                                                                            Z . : ) ( / / ^ o.C.H.H.] & : & l a.d.q.M 8 c 0 6 @ 6 @ < f f g X.7.<.;./ f _ ] ] [ B.F. XqXtXpX|.^.|.Q.m j b g 7 8 9 Z A D A A A A A F H P P H H L L P P P P P P P P P P P I I I I U U U R $.$.$.$.0.0.9.0.0.9.0.0.9.w.a.8.c 0 9 = * g k ^ *X1X1X;X~.P.XXA.h h h d 6 7 8 I $.R T P P I P l 0 l l 6 6 7 ; o # . : j h h ,.K.J.(.|.eXeXeXfXwXqXwXQ./ ] ]  .< > > 7 C C B B 7 6 7 9 0 0 0 0 9 8 8 9 9 9 9 8 8 8 7 7 6 6 4 @ 4 3 @ o > 6 @ ; ; ; @ ; ; > @ @ @ @ @ @ @ @ 9 Z A D 9 @ 6 8 o X % o.B.N.4.4.p . . >                                                                                                                                                                                                                                                                                                                                                                                                                                                                                                                                                                                                       ",
"                                                                                                                            0 . X ` ) p g j V.L.D.J./ . . O T 8.$.T 6 @ 6 6 6 6 > @ f ] [ X.< O . . . & ;.3.] ~ ~ ^ [ O.J.2XxXxXMXcXG.m.V.' . . . M F D A A A A D F H H H H F P L P P P P P P P P P P P I I I I U U U R R $.$.$.0.0.0.0.0.0.0.0.0.0.d.9.Z Z c z _ [ ) ..cXxXMXcXV.m.A.O.. . . 7 F Z D $.9.9.9.%.%.%.R P P I P 0 9 9 8 @ @ @ . . . . ( O.o.[ >.(.M.S.}.MXxXMXtXU.P.XXH.& . . o  .' (  .d . . o @ 1 @ @ 6 8 7 7 9 9 0 8 6 6 6 6 6 1 1 4 4 4 4 4 1 @ 4 6 3 ; @ @ > 1 @ 1 @ @ @ @ 1 @ H 0.9.0.l . . . & $ a F.6.[ { [ : . . A                                                                                                                                                                                                                                                                                                                                                                                                                                                                                                                                                                                                       ",
"                                                                                                                                z n h g g f V.D.G.H./ . . @ R 9.8.R 8 @ 6 6 6 6 > @ < s j b o . . . . & ;.,.] ~ ^ ( o.O.I.uXjXlXxXgXG.N.V.' . . . M F D A D D A D F F H H H H P P P P P P P P P P P P P I U U U U U U R R $.R $.0.0.0.0.0.0.s.0.0.0.a.9.Z Z Z 7 ( ] ` +.cXMXMXcXG.m.D.o.. . . 6 A M A %.0.9.9.9.9.9.R P P I I 9 8 8 6 + + @ O . . . ] >.o.o.,.J.A.S.}.xXjXxXtXU.P.).H.& . . X ^ ( / | p O O o @ 1 @ @ > 7 6 7 9 9 0 8 6 6 6 6 4 ; @ 4 4 4 3 4 ; @ ; 6 ; 4 @ @ @ @ @ @ @ @ @ 4 6 @ P w.$.9.0 . . . X X p D.N.{ { ] : . .                                                                                                                                                                                                                                                                                                                                                                                                                                                                                                                                                                                                         ",
"                                                                                                                                  @ & g d g V.J.D.H./ . . + 8.a.a.9.9 @ 6 6 6 6 ; ; # . o o . . . . . & ,.m.[ ^ ( ] +.O.#XsXxXxXxXgX4.@.,.v . . . 0 P P F F D A A F H H H F H J P I P P P P P P P P W J I U R R U I I R R R R R 9.0.0.0.0.0.0.0.0.0.s.%.N Z Z 8 k ) ) ] cXMXMXcXF.V.D.o.. . . > Z M D 9.q.0.9.9.9.9.%.I P I P 8 6 6 @ O # + # . . . } ,.>.o.4.J.A.m.%XxXxXMXtX(.U.U.Z.X . . . / ( /  .d O O # + + O O @ 7 6 8 0 0 0 8 6 6 6 6 4 ; 1 @ 1 6 @ 4 @ ; @ @ ; ; @ @ @ @ @ @ @ @ @ @ @ @ P 9.$.$.0 . . . . . * D.m.;.;.o.& # O                                                                                                                                                                                                                                                                                                                                                                                                                                                                                                                                                                                                         ",
"                                                                                                                                  O o f g j <.B.D.L.{ : s n Y P P F 8 @ 6 6 4 4 @ > @ O @ @ o O @ # . X ~ ] ) ( ( _ [ o.C.}.qXqXqXqX X X XQ.:.1.5.| N M 9 M A Z Z D F F F H P P P I P P P P P P P I I I T R R R U R R R $.$.$.$.9.0.0.s.0.0.0.0.$.R %.P 6 7 4 V F.F.G.H.tXpXiXqX2.o.2.( # O O 0 P J I 0.0.0.9.9.8.%.%.T I R I Z M l 9 > 6 9 6 @ @ @ j ) ~ h ( ,.2.o.C.qXqXtXqXqXqXqX*X] ~ / m s f j m / / ' ] | C C C < @ @ @ 7 8 8 6 6 6 6 3 1 4 6 4 6 > @ ; @ @ 4 @ @ 4 @ @ @ ; 6 @ @ @ 6 0 l M P I F P 8 . . . & p k 4.[ ~ / v                                                                                                                                                                                                                                                                                                                                                                                                                                                                                                                                                                                                               ",
"                                                                                                                                # . & m ~ ^ j ] H.K.B.{ <.3.f 2 4 @ 6 6 @ @ 1 @ > @ @ ; 4 ; @ @ @ @ O . . . h ] ( ( ] [ ( ) n.N.@.F.hXjXxXhX3X3X2X4.p & . @ c M M S A D D H P P P P P P I P P I R R R R R $.$.$.R R R R 9.9.9.9.0.s.0.a.a.a.a.0.P J P Z . . . 1.2X>X>X3XXX{.oXI.~ h k f 8 9 9 P w.$.9.0.0.0.9.%.%.%.$.R $.R $.R I P F M Z F c 8 7 8 O . . . * ( ) ^ _ n.M.n. XNXMXMXzXK.M.K.V.& X & s :.F.D.F.5.1.1.1., . . o 6 > @ > 6 6 6 = @ ; 1 6 @ 1 ; ; ; 4 @ @ 4 @ ; 6 6 7 6 ; @ @ 9 I T R I M 0 0 @ . . . h ] } ) % . O .                                                                                                                                                                                                                                                                                                                                                                                                                                                                                                                                                                                                               ",
"                                                                                                                              s.. . & v v n b ] K.~.C.o.;.;.z 1 4 1 6 ; 1 @ @ 4 4 @ @ @ ; @ @ @ @ @ O . . . h ] _ ( [ [ _ _ N.V.,.H.sXdXxXhX>X<X<X2.: o . + 0 0 M A F F F P P P I P I I P P P I R R R R $.%.$.$.R R R $.0.w.9.0.0.0.a.s.a.s.a.0.I P I Z . . . -.3X>X&X=X#XP.XXI.~ k ) b 0 0 0 P 9.$.$.9.9.9.9.%.$.$.$.$.R R R I P P H N A D 0 6 8 6 . . . . : _ _ ( o.Z.D.S. XNXzXxXhXF.m.J.B.& X * j :.V.V.B.<...1.1.: . . o 4 1 @ @ ; 6 ; = 1 @ @ 1 6 4 1 = 6 6 @ @ 1 4 6 6 6 7 6 6 ; @ 7 P P T I Z M M @ . . . s _ ` ( % . . .                                                                                                                                                                                                                                                                                                                                                                                                                                                                                                                                                                                                               ",
"                                                                                                                              l.. . o n v ^ n ..K.~.V.o.;.>.B + @ @ 4 @ 4 ; @ 4 6 3 ; ; @ > @ @ @ @ + . . . h ] ( _ o.o._ ( B.V.,./.hXxXMXhX>X<X>X@.$ X . O 8 9 0 D P W W P P I P P P P P P P I R R R R $.%.%.$.R R %.$.w.0.9.0.0.q.0.a.a.a.a.a.R T T A . . . ..4X=X=X>X%X{.#XP.) ~ _ m 0 0 9 P 9.$.$.8.9.9.9.%.%.%.$.$.$.R R I P I H Z A D 0 3 6 @ . . . . : ] ] } ;.J.H.M.*XNXxXxXhXD.n.M.,.& . $ s :.V.V.B.1...1.1., . . O @ @ @ @ 6 6 4 @ @ ; 4 ; > > @ ; 4 @ 1 @ ; 3 ; 6 6 7 6 @ @ @ 6 D F P P Z A A = . . . s ) / ) & @ 6 6                                                                                                                                                                                                                                                                                                                                                                                                                                                                                                                                                                                                               ",
"                                                                                                                            l.@ X h b f j n k ] }.%XF.3.B.o.> @ @ @ @ 4 = 3 6 7 6 6 > 6 ; @ ; > @ ; @ @ @ @ < : : : p : : ~ ] ] _ ..T.R.R. XuXlXAXeXqXqXqXp.~ ] ..C 6 6 6 H I P P P P P I I I I R R R $.R R $.R M 9 0 $.d.s.0.0.0.0.0.s.9.9.0.8.0 8 6 z [ [ ) Q.AXBXhXpXV.>.B.2.* & * z P H D I %.$.%.8.9.9.9.R R R R R R T I I P P P P P I A 0 0 0 @ O @ + o * : : n 2.2.O.6.|.!.Q.|.;X:X1X*Xm a v f g / ^ / ] 1.1.=.....:.../ / | d + @ @ 4 6 @ @ 1 4 4 1 @ @ @ ; @ @ @ @ ; 6 6 6 9 9 7 N $.R 9.A @ @ @ & a s a * & o <                                                                                                                                                                                                                                                                                                                                                                                                                                                                                                                                                                                                                       ",
"                                                                                                                            Z . & [ _ g g f f ] #X&XL.4.V.[ O @ @ @ @ ; = > 7 8 8 6 6 6 > @ 4 6 6 6 > 6 6 6 @ O O O . . . v ~ v ~ ^ ` ` ` R.hXzXZXCXjXjXxX X} 2.4.m O O @ J R P P I P P I U U U R $.$.$.R R R R > o @ w.j.s.0.0.0.9.0.0.%.$.9.R 6 @ O g m.m.@.8XJXZXjXsX<.} O._ . . . 6 I P H T 8.%.8.9.9.9.%.R I I I T T I I I P I I I I I F M N M > @ 6 6 @ . . . : [ [ ] _ @.@.O.,.uXaXaXpX{ ) [ b . p p p  .1.1.X.6.V.G.V...+.+.f # . # 4 6 @ @ 6 4 6 @ @ @ ; @ @ @ ; @ ; 6 > 8 M M 9 H q.0.a.M . . . p ) ~ ~ & . . 6                                                                                                                                                                                                                                                                                                                                                                                                                                                                                                                                                                                                                       ",
"                                                                                                                            G . & } ( g f j s _ #X&XH.,.B.' O @ @ @ @ = 6 6 8 8 7 6 > ; = > 6 6 6 6 > ; 6 3 @ @ @ @ . . X ^ ( ^ ^ ( +.<.O.|.jXdXsXNXhXaXdX.X` O.>.b O O + P R P P I P P I U I I R %.$.$.$.$.9.R @ O # U j.a.q.0.0.0.0.0.9.$.w.$.8 4 2 g ,.,.} '.FXMXdXsX4.O.>.[ X . . > P H H T 8.8.8.9.9.9.8.R U T I T I I I I I I I I P I A M M M 6 @ 6 6 @ . . . p o.{ _ ] N.N.2.V.yXaXaXtX[ ~ } h X j k h ] 1.=.X.5.V.V.B.] ] [ : . . . @ @ @ @ 6 6 4 4 @ @ @ @ @ @ @ ; @ > @ 7 0 0 9 F d.d.g.Z . . . p ) ) ) & . . @                                                                                                                                                                                                                                                                                                                                                                                                                                                                                                                                                                                                                       ",
"                                                                                                                            G . & } _ f f j a ^ }.%XG.;.4.' . + @ @ @ > 6 6 7 8 6 6 4 3 > 6 6 6 6 6 6 6 6 6 @ @ @ @ . . o ~ ) ^ ) } O.2.O.^.sXiXpXBXsXaXdX|.O.B.V.| = = < H I F F P P P I R T T R %.$.9.$.R R $.C f f Y a.a.q.0.0.0.9.9.$.R 8.R 7 = @ f m.m.@.].AXhXaXpX3.o.>.{ o . . 7 P P H R 9.9.9.9.8.8.%.T I I I T I I I P P P P P P P D M Z Z 8 > 6 8 @ X X . p { ] ( } 4.4.2.B.yXaXaXtXo.` O.n X j b h  .1.X.X.5.V.Z.B...{ { f o & & = = > > 6 6 4 4 @ @ @ @ @ ; 6 > > > 6 9 Z S M I q.9.0.l . . . : ~ ~ ~ g q 6 A                                                                                                                                                                                                                                                                                                                                                                                                                                                                                                                                                                                                                       ",
"                                                                                                                            G . . & s n j j s h F.#XH.V.G.V.p . O @ @ 6 6 6 6 6 > 6 6 6 6 6 6 6 7 8 7 6 6 7 6 6 1 @ @ @ @ < & ~ 2.<.o.o.o.<.6.5.1.|.uX5X6XgXbXnXBX9XV.R.R.f @ = > Z A Z P 8.$.$.$.%.%.0.I 9 8 z  X-X&X1.Z q.0.9.9.9.9.8.A 0 Z N ' o.` y.gXgXgXqXF.F.F.G.~ ~ ) n 7 6 6 A %.R $.9.9.9.9.$.$.$.$.R I I I P P I I P P P P P H L D A A D Z Z M Z 9 @ 6 4 o n ] ( ' ] ] ] ] H.#X}.#X;X;X1X}.` o & & g j f f  .<.+.<.F.A.Z.5.=.1.X.j b m , o o # @ @ @ @ > 6 6 6 7 9 8 8 P a.0.q.0.0 O @ O . . . X & o 7                                                                                                                                                                                                                                                                                                                                                                                                                                                                                                                                                                                                                               ",
"                                                                                                                            G . . . : / k f p a F.#XL.D.H.F.g . O # @ 6 6 6 4 6 > ; 6 4 4 6 7 7 9 9 8 6 6 6 6 6 > > @ > > O . h C.6.o.[ ] o.o.] ) /.6X6X6XkXCXNXNXqXS.J.J.p . . O Z D A P 0.9.$.%.%.%.0.P 6 1 , #X,X3X=.q 0.9.9.8.9.9.$.M 6 q 9 o.>.@.R.MXMXxXtXn.n.n.,.h h v f 7 7 7 F s.9.9.9.9.9.9.%.$.R R I I I I P P I I P P P P P J H F D D D A Z Z Z 9 @ 6 6 # p ^ ~ / ^ ( ( ] D.I.U.).yXuXuX>XO.. . . & g g a | +.] :.H.D.F.6.1.5.1.b b m < O . . @ @ @ @ ; 6 6 6 8 9 7 6 P d.a.a.0.7 . . . . . . . . . 6                                                                                                                                                                                                                                                                                                                                                                                                                                                                                                                                                                                                                               ",
"                                                                                                                            F . . . p / k f p s R.#XH.D.L.F.g . # O @ 6 4 4 > ; @ > 6 6 > 6 8 9 9 9 8 8 8 8 6 6 6 > @ @ @ g C ..V.N.o.o.o.o.+.+._ R.;X1X<XgXNXMXMXqX/.~.!.^ g f < c Z Q T a.0.9.8.$.$.0.P > @ , *X2XwXu.5 $.9.9.9.9.9.9.l @ 4 < } O.` T.MXMXMXtXn.m.m.,.h p a g 9 9 8 J q.9.9.9.9.9.9.%.%.$.R T U U T P P P P P P P P L H H F D F D Z Z M M 8 @ 6 6 o ^ { ] ' ( ] [ [ Z.J.J.L.1X5X6X=X} o o & * p g g ( ..' ..V.V.C.5.1.5.1.( ' ] g o & o @ @ @ @ @ 6 6 6 9 9 8 > P a.0.q.$.; . . 8 F 0 A Z 9 8 A                                                                                                                                                                                                                                                                                                                                                                                                                                                                                                                                                                                                                               ",
"                                                                                                                              . . . p / j s : a F.#XL.F.L.L.g . . . 6 6 > > 6 > 6 6 8 9 9 9 9 9 0 0 0 0 0 0 7 6 6 > O # . p.pXyX}.N.[ _ ) ( [ [ [ [ [ <.O.rXCXxXxXkXBXDXAX1X:XpXi.O @ > H 8.R P T R R 8.F O . g fXCXCX'.. 0 0.0.0.0.0.0.7 . . & 4.A.n.!.zXzXzXtX>.>.>.O.& . . = P J H T 0.9.9.9.9.9.9.8.%.%.R T U U U I P P P P P P P H H H F D F D Z M M M 8 @ 6 2 b %X&X:X6.~ [ [ } _ _ ~ [ 1X6X6X&Xn.[ { o.a . . : n | n ^ / / | ..5.1.6.H././.5.....] & # @ @ = 6 3 8 F P H D I 0.9.q.M . . . v.                                                                                                                                                                                                                                                                                                                                                                                                                                                                                                                                                                                                                                            ",
"                                                                                                                              . O O : j a p p f ] :.H.&X$X$Xm . X o 6 6 6 6 6 6 6 6 9 0 9 9 0 0 0 0 0 M M c 0 9 9 7 # . X.:XaXaX%Xm.p X X p _ ( ( ( ( } _ C.|.!.F.qXNXDXDXsXaXjX*X+.C.G.n @ @ o M F D F B a r b fXCXCX0Xo + Z w.$.R R I B p * m qXpXpXtX~.~.}.R._ } } ) X # # 6 T I I R 9.9.9.$.$.$.$.R R R U I I I I P P P P L P L H F F F D D D D S Z Z S 0 @ 6 O V yXyX6X6.$ a h ( ( ~ k ) {.&X%X%X}.D.H.J./ . O = f j f f k j j  .1...5.K.H.H.B.<.2.:.& . & & o @ @ 8 T 9.R R F M N A @ . . . E                                                                                                                                                                                                                                                                                                                                                                                                                                                                                                                                                                                                                                             ",
"                                                                                                                            S . . . : a p & g j f p R.2X1X2X..$ p g 7 4 @ > 6 6 6 6 9 0 9 9 0 0 0 0 0 M l 0 0 M M 0 . . |.sX5X5XoXM.& . . : ( ( _ } { o.o.o.O.O.` 9XxXxXmXhXhXhX*XI.).XXn . . . 0 D D S C ~ k v fXMXMXeX& O 6 0.R I T P | ` ! o.gXxXxXiXM.S.J.m.) _ _ ~ o + @ 9 T T I R 9.9.9.R R R R I I I I I I I P P P P P P L H H D F F D A A D A D D F M 1 # .  .iXiXuX6.. $ & ) _ ) ~ _ J.I.J.$X3XXX#X&X1.O < < : r * * j k j n | ^ ..H.F.F.4.<.<.+.& . X X . + @ 6 T 9.$.R D 8 9 M @ . . . Z                                                                                                                                                                                                                                                                                                                                                                                                                                                                                                                                                                                                                                             ",
"                                                                                                                      = . O 6 A N N 0 X . . g k n s R.2X1X1X{ $ a g 7 1 @ ; 6 6 6 6 9 9 9 9 0 0 0 0 0 c 0 0 0 0 M M < * !.qX7.;.4.;.& O . : ( ] } o.o.o.[ o.+.+.} 9XxXxXjXhXsXuX#XJ.}.#X/ o & & M D F F V ~ k ~ tXjXsXqXg , N 8.P P W M / } ! { pXjXjXpXD.A.J.B.) [ o.] X # O 7 T T P R 9.9.9.$.R R R I I I I I I I P I P P P P L H H F F F A S A S A D D F 0 @ b / 6.1XyX5X7.. X X j ) ) ~ } I.{.L.%X>XXX#X&X1.o < < * * % * k h k m | ^ ../.F.F.6.<.2.<.f d f j : o o 7 T 9.$.R D 9 0 c @ . @ @ G                                                                                                                                                                                                                                                                                                                                                                                                                                                                                                                                                                                                                                             ",
"                                                                                                                      0 . . 9 P P P 0 . . . d k n a /.2X1X2X] $ p , 6 ; @ ; 6 6 6 6 9 9 9 9 0 0 0 0 0 0 0 0 0 0 0 N 5.B.H.B.X . . o @ @ + o & & * ) 2.o.o.[ ] ] _ T. X|. XBXBXgXbXVXGXGX^.@.6.4.f 4 6 6 n o.} } %X,X3X#Xo.O.1.#.@ @ @ # v } ! ..gXxXjXpX(.M.J.N.h ~ ^ n > @ @ 9 R $.R $.9.9.9.$.R $.R I I U R I I I P I P P P P L L H F F D A S A S S D D W q . F.,X#X/ f b & . . . . ^ _ ) } F.L.D.P.&X#X$X&X-.. o X $ $ X * h k j ^ | | ' 1.....3.B.4.6.F.H.I.K.] h k g > 7 7 N 9 O O # . @                                                                                                                                                                                                                                                                                                                                                                                                                                                                                                                                                                                                                                                   ",
"                                                                                                                      W . . 9 P P P 9 . . . : j k a !.2X1X2X] X % & @ 3 ; 4 6 6 8 7 9 9 9 9 0 0 0 0 0 0 0 0 0 0 0 N m.J.K.Z.o . . . @ @ @ O . . . h O.[ [ [ [ } ] o.} ` ` SXJXFXJXKXKXKX^.@.M.M.: . . . j 2.[ [ %X,X3X#Xo.O.+.#.# . . O ~ } k X.bXMXxXiXJ.M.J.4.. . . . Z D Z F 9.0.9.9.9.9.9.$.$.R R I I I R U I I P I I I I P P L H F F D A S Z Z S A D W 9 . H.,X#X& . . . . . . . ~ ] ( _ ] ] ^ :.#X$XoX&X=.. X X . . . X k k k /  . .| ^ b f :.V.4.V.P.I.P.I.] a h p . . . 8 6 . . . . 6                                                                                                                                                                                                                                                                                                                                                                                                                                                                                                                                                                                                                                                   ",
"                                                                                                                    E M @ @ 0 l 8 6 C { ] ] / s b a F.>X&X&XV.:.3.o.& # ; 4 7 9 9 9 9 9 0 0 0 c 0 0 M Z N M c 0 0 M | ' ] / > @ @ @ 7 8 9 7 @ @ @ & * * * p j ) ` O.2.O.o.W.9X9XeXNXBXBXeXrXeXeXy.] ] { { o.o.[ G.K.!.F.} o.( , d s a h 8XeX0XeXqX;X<X*X,.>.,.{ . . . # J I J I 9.9.9.8.$.$.$.R T T T I I I I I I I P I I I I L H H F D A A A A A A Z Z Z D 6 . <.J.,.o # o o @ @ @ O & * & p ^ ~ k ~ V.&X>X>XF.:.2.<.: . . . & & & : d d g j f p n ] ' { G.H.H.F.B.2.3.<.f p g d @ . . . . . Q                                                                                                                                                                                                                                                                                                                                                                                                                                                                                                                                                                                                                                                 ",
"                                                                                                              R O O . 0 M 0 N ; . . m H.D.D.:.s n s G.&XXXXXL.H.I.D.: O 6 6 9 9 9 9 0 0 0 0 M c 0 c M A S Z M 0 0 9 + O O O 0 0 9 9 0 0 M 0 6 3 @ # . . . . X ) ` o.<.o.o.@.,.O.D.aXuX6XZXDXZXCX*XU.U.I.m.] [ } 3.N.B.4.} } h . b _ ~ ) fXCXCXNX#XU.).J.[ o.O.( . . . o I R I T 9.9.9.9.$.$.R I I I I I I I I I I I I I I I P J H F D D A D A A A A Z Z Z Z > . ~ @.) @ 4 6 6 @ @ @ O . . . & ) ( ( ~ :.;X3X>XXXD.H.D.s . . . . . # . . . X p p * a n b n 6.Z.C.V.P.XXXXI.[ ~ ( s . . . . X . . F                                                                                                                                                                                                                                                                                                                                                                                                                                                                                                                                                                                                                                               "
};
