/* XPM */
static char *dummy[]={
"128 128 3377 2",
"Qt c None",
"em c None",
"bp c None",
"dW c None",
"a5 c None",
"GA c None",
"Nl c None",
"jm c None",
"Nm c None",
"Nn c None",
"YL c None",
"#h c None",
"ab c None",
"c1 c None",
"#X c None",
"#F c None",
"HW c None",
"cH c None",
"Id c None",
".O c None",
".D c None",
"T7 c None",
"dn c None",
"ar c None",
"IQ c None",
"YG c None",
"J. c None",
".a c None",
"Ix c None",
".# c #ffffff",
".n c #ffffff",
".b c #aaaaaa",
"Sj c #ffffaa",
"ET c #bfbfbf",
"ca c #cccccc",
"d7 c #aaaaaa",
"az c #ffffaa",
"#c c #6d6d6d",
"cr c #b6b6b6",
"Wk c #ffffb6",
"#o c #9f9f9f",
"aN c #bfbfbf",
".W c #cccccc",
"HJ c #bfbfaa",
"cx c #4e4e4e",
"cM c #926d6d",
"W1 c #777777",
"HV c #bbbbbb",
"gI c #b3b3b3",
"Pm c #aaaaaa",
".g c #b6b6b6",
"c6 c #7a7a7a",
"mb c #3e3e3e",
"e2 c #040404",
"cT c #000000",
"oP c #050501",
"mi c #000100",
"BJ c #0d0905",
"er c #000000",
"dC c #090909",
"Cf c #0b0900",
"aG c #050500",
"Lb c #6d6d6d",
"oA c #403b3b",
"eA c #000000",
"yT c #060606",
"hm c #060602",
"x3 c #0b0708",
"dD c #000000",
"eY c #070705",
"e0 c #070705",
".w c #0c0d07",
"YF c #070707",
"cz c #030303",
"B# c #010100",
".2 c #030303",
"a6 c #070600",
"nJ c #080000",
"uP c #080000",
"iC c #121210",
"Vw c #010000",
"Ic c #2e2c23",
"Pj c #030000",
"Xj c #030301",
".3 c #020200",
"nT c #010100",
"UF c #040000",
"f# c #020202",
"Pi c #000100",
"vE c #040000",
"I4 c #0c0300",
"Db c #040100",
"xh c #0d0000",
".C c #2d2e27",
"DF c #000100",
"aK c #010100",
"fs c #0f0f0d",
".1 c #020202",
"CI c #030000",
"UU c #060100",
"SX c #030502",
"nI c #41413b",
"UC c #453c34",
"XH c #0f0f0b",
"Cd c #181203",
"et c #000000",
"EU c #050100",
"Sk c #000201",
"b5 c #090806",
"jg c #777873",
"UG c #010000",
"dt c #010100",
"xk c #2a1e0c",
"vD c #040601",
"UV c #040406",
"U6 c #050200",
"aT c #060405",
"NM c #0d0000",
"J# c #100200",
"U7 c #140500",
"VI c #000000",
".7 c #010100",
"#6 c #020200",
"Si c #030000",
"ak c #050601",
"QQ c #060105",
"eM c #070300",
"iw c #070803",
"eL c #0b0300",
"LM c #222327",
"QP c #010000",
"hj c #010200",
"fx c #020300",
"qA c #030706",
"HK c #050200",
"#N c #050503",
"bb c #060405",
"US c #150e08",
".f c #151513",
"j6 c #1e1f19",
"uQ c #000000",
"dO c #000100",
"x2 c #010300",
"VU c #020202",
"f7 c #020300",
"xl c #030400",
"#y c #040402",
"#i c #080806",
"Qk c #090000",
"PS c #090806",
"OL c #0a0603",
".R c #0a0a08",
"Hu c #100100",
"eK c #140200",
"HL c #1b0e00",
".H c #21211f",
".c c #292927",
"#d c #353533",
"Da c #444540",
"Tt c #453422",
"OM c #53453a",
"fy c #5b5c57",
"He c #5d4e3b",
"Dd c #928572",
"DJ c #928b81",
".m c #000000",
"KA c #000004",
"gH c #000100",
"jc c #000200",
"xg c #000201",
"Pv c #000302",
"DO c #000407",
"DP c #000501",
"kD c #010000",
".h c #010100",
"YO c #010101",
"hW c #010200",
"JK c #010300",
"tZ c #010302",
"QE c #010400",
"Qy c #020005",
"bq c #020100",
"Rd c #020106",
"#x c #020200",
"MU c #020204",
"RL c #020700",
"lo c #030000",
"Gb c #030100",
"mA c #030104",
"bG c #030200",
"A1 c #030300",
"lu c #030400",
"PO c #030406",
"ES c #030600",
"ec c #040000",
"KB c #040001",
"tM c #040100",
"ci c #040402",
"xQ c #040406",
"#R c #040500",
"r3 c #040700",
"Df c #040903",
"ub c #050000",
"me c #050004",
"Up c #050007",
"qc c #050100",
"Hq c #050200",
".o c #050400",
"Kb c #050503",
"db c #050505",
"k8 c #050704",
"mN c #060000",
"Re c #060002",
"Aw c #060100",
"pX c #060200",
"U. c #060201",
"JH c #060300",
"en c #060604",
"#9 c #060702",
"SL c #060a0d",
"tX c #070000",
"TW c #070200",
"MP c #070300",
"kB c #070302",
"Oo c #070400",
"pH c #070700",
"#M c #070705",
"t2 c #070802",
"l4 c #080000",
"DA c #080100",
"lO c #080108",
"WL c #080200",
"BP c #080202",
"P7 c #080204",
"px c #080401",
"IK c #080500",
"GF c #080600",
"kh c #080800",
"dA c #080806",
"cs c #080903",
"Pc c #090200",
"O3 c #090300",
"qp c #090303",
"S4 c #090305",
"R8 c #090400",
"Oi c #090500",
"GD c #090502",
"Tb c #090601",
"Rp c #090b00",
"eH c #0a0000",
"pf c #0a0003",
"Kw c #0a0100",
"nR c #0a0300",
"g3 c #0a0400",
"eN c #0a0603",
"gh c #0a0904",
"f9 c #0a0a0a",
"fB c #0a0a0c",
"IR c #0a0b05",
"zz c #0a0b06",
"eG c #0b0000",
"Om c #0b0001",
"IN c #0b0100",
"On c #0b0102",
".4 c #0b0200",
"tK c #0b0300",
"ux c #0b0500",
"GK c #0b0505",
"En c #0b0600",
"TM c #0b0602",
"ed c #0b0700",
"A8 c #0b0801",
"qo c #0b0803",
"d0 c #0b0c07",
"fL c #0b0d00",
"SM c #0b0d0c",
"lX c #0c0000",
"Jz c #0c0100",
"Qa c #0c0200",
"p# c #0c0300",
"Dj c #0c0400",
"Ef c #0c0600",
"QF c #0c0704",
"Mr c #0c0800",
"KQ c #0c0900",
"wv c #0c0902",
"Q0 c #0c0904",
"kN c #0c0b09",
"gL c #0c0c0a",
"Eg c #0c0d07",
"g1 c #0d0000",
"Ox c #0d0100",
"Yu c #0d0101",
"Mg c #0d0304",
"sf c #0d0500",
"BE c #0d0600",
"N# c #0d0804",
"TK c #0d0900",
"xR c #0d0a05",
"W7 c #0d0c0a",
"dI c #0d0d0b",
"YD c #0d0d0d",
"P2 c #0d0f0c",
"nE c #0e0000",
"tj c #0e0100",
"zw c #0e0200",
"pu c #0e0402",
"Mq c #0e0500",
"Ho c #0e0600",
"T# c #0e0701",
"qg c #0e0a01",
"Q1 c #0e0a0b",
"P4 c #0e0d0b",
"gG c #0e0f0a",
"MK c #0e1414",
"qw c #0f0000",
"pg c #0f0200",
"A9 c #0f0300",
"RO c #0f0303",
"GB c #0f0400",
"zy c #0f0408",
"Mk c #0f0500",
"Mx c #0f0600",
"KY c #0f0700",
"fa c #0f0705",
"KK c #0f0800",
"qr c #0f0802",
"ef c #0f0a06",
"rs c #0f0a07",
"Qs c #0f1110",
"ok c #100000",
"fe c #100100",
"sj c #100200",
"Em c #100300",
"ya c #100400",
"ML c #100500",
"A2 c #100600",
"lT c #100605",
"YC c #100903",
"KR c #100c00",
"Qb c #100e13",
"TC c #100f0a",
"KL c #100f0b",
"nl c #110000",
"Ba c #110100",
"Yt c #110200",
"k4 c #110604",
"BF c #110700",
"kl c #110706",
"Ty c #110a02",
"nf c #110b00",
"O7 c #110c08",
"a. c #11120d",
"FU c #111312",
"mY c #120100",
"Au c #120200",
"Yi c #120400",
"QR c #120500",
"PF c #120902",
"DT c #120a00",
"Iv c #120b03",
"Tz c #120e0b",
".E c #121210",
"W8 c #121214",
"fu c #12130e",
"E# c #130300",
"gi c #130400",
"Pn c #130600",
"Cl c #130800",
"DQ c #130d01",
"eB c #130e0b",
"QW c #130f0c",
"#a c #131311",
"L# c #131313",
"eZ c #13140f",
"Qp c #131919",
"qq c #140a08",
"id c #140a09",
"mV c #140d00",
"H. c #140e10",
"fj c #14100d",
"G6 c #14130e",
"NS c #141408",
".X c #141412",
"Uq c #141510",
"Tn c #141b13",
"o9 c #150000",
"q5 c #150400",
"My c #150600",
"rF c #150700",
"MB c #150d00",
"Sx c #150d0a",
"wd c #150f13",
"BO c #15150d",
"d6 c #151513",
"g. c #151611",
"T3 c #151618",
"Qx c #151918",
"P6 c #15191c",
"gq c #160000",
"uT c #160500",
"nw c #160a00",
"iD c #160c0a",
"VS c #161614",
"eg c #161616",
"OI c #161618",
"eq c #161712",
"YM c #161719",
"UI c #161813",
"Ir c #161a19",
"GS c #170200",
"kZ c #170805",
"Ta c #170e05",
"WU c #171614",
"PQ c #17170d",
"pA c #171715",
"X0 c #171717",
"kH c #171813",
"Tm c #171914",
"YI c #171916",
"Uy c #171918",
"Ph c #171a13",
"TA c #171c16",
"oL c #171d1b",
"TQ c #180100",
"uB c #180200",
"ql c #180904",
"wH c #181000",
"yH c #181100",
"WT c #181715",
"Rm c #18171c",
"oz c #181810",
".s c #181816",
"UO c #181818",
"Ui c #18181a",
"U# c #181911",
"DE c #181913",
"jh c #181914",
"Qd c #18191b",
"x7 c #181a0d",
"TB c #181a17",
"yR c #181b14",
"Np c #181c1b",
"fM c #190507",
"KJ c #190700",
"Vc c #190a00",
"PT c #190d01",
"rf c #19140e",
"YH c #191514",
"QO c #191718",
"Uh c #19171a",
"Hs c #191814",
"T2 c #191816",
".r c #191917",
"TL c #191919",
"OJ c #19191b",
"wy c #191a14",
"jl c #191a15",
"yY c #191b1a",
"xe c #191c15",
"x6 c #191f15",
"ri c #1a0000",
"hx c #1a0804",
"y# c #1a0b00",
"wc c #1a0b08",
"TN c #1a1207",
"Nz c #1a1615",
"G0 c #1a181d",
"T0 c #1a1914",
"ME c #1a1915",
".t c #1a1a18",
"H0 c #1a1a1a",
"Ej c #1a1b15",
"dd c #1a1b16",
"Hr c #1a1c17",
"dh c #1a1c19",
"py c #1a1e1d",
"To c #1a1f1b",
"Sl c #1a211a",
"PV c #1b0900",
"Mj c #1b0b00",
"pv c #1b140a",
"Uw c #1b1716",
"Ur c #1b1718",
"LK c #1b191a",
"bA c #1b1b19",
"T1 c #1b1b1b",
"xZ c #1b1c16",
".5 c #1b1c17",
"P5 c #1b1f20",
"IZ c #1b1f22",
"J6 c #1b2019",
"Mc c #1b211f",
"pz c #1b2121",
"gj c #1c0704",
"Nk c #1c0c00",
"D6 c #1c0e0b",
"F9 c #1c1304",
"Vl c #1c150d",
".. c #1c1711",
"JT c #1c1a1d",
"m2 c #1c1b17",
"Ri c #1c1b19",
".F c #1c1c1a",
"JD c #1c1c1c",
"Gi c #1c1d17",
".I c #1c1d18",
"R6 c #1c1d1f",
"Hg c #1c1e19",
"g# c #1c1e1b",
"x0 c #1c1f16",
"xm c #1c1f18",
"GP c #1c2012",
"Pd c #1c2220",
"qv c #1c2524",
"gu c #1d0805",
"j7 c #1d0908",
"rg c #1d0a04",
"jn c #1d0e0b",
"ps c #1d0f0c",
"Ng c #1d1100",
"rc c #1d140f",
"We c #1d1513",
"WS c #1d1719",
"N4 c #1d1814",
"Qi c #1d181e",
"PZ c #1d1916",
"Tk c #1d191a",
"Qu c #1d1a15",
"HP c #1d1b1e",
"HZ c #1d1c17",
"sv c #1d1d1b",
"LI c #1d1d1d",
"Cg c #1d1e16",
"m5 c #1d1e18",
".U c #1d1e19",
"yX c #1d1e20",
"Th c #1d1e23",
"gN c #1d1f1c",
"Qe c #1d2017",
"oQ c #1d2019",
"Yv c #1d2321",
"ly c #1e0501",
"oZ c #1e0602",
"fi c #1e100f",
"PR c #1e1920",
"V5 c #1e1c1d",
"oN c #1e1d18",
"gY c #1e1d19",
"#W c #1e1e1c",
"#D c #1e1e1e",
"ll c #1e1f19",
".S c #1e1f1a",
"qB c #1e201b",
"ho c #1e201d",
"SE c #1e2118",
"h0 c #1e211a",
"S8 c #1e261b",
"gc c #1f0703",
"Nf c #1f0f00",
"vH c #1f100b",
"MR c #1f1800",
"vN c #1f1a16",
"SK c #1f1c0d",
"Qv c #1f1c17",
"JC c #1f1d1e",
"kQ c #1f1e1a",
"kA c #1f1f17",
".G c #1f1f1d",
"df c #1f1f1f",
"lv c #1f201a",
"#5 c #1f201b",
"zJ c #1f211c",
"SH c #1f2322",
"ir c #1f241e",
"N3 c #1f2523",
"RS c #1f261f",
"n# c #200605",
"rh c #200903",
"m# c #200a0c",
"eJ c #20130d",
"vJ c #201511",
"QG c #201b1f",
"L. c #201e1f",
"Iq c #201f1a",
"lr c #201f1b",
"eX c #201f1d",
"Tg c #202016",
"#q c #20201e",
"aq c #202020",
"#s c #20211c",
"SF c #202125",
"ru c #20231a",
"R7 c #20231c",
"GX c #20251e",
"sd c #210000",
"n3 c #210803",
"kO c #210905",
"qQ c #210b00",
"Dx c #210c00",
"lE c #210c07",
"kd c #211009",
"FY c #211308",
"vG c #21180f",
"ma c #211a14",
"Tl c #211c23",
"Qc c #211f24",
"iE c #21201b",
"pI c #21201c",
"hA c #21201e",
"Qw c #212117",
"jT c #212119",
"fK c #21211f",
"cS c #212121",
"is c #21221a",
"## c #21221d",
"pG c #212226",
"SG c #212318",
"Us c #212320",
"pJ c #21241d",
"fW c #220f09",
"td c #22100c",
"lj c #22130c",
"tn c #22171b",
"jo c #221914",
"Sv c #221e12",
"#T c #22211d",
"f5 c #22211f",
".A c #222220",
"fA c #222222",
"jb c #22231b",
"cB c #22231d",
".M c #22231e",
"T. c #222419",
"c0 c #222421",
"NB c #222423",
"QY c #222828",
"gV c #230600",
"fh c #230704",
"rv c #230a06",
"QU c #230c00",
"fg c #23100c",
"qn c #231a13",
"OU c #231b08",
"IJ c #231f16",
"yW c #231f1e",
"cq c #23221e",
"fr c #232220",
"YK c #232321",
"ap c #232323",
"bj c #23241e",
"#Z c #23241f",
"ja c #232520",
"gF c #232522",
"MQ c #232524",
"du c #23261f",
"YJ c #232824",
"Rq c #232925",
"rn c #232d25",
"g6 c #240805",
"vI c #241913",
"Ww c #241f19",
"gm c #241f1c",
"#E c #242223",
"aI c #24231e",
".P c #242422",
"e3 c #24251d",
"aY c #24251f",
"aj c #242520",
"LJ c #242621",
"dm c #242623",
"F6 c #242829",
"jw c #250700",
"sm c #250d09",
"J3 c #251100",
"H# c #25140a",
"qK c #25140d",
"do c #25241f",
"Wx c #252420",
".l c #252523",
"#V c #252525",
"hS c #25261e",
"bR c #252620",
"at c #252621",
"dP c #252722",
"fC c #252724",
"WM c #252a24",
"Xf c #252c25",
"fG c #260905",
"mr c #260d08",
"Ol c #261909",
"PY c #261c12",
"kP c #261d18",
"M2 c #262425",
"MW c #262427",
"V4 c #262520",
"cL c #262521",
"S9 c #262523",
".x c #262624",
"aa c #262626",
"QX c #262628",
"FI c #26271f",
"bW c #262721",
"aL c #262722",
"MJ c #26281d",
"Ns c #262823",
"XY c #262825",
"VF c #262922",
"uI c #270400",
"ky c #270803",
"t4 c #270b08",
"gt c #27130a",
"Pu c #271910",
"lD c #271916",
"Ia c #271b0f",
"NP c #271c08",
"sk c #27201a",
"TZ c #272322",
"cj c #272621",
"gE c #272622",
".9 c #272725",
"Nd c #272727",
"wx c #272820",
"aS c #272822",
"ad c #272823",
"ia c #272924",
"VG c #272a23",
"G1 c #272a2f",
"o7 c #272e1e",
"dx c #280906",
"fo c #280907",
"eU c #280b07",
"mm c #28130e",
"JU c #282111",
"Uf c #282421",
"jA c #282520",
"JF c #282627",
"bv c #282723",
"jU c #282725",
".d c #282826",
"M0 c #282828",
"gK c #282923",
"#w c #282924",
"M1 c #28292b",
"BM c #282a25",
"YQ c #282a27",
"QH c #282c2b",
"hH c #290705",
"nb c #290a07",
"sn c #290a08",
"h9 c #290c06",
"fV c #291009",
"m7 c #29100c",
"Oj c #291403",
"uR c #29170d",
"zv c #291c00",
"j8 c #291e1a",
"Ap c #292017",
"t9 c #292323",
"N0 c #292420",
"MX c #292421",
"iQ c #292522",
"Uk c #292617",
"I0 c #29261f",
"F8 c #292621",
"Nu c #292728",
"kf c #292823",
"n5 c #292824",
"sW c #292921",
".u c #292927",
"TD c #292a22",
"d9 c #292a24",
"aA c #292a25",
"Pe c #292b20",
"QN c #292b26",
"QK c #292d1f",
"r# c #292e28",
"hy c #2a0904",
"oR c #2a0b06",
"mq c #2a120e",
"Rx c #2a1300",
"t3 c #2a211a",
"pt c #2a231d",
"pS c #2a261b",
"ls c #2a2623",
"MV c #2a2625",
"Bf c #2a2720",
"eC c #2a2722",
"Ve c #2a2829",
"k2 c #2a2924",
"GU c #2a2925",
"YP c #2a2927",
"w5 c #2a2a20",
"Nt c #2a2a22",
"Bg c #2a2a28",
"de c #2a2a2a",
"lC c #2a2b23",
"an c #2a2b25",
"dX c #2a2b26",
"kM c #2a2c27",
"J7 c #2a2c2b",
"HQ c #2a2d24",
"NQ c #2a2d26",
"Ep c #2a3632",
"kJ c #2b0c0a",
"d3 c #2b0f0b",
"Vh c #2b2519",
"ow c #2b2726",
"MI c #2b281f",
"d8 c #2b2a26",
"#r c #2b2b29",
"j5 c #2b2c26",
".8 c #2b2c27",
"YR c #2b2d2a",
"QZ c #2b2d2c",
"K# c #2b2f21",
"o# c #2b352a",
"jK c #2c0a08",
"qC c #2c0d0a",
"uS c #2c0f0b",
"xb c #2c100f",
"pR c #2c130e",
"ce c #2c1412",
"B5 c #2c1c02",
"P8 c #2c1c0d",
"oM c #2c2723",
"TI c #2c272b",
"qS c #2c2825",
"XD c #2c2922",
"Io c #2c2924",
"re c #2c2b26",
"Qg c #2c2b29",
".Q c #2c2c2a",
"#f c #2c2c2c",
"Gm c #2c2c2e",
"cU c #2c2d25",
"or c #2c2d27",
".J c #2c2d28",
"EL c #2c2e23",
"gw c #2c2e29",
"Be c #2c2f28",
"n9 c #2c3021",
"Ck c #2c3039",
"Rl c #2c332b",
"j. c #2d0b09",
"nV c #2d0e09",
"n2 c #2d140f",
"kp c #2d1912",
"MN c #2d1e0b",
"OH c #2d1f1c",
"Su c #2d2210",
"ss c #2d261e",
"pZ c #2d2729",
"fb c #2d2824",
"aR c #2d2c27",
"oy c #2d2c28",
"Rf c #2d2c2a",
"Sw c #2d2c31",
"r4 c #2d2d23",
".i c #2d2d2b",
"QJ c #2d2e26",
"#4 c #2d2e28",
"ae c #2d2e29",
"YN c #2d2f2c",
"QL c #2d3027",
"iM c #2e0901",
"na c #2e0b05",
"s# c #2e120e",
"gW c #2e1b15",
"qD c #2e1d16",
"lG c #2e2623",
"uU c #2e2721",
"NA c #2e2a27",
"sX c #2e2b24",
"Bh c #2e2d28",
"vK c #2e2e26",
".j c #2e2e2c",
"x8 c #2e2e30",
"xd c #2e2f29",
"bQ c #2e2f2a",
"BI c #2e302b",
"MG c #2e3126",
"MH c #2e352d",
"ew c #2f0707",
"ip c #2f0d0b",
"sa c #2f0e07",
"dS c #2f100d",
"cw c #2f1310",
"t# c #2f1d05",
"SA c #2f221a",
"j9 c #2f271c",
"ON c #2f281e",
"wA c #2f2822",
"RQ c #2f2a31",
"C4 c #2f2b20",
"jD c #2f2b22",
"so c #2f2c27",
"G5 c #2f2d20",
"EQ c #2f2d2e",
"II c #2f2e29",
"ee c #2f2e2a",
"os c #2f2e2c",
".q c #2f2f2d",
"vy c #2f302a",
"#L c #2f302b",
"S7 c #2f3229",
"mH c #2f322b",
"O4 c #2f3332",
"Kv c #2f3527",
"EY c #2f372c",
"s2 c #300d0b",
"jS c #30110c",
"lk c #301c1b",
"SQ c #301f0f",
"te c #30221f",
"Ne c #30231a",
"Aq c #302521",
"H2 c #302b25",
"nA c #302d26",
"r9 c #302f2a",
"bd c #302f2b",
"Md c #302f2d",
"k3 c #303028",
"#7 c #30302e",
"wo c #30312b",
"#j c #30312c",
"lY c #303133",
"pq c #30322d",
"DL c #30322f",
"G2 c #30332a",
"Ja c #30332c",
"Ea c #303433",
"Tc c #303437",
"tl c #30362a",
"wn c #311210",
"rw c #311915",
"Oz c #31200c",
"mT c #31221f",
"jp c #31241e",
"W. c #31262c",
"t5 c #312926",
"H1 c #312c28",
"mP c #312e27",
"af c #31302b",
"QM c #31302e",
".e c #31312f",
"mS c #313131",
"Bi c #31322a",
"Cc c #31322c",
"#g c #31322d",
"GI c #31332e",
"BD c #313330",
"CL c #31342d",
"Ow c #31343b",
"ND c #313735",
"xY c #321d1a",
"NV c #322514",
"vO c #322715",
"Fi c #322826",
"PG c #322922",
"Uz c #322a1f",
"Qo c #322e2b",
"Qh c #322f26",
"IE c #322f2a",
"t7 c #32312c",
"CG c #32312d",
"ni c #32322a",
".k c #323230",
"d1 c #323232",
"Wo c #323234",
"k0 c #323325",
"e1 c #32332d",
"jV c #32332e",
"WD c #323427",
"qR c #323429",
"Vy c #32342f",
"pT c #32352c",
"Ch c #32352e",
"Na c #323731",
"oG c #331500",
"iG c #33211d",
"oB c #332717",
"gU c #332a25",
"ms c #332e28",
"MF c #332e2b",
"xn c #332f2c",
"qL c #33302b",
"#J c #33322d",
"GO c #33332b",
".y c #333331",
"it c #33342e",
"#O c #33342f",
"Vu c #333530",
"pF c #333534",
"hT c #33362f",
"tm c #333a33",
"uC c #333a40",
"SB c #342110",
"s6 c #342218",
"oF c #342313",
"Od c #342619",
"Tj c #34261b",
"Fw c #342716",
"le c #342f29",
"ox c #34302d",
"Ar c #34302f",
"l6 c #34312a",
"N. c #343233",
"iT c #34332e",
"aV c #34332f",
"yb c #343331",
"rd c #34342c",
".z c #343432",
"X1 c #343434",
"YT c #34352f",
"#Q c #343530",
"Ka c #34353a",
"FT c #343633",
"Fp c #343635",
"Nb c #34372e",
"g8 c #343730",
"WE c #343933",
"Jb c #343a36",
"uu c #351600",
"gd c #351c17",
"pK c #35241d",
"SP c #352818",
"W6 c #352911",
"Gl c #35291b",
"wz c #352c27",
"Fr c #35302c",
"lS c #35322b",
"Hj c #35322d",
"Hk c #35342f",
"tf c #353430",
"cR c #353533",
"#e c #353535",
"wF c #35362e",
"fz c #353630",
"dY c #353631",
"mI c #35372c",
"I# c #353734",
"su c #35382f",
"Wn c #353831",
"EP c #353b37",
"hq c #36110b",
"hI c #361e1a",
"h2 c #361f19",
"f3 c #36211e",
"SO c #362919",
"Pl c #362c20",
"qm c #362f29",
"kx c #36312b",
"gv c #36312d",
"KU c #363233",
"kR c #36332c",
"Nc c #363435",
"CM c #363530",
"aW c #363531",
"Ei c #36362e",
"#p c #363634",
"#. c #363636",
"D# c #363731",
"#m c #363732",
"xS c #363835",
"EX c #36392e",
"mR c #363932",
"od c #363b37",
"rT c #371300",
"rO c #371a00",
"vq c #37322e",
"Ec c #37322f",
"o4 c #373328",
"nD c #373330",
"RP c #373332",
"Hy c #373421",
"nn c #37342f",
"RZ c #37343b",
"gD c #373631",
"#K c #373632",
"eO c #373634",
"IY c #37372f",
"#P c #373735",
"#k c #373737",
"l9 c #373830",
"he c #373832",
"fv c #373833",
"Vd c #373936",
"pr c #373a33",
"lZ c #373b2d",
"u5 c #381200",
"Cp c #381500",
"L8 c #381b00",
"ue c #382000",
"Jx c #38230e",
"eh c #382622",
"tY c #38280e",
"m6 c #382d27",
"SN c #383019",
"lF c #38332d",
"qb c #38342b",
"H8 c #38352e",
"jI c #383627",
"uD c #383732",
"BG c #383735",
"MA c #38373d",
"F7 c #38382e",
"wD c #383830",
".Y c #383836",
"#A c #383838",
"qk c #383931",
"bz c #383933",
"ao c #383934",
"cV c #383a35",
"pY c #383a39",
"ob c #39240f",
"hd c #39261f",
"vC c #392d1f",
"GE c #39312f",
"sT c #393337",
"k9 c #39342e",
"s. c #39352a",
"C# c #393532",
"cp c #393833",
"by c #393834",
"nz c #393931",
"#z c #393937",
"#l c #393939",
"e4 c #393a32",
"a4 c #393a34",
"j0 c #393a35",
"cC c #393b36",
"li c #393b38",
"JA c #393e38",
"qM c #394039",
"NR c #394134",
"n1 c #3a2220",
"oK c #3a2303",
"gC c #3a2721",
"s1 c #3a2922",
"zD c #3a322f",
"sU c #3a3532",
"fq c #3a3633",
"SY c #3a3635",
"EO c #3a3637",
"s0 c #3a372e",
"NU c #3a3730",
"f4 c #3a3934",
"a# c #3a3935",
"Ci c #3a3a32",
".Z c #3a3a38",
"Gz c #3a3a39",
"wG c #3a3a3a",
"sp c #3a3b33",
"c# c #3a3b35",
".T c #3a3b36",
"cf c #3a3c37",
"HG c #3a3c39",
"zB c #3a3d36",
"no c #3a3e3f",
"BC c #3a3f38",
"Dc c #3b260b",
"Ot c #3b2704",
"GZ c #3b2905",
"on c #3b2925",
"Aa c #3b2b1b",
"Yx c #3b3125",
"yQ c #3b322d",
"rm c #3b3630",
"BN c #3b3632",
"r8 c #3b3734",
"C. c #3b3833",
"Eb c #3b392d",
"Cb c #3b3a35",
"#U c #3b3a36",
"tP c #3b3b33",
".L c #3b3b39",
"aJ c #3b3c36",
".N c #3b3c37",
"Wf c #3b3e33",
"JS c #3b3e35",
"gT c #3b3e37",
"NZ c #3b4141",
"cQ c #3c201d",
"MO c #3c2619",
"PJ c #3c2909",
"Hb c #3c312b",
"U5 c #3c332a",
"TF c #3c352b",
"m. c #3c352d",
"t6 c #3c3731",
"Eq c #3c3734",
"HA c #3c3930",
"pj c #3c3934",
"ID c #3c3b36",
"eW c #3c3b37",
"n4 c #3c3c32",
"C8 c #3c3c34",
".K c #3c3c3a",
"zC c #3c3c3c",
"hw c #3c3d35",
"bV c #3c3d37",
".V c #3c3d38",
"fw c #3c3e33",
"qj c #3c3e39",
"N1 c #3c3e3b",
"Hz c #3c4043",
"N2 c #3c4238",
"CR c #3d1700",
"vj c #3d1b02",
"P1 c #3d2c18",
"kY c #3d3630",
"VY c #3d3835",
"Fo c #3d393a",
"IC c #3d3a31",
"kt c #3d3a33",
"gX c #3d3a35",
"Gg c #3d3c38",
"ig c #3d3d31",
"xX c #3d3d35",
"#C c #3d3d3b",
"a7 c #3d3e38",
"dN c #3d3e39",
"gg c #3d3f3a",
"gs c #3d3f3c",
"Ye c #3d4039",
"Hl c #3d4133",
"dy c #3e221e",
"rj c #3e2624",
"Oa c #3e2c16",
"Pk c #3e2c18",
"DH c #3e2d1b",
"nG c #3e2f1c",
"DG c #3e3023",
"el c #3e332d",
"W9 c #3e342b",
"kn c #3e3731",
"rB c #3e3b32",
"wi c #3e3b34",
"oe c #3e3c2d",
"NC c #3e3c30",
"IH c #3e3d38",
"eP c #3e3d39",
"lR c #3e3e34",
"fX c #3e3e36",
"Fq c #3e3e3c",
"dg c #3e3f37",
"ch c #3e3f39",
"#8 c #3e3f3a",
"zE c #3e403b",
"VK c #3e403d",
"Wp c #3e4136",
"Cj c #3e4138",
"gx c #3e413a",
"FQ c #3e4234",
"zA c #3e4243",
"d. c #3f221c",
"op c #3f2c25",
"vu c #3f2e26",
"hz c #3f3029",
"Yy c #3f3126",
"Oc c #3f3222",
"fp c #3f322c",
"HH c #3f3529",
"dV c #3f3734",
"fN c #3f3832",
"JG c #3f3a37",
"fT c #3f3c33",
"bt c #3f3c37",
"#t c #3f3e39",
"#v c #3f3e3a",
"Qf c #3f3f33",
"sZ c #3f3f37",
"UH c #3f3f3d",
"iY c #3f4032",
"XF c #3f4038",
"ay c #3f403a",
"a3 c #3f403b",
"of c #3f413e",
"xo c #3f423b",
"fU c #3f4344",
"LH c #402713",
"K9 c #402f25",
"g7 c #40312e",
"nd c #403218",
"Yz c #403227",
"Lc c #403322",
"gk c #403b37",
"Dw c #403d38",
"nj c #403e32",
"fY c #403f3a",
"p. c #403f3b",
"TJ c #404038",
"fk c #40403e",
"J5 c #404040",
"WF c #404042",
"ai c #40413b",
"b4 c #40413c",
"hJ c #404237",
"uV c #40433c",
"pp c #40483d",
"FC c #412307",
"tS c #412522",
"OO c #412c11",
"oE c #412f17",
"Wm c #41301e",
"dj c #413029",
"YA c #413326",
"Js c #413a32",
"kX c #413c36",
"IU c #413d34",
"vM c #413d3c",
"Kh c #413e35",
"Jn c #413e37",
"eQ c #41403b",
"bF c #41403c",
"Il c #414137",
"YU c #414139",
"gl c #41413f",
"f. c #41423a",
"jd c #41423c",
"eo c #41423d",
"yN c #414335",
"xW c #41433e",
"XE c #41443d",
"L6 c #422b25",
"Hc c #42321b",
"Ob c #423223",
"UQ c #423525",
"Bz c #423c3c",
"fJ c #423d39",
"yP c #423e3b",
"y. c #423e3d",
"nC c #423f38",
"l5 c #423f3a",
"Ug c #42413c",
"b0 c #42413d",
"U3 c #424236",
"JE c #424238",
"qE c #42423a",
"ez c #42433b",
"hg c #42433d",
".6 c #42433e",
"V9 c #424439",
"JN c #42443f",
"i# c #42453c",
"XZ c #42453e",
"UZ c #424743",
"V# c #424b4a",
"e7 c #431718",
"tT c #432724",
"sc c #432b27",
"V8 c #432d15",
"YB c #43311d",
"BL c #43331c",
"Oh c #433729",
"kz c #433937",
"EW c #433a35",
"tk c #433b38",
"B. c #433e38",
"Gf c #433e3b",
"bu c #433f3c",
"lM c #43403b",
"b2 c #43423d",
"#u c #43423e",
"yO c #434339",
"aH c #43433b",
"Wz c #43443c",
"xc c #43443e",
"cD c #43443f",
"rE c #43453a",
"uY c #43463b",
"Wi c #43463f",
"s3 c #442c28",
"Ao c #443726",
"tW c #443933",
"iq c #443a38",
"mu c #443b3e",
"x9 c #443d37",
"HB c #443e42",
"eI c #443f3b",
"Ge c #44403d",
"HU c #444138",
"we c #44413a",
"ag c #44433e",
"uM c #44433f",
"Jk c #44443a",
"H9 c #44443c",
"vz c #444442",
"GT c #44453d",
"c8 c #44453f",
"ba c #444540",
"H7 c #444638",
"W0 c #444641",
"YE c #444643",
"km c #44473e",
"Ij c #444740",
"tJ c #444a3e",
"sb c #452c27",
"gR c #45302b",
"QT c #453422",
"sS c #45351c",
"j# c #453a38",
"hG c #453b3a",
"J4 c #453b3c",
"io c #453c35",
"Ku c #453e36",
"hK c #45403c",
"J9 c #454136",
"jO c #454138",
"b# c #45413e",
"C6 c #454239",
"mO c #45423b",
"De c #45423d",
"xp c #454337",
"VE c #454344",
"vx c #45443f",
"dE c #454440",
"BH c #45453b",
"IF c #45453d",
"ac c #454543",
"Bj c #45463e",
"cN c #454640",
"aX c #454641",
"Er c #45473c",
"lH c #45483f",
"OK c #454c45",
"np c #462f0d",
"eV c #46312e",
"Ju c #463420",
"oS c #46352d",
"hc c #463b35",
"hR c #463d36",
"M9 c #46413b",
"I. c #464237",
"qs c #464239",
"n0 c #464241",
"x# c #46433c",
"IX c #46433e",
"Jg c #464438",
"aD c #464540",
"Jh c #464541",
"B7 c #46463a",
"fO c #46463c",
"nH c #46463e",
"as c #464644",
"U4 c #46473f",
"bk c #464741",
".B c #464742",
"HX c #473318",
"nx c #47371e",
"Ed c #47391c",
"M. c #473c36",
"l. c #473f32",
"ER c #473f34",
"iy c #47403a",
"Kd c #474141",
"Fs c #47423e",
"FP c #47423f",
"rC c #47433a",
"Im c #47443b",
"tO c #47443d",
"UN c #474539",
"CD c #474641",
"JP c #474642",
"pl c #47473f",
"iv c #474840",
"kE c #474842",
"al c #474843",
"Vt c #47493e",
"gb c #48302c",
"GC c #483419",
"UD c #483719",
"Un c #483727",
"g5 c #483934",
"H6 c #484137",
"nc c #48413b",
"Xg c #48433d",
"i3 c #48443b",
"Fn c #484443",
"sq c #48453e",
"iF c #484540",
"aM c #484742",
"JB c #48483e",
"iR c #484939",
"Ux c #484941",
"kG c #484943",
"cy c #484944",
"HR c #484b42",
"kS c #484b44",
"Jd c #484c3e",
"oa c #484d49",
"m1 c #484e44",
"nL c #49270b",
"E3 c #493c29",
"cE c #49403b",
"j3 c #49423c",
"yM c #494337",
"WN c #49443e",
"Tf c #494440",
"K. c #494441",
"CB c #49453a",
"ks c #49453c",
"o0 c #494542",
"CF c #49463d",
"h1 c #49463f",
"aB c #494843",
"CE c #494844",
"vL c #49493f",
"jH c #494947",
"VT c #494949",
"Fj c #494a3c",
"oW c #494a42",
"hk c #494a44",
"VX c #494b3e",
"m0 c #494b48",
"NJ c #4a2e09",
"P# c #4a3300",
"Tq c #4a351a",
"CK c #4a3822",
"dR c #4a3834",
"N5 c #4a3c22",
"ji c #4a413c",
"IB c #4a433b",
"Wq c #4a4541",
"cg c #4a4542",
"b1 c #4a4643",
"aU c #4a4742",
"NT c #4a483c",
"wB c #4a4944",
"bc c #4a4945",
"Fm c #4a4947",
"#Y c #4a4a48",
"lh c #4a4b45",
"As c #4a4b46",
"mg c #4a4c41",
"Os c #4a4c4b",
"vS c #4b2100",
"B2 c #4b2b12",
"ei c #4b322d",
"kK c #4b322e",
"pC c #4b3600",
"og c #4b371c",
"bY c #4b3935",
"An c #4b3b17",
"sw c #4b3b1a",
"n6 c #4b3d16",
"zI c #4b3e2b",
"fH c #4b4239",
"CA c #4b454f",
"Gd c #4b4640",
"rb c #4b4642",
"tR c #4b473e",
"B6 c #4b483f",
"lp c #4b4a46",
"lq c #4b4a48",
"tQ c #4b4b41",
"C7 c #4b4b43",
"bi c #4b4b49",
"G4 c #4b4b4b",
"je c #4b4c44",
"a0 c #4b4c46",
"dJ c #4b4c47",
"qh c #4b4e47",
"Gt c #4b5049",
"jB c #4b504c",
"d# c #4c2f2b",
"qf c #4c3516",
"u. c #4c390f",
"fE c #4c3b33",
"ht c #4c433e",
"QI c #4c4442",
"uH c #4c453b",
"gO c #4c453d",
"Kg c #4c4741",
"tN c #4c4743",
"RC c #4c483c",
"KT c #4c483d",
"j1 c #4c483f",
"C9 c #4c4940",
"t8 c #4c4942",
"nZ c #4c4944",
"Vv c #4c4a4b",
"ax c #4c4b46",
"be c #4c4b47",
"rx c #4c4c42",
"uW c #4c4c44",
"Yf c #4c4d45",
"jX c #4c4d47",
"ep c #4c4d48",
"OG c #4d2c00",
"Td c #4d391e",
"AC c #4d3d2e",
"jj c #4d3e39",
"q6 c #4d4037",
"Mz c #4d4131",
"mp c #4d423c",
"BA c #4d4246",
"Xe c #4d4337",
"VL c #4d493e",
"wE c #4d4940",
"r6 c #4d4a41",
"kg c #4d4b3e",
"c2 c #4d4c47",
"mZ c #4d4d4b",
"VH c #4d4d4d",
"lQ c #4d4e46",
"aZ c #4d4e48",
"#G c #4d4e49",
"ol c #4d544d",
"OF c #4e2d0e",
"D7 c #4e2e19",
"Bb c #4e3715",
"lm c #4e3c28",
"RD c #4e4131",
"gB c #4e413b",
"JL c #4e4244",
"IS c #4e4643",
"fD c #4e4943",
"ra c #4e4945",
"mz c #4e4a47",
"JQ c #4e4b44",
"ld c #4e4b46",
"tU c #4e4c40",
"e5 c #4e4d48",
"bw c #4e4d49",
"Fl c #4e4d4b",
"st c #4e4d53",
"k. c #4e4e46",
"br c #4e4f49",
"b3 c #4e4f4a",
"Vo c #4e534f",
"XJ c #4f2c06",
"Iu c #4f2f08",
"OE c #4f3618",
"FD c #4f3713",
"Kr c #4f371d",
"Nr c #4f3b23",
"Wd c #4f3b30",
"d2 c #4f3c35",
"hp c #4f463d",
"B9 c #4f4744",
"ga c #4f4842",
"Or c #4f494d",
"DB c #4f4a44",
"gf c #4f4a46",
"vp c #4f4b40",
"oV c #4f4b42",
"r7 c #4f4c43",
"nX c #4f4c45",
"Iz c #4f4c47",
"B8 c #4f4e3c",
"aO c #4f4e49",
"bM c #4f4e4a",
"uX c #4f4f45",
"kL c #4f504a",
"au c #4f504b",
"JM c #4f5144",
"FN c #4f5249",
"Dt c #502a15",
"FE c #502c14",
"Bw c #502c1c",
"NI c #503112",
"Wu c #503307",
"gP c #50332d",
"Pr c #50381c",
"zo c #50391a",
"KV c #503f2d",
"I9 c #504031",
"iz c #50453f",
"mQ c #504b45",
"lb c #504e3f",
"#I c #504f4a",
"qJ c #505046",
"yc c #505048",
"fS c #50504e",
"nm c #505141",
"hl c #505149",
"hU c #50514b",
"#n c #50514c",
"rU c #512508",
"mk c #513230",
"Oe c #513720",
"PA c #513d24",
"nW c #514038",
"HT c #514545",
"Q2 c #51472e",
"l# c #514746",
"In c #514a44",
"Hh c #514b35",
"oX c #514d42",
"pP c #514e45",
"CC c #514e47",
"qi c #514e49",
"iX c #514f50",
"av c #51504b",
"vw c #515147",
"g9 c #515149",
"bH c #51524c",
"TU c #51524d",
"Iy c #515345",
"Ke c #515346",
"lI c #515348",
"mf c #51544d",
"Vz c #515650",
"WP c #52300d",
"NH c #523307",
"GW c #52361e",
"Yl c #52371a",
"Ym c #523815",
"Yp c #523817",
"Yo c #523a14",
"TT c #523b19",
"t0 c #523b1b",
"Rk c #523e25",
"PM c #52402c",
"ev c #52413a",
"mn c #52433c",
"cX c #52433e",
"It c #524534",
"Fv c #524735",
"h3 c #524d49",
"lN c #524d4a",
"Hn c #524e43",
"qI c #524e45",
"x. c #524f46",
"jq c #524f4a",
"IT c #525043",
"aw c #52514c",
"bx c #52514d",
"pk c #525246",
"pL c #525248",
"No c #52534b",
"kw c #52534d",
"iB c #52534e",
"hY c #52554e",
"Xd c #533511",
"V2 c #533908",
"F# c #533b23",
"Av c #533c1d",
"Fc c #533d25",
"Sz c #534329",
"Rw c #53463d",
"Fk c #534842",
"pQ c #534a41",
"eR c #534c46",
"G9 c #534e48",
"J8 c #535047",
"kv c #535049",
"yV c #53504b",
"EN c #535144",
"nu c #535145",
"Gc c #535250",
"w9 c #535347",
"ff c #535351",
"fZ c #53544f",
"VM c #535552",
"Kj c #53594d",
"X5 c #54370f",
"PX c #543719",
"Pp c #543a15",
"T9 c #543a21",
"RK c #54442a",
"dU c #544540",
"oY c #54463d",
"kc c #544f49",
"ry c #545044",
"C5 c #545045",
"w7 c #545047",
"iH c #54504d",
"ju c #545148",
"ng c #54514c",
"eu c #54534e",
"TV c #54534f",
"yK c #545448",
"iP c #54544a",
"h7 c #54544c",
"Wh c #54554f",
"es c #545550",
"mC c #545649",
"Vn c #545651",
"UY c #545653",
"Ki c #54574e",
"UW c #545750",
"V. c #545955",
"WJ c #55330d",
"u3 c #553703",
"Yn c #553818",
"ln c #553b1a",
"Hw c #553c14",
"Ps c #55432b",
"ek c #55443c",
"PN c #554535",
"dG c #55473e",
"Pb c #554835",
"mj c #554a44",
"om c #554e3c",
"yL c #554e46",
"KS c #55504a",
"EM c #555145",
"h6 c #555146",
"xU c #555148",
"jP c #555249",
"xT c #55524b",
"l8 c #55524d",
"w8 c #555347",
"Ca c #55544f",
"Ut c #555450",
"TE c #555452",
"bK c #55554d",
"c. c #555650",
"#H c #555651",
"UJ c #555851",
"lx c #563735",
"S# c #563a0a",
"Yk c #563b1d",
"X4 c #563d14",
"Kp c #563e1c",
"O# c #563e22",
"FG c #56412e",
"OY c #56430b",
"m8 c #564c43",
"w6 c #564d48",
"lg c #564f45",
"m9 c #564f47",
"uL c #564f49",
"wf c #565044",
"tg c #56514b",
"o6 c #565246",
"ii c #565249",
"wh c #56534a",
"Ip c #565550",
"Uc c #565551",
"r5 c #56564a",
"mv c #56564c",
"dQ c #56564e",
"WO c #565654",
"Gx c #565749",
"ds c #56574f",
"Wg c #565751",
"Ua c #565752",
"e. c #565853",
"UX c #565952",
"DV c #573c2b",
"L1 c #573e28",
"Pa c #57411a",
"Q6 c #574227",
"PU c #57432b",
"Vi c #574424",
"zG c #57492f",
"l2 c #575145",
"JR c #57524c",
"xq c #575347",
"xV c #575348",
"uF c #57534a",
"iK c #57544b",
"wj c #57544d",
"BB c #575549",
"h. c #575651",
"Kf c #57574b",
"co c #57574f",
"Wy c #575755",
"X2 c #575757",
"c5 c #575850",
"b6 c #575852",
"Ub c #575853",
"H3 c #57594b",
"Yg c #575a53",
"xM c #582a1a",
"LD c #58350f",
"OQ c #583606",
"Ya c #583812",
"Yj c #583a1e",
"vv c #583c38",
"R9 c #583d22",
"Pg c #584332",
"Ie c #58441f",
"ot c #584620",
"L5 c #584a2f",
"fQ c #584d4b",
"bJ c #584f4a",
"go c #584f50",
"sV c #584f52",
"hF c #585149",
"nv c #585246",
"uK c #58534f",
"fl c #585350",
"hr c #585449",
"Jm c #58544b",
"nS c #585455",
"i4 c #58554c",
"sY c #58554e",
"g4 c #585550",
"DC c #585647",
"aQ c #585752",
"jN c #58584c",
"lB c #58584e",
"cK c #585850",
"Xh c #585856",
"Yh c #585858",
"Vg c #585951",
"dv c #585953",
"am c #585954",
"fI c #585a4f",
"eD c #585a55",
"Eh c #585d57",
"dL c #585e50",
"rP c #593623",
"XK c #593709",
"R3 c #59370a",
"yA c #593817",
"E6 c #593a28",
"FK c #593b21",
"sL c #593c2c",
"TO c #593d15",
"HN c #593d16",
"oC c #593e21",
"Nj c #593f1a",
"A4 c #594018",
"GQ c #59411f",
"zF c #594222",
"Qr c #59442f",
"Ek c #594733",
"AB c #59493a",
"ke c #594c46",
"uJ c #594d41",
"Pz c #594e3c",
"mo c #594e48",
"dz c #595049",
"o. c #595053",
"i9 c #59524a",
"pO c #59524c",
"DD c #59544e",
"Jl c #595549",
"iO c #59554a",
"wg c #59554c",
"Gy c #595552",
"Ji c #59564d",
"nY c #59564f",
"IG c #595651",
"jz c #59574b",
"ck c #595853",
"yI c #595856",
"l1 c #59594f",
"hv c #595951",
"gr c #595959",
"iu c #595a52",
"b. c #595a54",
"ft c #595a55",
"U9 c #595b56",
"gZ c #595e58",
"XA c #5a3a13",
"LP c #5a3c16",
"Xk c #5a3d1d",
"PB c #5a3e17",
"Pq c #5a3e19",
"Um c #5a4025",
"LO c #5a422a",
"VQ c #5a4317",
"Le c #5a4319",
"G3 c #5a4323",
"n. c #5a4844",
"WC c #5a4b2e",
"s7 c #5a4d45",
"rD c #5a5148",
"jy c #5a564b",
"fc c #5a5653",
"hu c #5a574e",
"vt c #5a584c",
"H4 c #5a5947",
"HD c #5a5a4e",
"Jj c #5a5a50",
"Yw c #5a5a5a",
"hh c #5a5b55",
"NN c #5a5b56",
"ny c #5a5d4c",
"gn c #5a5d54",
"W2 c #5b3812",
"I2 c #5b3a11",
"I7 c #5b3b02",
"WZ c #5b3c1d",
"SW c #5b3d19",
"Pw c #5b422c",
"Rv c #5b4530",
"T5 c #5b472e",
"e6 c #5b4c45",
"o5 c #5b5253",
"JO c #5b544a",
"FO c #5b544e",
"hL c #5b5650",
"gS c #5b574e",
"oq c #5b5847",
"c4 c #5b5851",
"la c #5b594d",
"cb c #5b5a55",
"FR c #5b5a56",
"cZ c #5b5b51",
"a8 c #5b5b53",
"dZ c #5b5b59",
"HC c #5b5c4c",
"fP c #5b5c56",
"CH c #5b5c57",
"mK c #5b5d4f",
"Vm c #5b5d5a",
"M6 c #5c3315",
"IM c #5c3913",
"Hd c #5c3f15",
"LQ c #5c3f17",
"S2 c #5c4221",
"XI c #5c4420",
"S3 c #5c4639",
"wb c #5c472a",
"ml c #5c4742",
"Ls c #5c4827",
"Nv c #5c4938",
"f2 c #5c4b44",
"rk c #5c4f47",
"nt c #5c5251",
"mw c #5c554b",
"k1 c #5c5754",
"ij c #5c584f",
"gy c #5c5950",
"xr c #5c5a4d",
"bS c #5c5b56",
"bs c #5c5c54",
"Uj c #5c5c5a",
"yJ c #5c5d4d",
"bP c #5c5d57",
"w2 c #5d2d16",
"OR c #5d4016",
"Tx c #5d411c",
"G7 c #5d4425",
"dF c #5d4942",
"yd c #5d4c42",
"j2 c #5d4e49",
"l0 c #5d5250",
"i0 c #5d534a",
"lA c #5d544d",
"kr c #5d594d",
"qH c #5d594e",
"i2 c #5d5950",
"uE c #5d5a51",
"bm c #5d5a53",
"bI c #5d5c57",
"eE c #5d5c58",
"T4 c #5d5c5a",
"d5 c #5d5d55",
"cc c #5d5e56",
"ea c #5d5e58",
"bl c #5d5e59",
"LR c #5e390f",
"XV c #5e3e15",
"Ld c #5e4024",
"Ru c #5e471d",
"OV c #5e4b2b",
"u6 c #5e4f3a",
"lw c #5e534d",
"mL c #5e5448",
"lJ c #5e554c",
"kq c #5e554e",
"Kz c #5e5b52",
"bB c #5e5b56",
"HS c #5e5c4f",
"jk c #5e5d58",
"a1 c #5e5e56",
"VJ c #5e5e5c",
"dc c #5e5f5a",
"ey c #5e6055",
"AW c #5f3412",
"sM c #5f371d",
"Xc c #5f3d17",
"Tr c #5f3e11",
"K5 c #5f4314",
"Hx c #5f431c",
"ih c #5f4342",
"pU c #5f4524",
"UE c #5f452a",
"Sa c #5f4922",
"Py c #5f4b33",
"xP c #5f5241",
"hs c #5f5452",
"i. c #5f564d",
"jM c #5f564f",
"dK c #5f5657",
"Jc c #5f574c",
"xa c #5f5850",
"hM c #5f5a54",
"dp c #5f5b58",
"wk c #5f5c53",
"bo c #5f5c57",
"ct c #5f5e59",
"f6 c #5f5e5c",
"D. c #5f5f57",
"VW c #5f5f5d",
"eT c #5f6052",
"sl c #5f6058",
"jZ c #5f605b",
"Ml c #604621",
"LG c #604826",
"S5 c #60482e",
"SS c #604929",
"OW c #604b16",
"GV c #604d2d",
"MT c #604e40",
"TH c #605130",
"mJ c #60574e",
"Mh c #605949",
"i1 c #605951",
"a2 c #605b55",
"cl c #605c53",
"hB c #605d4a",
"ge c #605d54",
"dq c #605d56",
"j4 c #605d58",
"rA c #605e52",
"#1 c #605f5a",
"Ih c #606054",
"cG c #606058",
"qu c #606159",
"aF c #60615b",
"e9 c #606255",
"Kn c #613b0c",
"Hv c #614321",
"Q# c #614327",
"OX c #61491b",
"QD c #61491d",
"KM c #61492d",
"r. c #61492f",
"wu c #614b3d",
"Jt c #614f39",
"gQ c #61524d",
"jv c #61544c",
"h8 c #615652",
"a9 c #615c56",
"vr c #615d54",
"zx c #615d5e",
"b9 c #615e55",
"in c #615e57",
"iS c #615f53",
"aC c #61605b",
"cu c #616157",
"wC c #616159",
"c7 c #61625c",
"Vx c #61625d",
"Ul c #623d13",
"qx c #62450b",
"IO c #624614",
"RE c #624a28",
"Sb c #624e2b",
"tV c #625451",
"kT c #625856",
"bU c #625d57",
"eS c #625e53",
"di c #62625a",
"jW c #62635b",
"bg c #62635d",
"Hf c #62635e",
"O. c #63430a",
"R. c #634513",
"yU c #634c2a",
"zH c #634e2f",
"Di c #634e33",
"dw c #63504a",
"DI c #63513d",
"Ro c #635236",
"RB c #63553a",
"wm c #635950",
"th c #635c54",
"bE c #635e58",
"lf c #635f53",
"tc c #63625d",
"N6 c #63634b",
"iA c #63635b",
"kF c #63645c",
"bf c #63645f",
"wp c #636864",
"rG c #644725",
"Ax c #644b2c",
"QV c #644f34",
"SR c #64502f",
"BQ c #645349",
"s5 c #64534c",
"vo c #64543b",
"UB c #645444",
"R5 c #645538",
"da c #645d57",
"e# c #645e5e",
"cF c #645f59",
"my c #646055",
"#2 c #64635e",
"cW c #64645c",
"hf c #646560",
"vl c #654617",
"WA c #654627",
"UA c #65482a",
"FJ c #654b32",
"M3 c #654d31",
"PP c #655847",
"jC c #65594d",
"jL c #655b52",
"cY c #655c53",
"hN c #655e54",
"k# c #656155",
"lL c #656156",
"rl c #656354",
"bO c #656460",
"i8 c #65655d",
"bh c #656661",
"K6 c #663f06",
"oH c #664115",
"Yb c #664522",
"Mn c #664b36",
"RY c #664c33",
"iN c #664d48",
"JV c #664f2f",
"Lq c #665038",
"o1 c #66543c",
"ko c #66554b",
"iL c #66554e",
"EZ c #66563c",
"LN c #665647",
"Ik c #665e51",
"ib c #665f55",
"fn c #666257",
"wl c #66635a",
"aE c #666560",
"yS c #666563",
"gM c #666762",
"K7 c #673d03",
"Tw c #674313",
"SI c #674a20",
"HM c #674b23",
"LF c #674f33",
"wq c #67553f",
"lP c #675843",
"dk c #675d54",
"ej c #675f52",
"hQ c #67625c",
"oU c #676358",
"x1 c #676362",
"cn c #67645b",
"vF c #67645f",
"hV c #676863",
"RX c #684623",
"sx c #68471a",
"w4 c #684b1f",
"xj c #684c24",
"Rr c #684e2b",
"md c #684e2d",
"C3 c #685218",
"L9 c #68542f",
"x5 c #685431",
"dT c #68554e",
"UR c #685b48",
"mU c #685c4c",
"se c #685e55",
"lc c #68614f",
"s4 c #686159",
"ku c #686256",
"l7 c #686458",
"kb c #68655c",
"V6 c #686667",
"bN c #686763",
"xf c #686765",
"At c #686866",
"Vf c #686963",
"Bc c #686964",
"Ht c #686a65",
"VD c #694923",
"p0 c #694e1f",
"Ms c #695137",
"OD c #695321",
"cP c #69564f",
"Gn c #695733",
"jx c #695851",
"qT c #695a3b",
"if c #695a3d",
"h# c #696357",
"kW c #69655c",
"pM c #69675a",
"Wj c #696768",
"#0 c #696863",
".p c #696967",
"jf c #696a65",
"AI c #6a3c22",
"Fe c #6a4c26",
"qN c #6a4c28",
"Vr c #6a4f1a",
"Mf c #6a5039",
"NW c #6a5216",
"ED c #6a584c",
"n8 c #6a6144",
"sr c #6a635b",
"cJ c #6a675e",
"nB c #6a685c",
"Rj c #6a6869",
"m3 c #6a6a68",
"hn c #6a6b66",
"La c #6a6d64",
"Q5 c #6b4518",
"HY c #6b4b22",
"Wc c #6b4f1d",
"Fd c #6b5021",
"A3 c #6b5035",
"B1 c #6b522a",
"A7 c #6b5432",
"Wv c #6b573c",
"c9 c #6b5e56",
"pw c #6b6155",
"s8 c #6b645e",
"jR c #6b6660",
"fm c #6b675e",
"ik c #6b6859",
"dl c #6b685f",
"Lo c #6b695c",
"oT c #6b695d",
"aP c #6b6a65",
"qt c #6b6b63",
"mh c #6b6b69",
"ww c #6b6e67",
"TG c #6c4d16",
"y8 c #6c4e36",
"Mm c #6c5029",
"G. c #6c502b",
"nq c #6c511a",
"qa c #6c5428",
"e8 c #6c5952",
"nh c #6c6459",
"h5 c #6c655b",
"jt c #6c665a",
"vs c #6c685d",
"g0 c #6c6c54",
"Xi c #6c6c6a",
"Bd c #6c6d67",
"hi c #6c6d68",
"Px c #6d4c2d",
"RM c #6d4d1c",
"LA c #6d4e18",
"tb c #6d4e20",
"X. c #6d5732",
"nk c #6d603e",
"i7 c #6d695e",
"hX c #6d6a63",
"gJ c #6d6e69",
"Ma c #6e4720",
"KN c #6e4912",
"Gk c #6e491d",
"zT c #6e4e37",
"K8 c #6e4f23",
"to c #6e502e",
"Qq c #6e5133",
"FV c #6e592e",
"UM c #6e5a35",
"Uv c #6e5b30",
"lz c #6e5d56",
"jJ c #6e605f",
"f1 c #6e655c",
"gA c #6e675f",
"im c #6e685c",
"hb c #6e6963",
"uG c #6e6b62",
"Ll c #6e6c5d",
"Lp c #6e6f61",
"LB c #6f4a1e",
"u0 c #6f4c16",
"Of c #6f512f",
"z. c #6f5e40",
"iW c #6f6039",
"DN c #6f604b",
"Tp c #6f695b",
"jr c #6f6b5f",
"hP c #6f6b60",
"b7 c #6f6b62",
"dH c #6f6d61",
"ah c #6f6e69",
".v c #6f706b",
"LC c #704c18",
"Sd c #70551e",
"U8 c #706352",
"d4 c #70675e",
"eb c #70685b",
"cm c #706c61",
"Ig c #707066",
"WY c #714f22",
"rS c #71564f",
"F. c #715844",
"Ak c #716441",
"mt c #716952",
"bC c #716a62",
"b8 c #716b5f",
"c3 c #716d64",
"bX c #716e65",
"FS c #71706b",
"#S c #71726d",
"Lj c #71735d",
"ws c #72491d",
"If c #724f25",
"Af c #72502b",
"JY c #72542e",
"Xp c #725631",
"BU c #725641",
"AD c #725825",
"Vk c #725835",
"tD c #725945",
"J0 c #725b29",
"Qn c #725f4e",
"Ky c #726656",
"bD c #726960",
"cv c #726a5f",
"cd c #726e65",
"h4 c #726f66",
"Lm c #727061",
"#3 c #72716c",
"LL c #72756e",
"AY c #735028",
"vU c #735749",
"E7 c #73583d",
"Xq c #735b39",
"GN c #735f2d",
"Yd c #736052",
"ro c #73634c",
"Ii c #736558",
"hE c #73694e",
"bT c #736b60",
"Lk c #736c59",
"cI c #736f64",
"Ln c #737061",
"bZ c #73726d",
"YS c #737373",
"f8 c #73746f",
"Xz c #745320",
"M5 c #74571b",
"uZ c #745b3d",
"iZ c #745f5a",
"U2 c #746141",
"cO c #746d65",
"bn c #747065",
"Is c #74716c",
"UP c #747472",
"DK c #747570",
"rt c #747673",
"Bl c #75501c",
"I6 c #755033",
"Xs c #755431",
"Gu c #75573b",
"Ov c #755830",
"Fx c #755a2f",
"SZ c #755a3c",
"Yc c #755b3a",
"sD c #756254",
"XC c #756450",
"dr c #756e66",
"fd c #756f5f",
"hZ c #75716e",
"XG c #757573",
"nU c #757671",
"wr c #764908",
"AA c #764f26",
"Xt c #765532",
"R2 c #765627",
"CQ c #765810",
"Xr c #765836",
"FX c #765a28",
"Bk c #765a32",
"oD c #765a33",
"Ew c #765b48",
"Ue c #766434",
"Jo c #766657",
"dM c #766e63",
"eF c #767060",
"f0 c #767267",
"iI c #767468",
"oO c #767674",
"EV c #767772",
"Ag c #775225",
"L2 c #775635",
"S1 c #77571e",
"K4 c #775822",
"Sc c #775933",
"LE c #775a3a",
"AZ c #775b36",
"oh c #775d20",
"tI c #775e3f",
"Rn c #776d63",
"bL c #777671",
"kI c #777775",
"m4 c #777873",
"HI c #777976",
"Mu c #78520b",
"NG c #78551f",
"sK c #785748",
"Mo c #785a34",
"yi c #785c51",
"pB c #785d3f",
"tC c #785d40",
"pm c #786334",
"VR c #786443",
"X3 c #786556",
"fF c #786b62",
"kU c #787264",
"pN c #787266",
"cA c #787773",
"jY c #787974",
"KI c #795428",
"CP c #795835",
"BT c #795944",
"xw c #795b3f",
"k7 c #795c34",
"rY c #796542",
"TY c #79663b",
"fR c #79684a",
"hO c #796f63",
"i6 c #797164",
"qF c #797365",
"kV c #797367",
"gz c #79756a",
"#b c #797977",
"Cw c #7a5125",
"Y# c #7a582b",
"O6 c #7a5923",
"mD c #7a592c",
"zn c #7a593a",
"C0 c #7a5e49",
"HE c #7a6047",
"Ex c #7a6053",
"Nw c #7a6320",
"GY c #7a6550",
"Vs c #7a664e",
"ex c #7a6c63",
"qG c #7a7265",
"UK c #7a7361",
"i5 c #7a766a",
"L0 c #7b5727",
"r2 c #7b5d37",
"AK c #7b6154",
"tE c #7b624e",
"Cq c #7b6349",
"sR c #7c512e",
"Uu c #7c5b25",
"Sm c #7c5e42",
"FZ c #7c5f35",
"By c #7c602e",
"tB c #7c633b",
"y9 c #7c6c52",
"Ys c #7c6c55",
"Go c #7c6d4e",
"iJ c #7c7668",
"rz c #7c766a",
"jQ c #7c786d",
"Gh c #7c7970",
"RN c #7d5a3a",
"uq c #7d5c33",
"mX c #7d5d2c",
"PL c #7d5d34",
"qz c #7d654b",
"EC c #7d6855",
"Cs c #7d6b53",
"jG c #7d6f55",
"dB c #7d7d7b",
"wI c #7e5c2e",
"OP c #7e5d30",
"uc c #7e5e38",
"kk c #7e5f33",
"PC c #7e623b",
"L7 c #7e6453",
"CJ c #7e6748",
"MY c #7e6851",
"Bv c #7e6954",
"mB c #7e6d51",
"ha c #7e776d",
"lt c #7e7d7b",
"Nx c #7f581d",
"CZ c #7f5928",
"PH c #7f5a25",
"Jr c #7f5c32",
"Ud c #7f5e2b",
"Jp c #7f6240",
"AL c #7f6244",
"xv c #7f634d",
"A0 c #7f7261",
"ic c #7f7764",
"HO c #7f7e7a",
"Bp c #806144",
"tA c #806246",
"C1 c #806343",
"DW c #80654a",
"XB c #806645",
"Yr c #80664d",
"GH c #80673f",
"CW c #806751",
"Ko c #806b50",
"VV c #806e5a",
"js c #807969",
"ix c #80817c",
"AE c #81582a",
"Gp c #815935",
"pa c #815d39",
"sC c #816148",
"rq c #81631b",
"Ae c #816331",
"yj c #81633f",
"E8 c #81663b",
"Yq c #81664b",
"pe c #81672e",
"vA c #816742",
"SV c #816947",
"ov c #816f4b",
"El c #816f5b",
"Qj c #817c76",
".0 c #81817f",
"NX c #825713",
"N9 c #825919",
"Gq c #825b20",
"Qm c #825b34",
"F1 c #826136",
"JZ c #826138",
"Li c #82785d",
"hC c #82786f",
"mx c #827b6b",
"lK c #827c6c",
"Hm c #83541c",
"Ct c #835b38",
"F2 c #835f2d",
"vi c #835f49",
"wN c #836145",
"jF c #83622c",
"sJ c #836356",
"sg c #83642e",
"sI c #83644f",
"XW c #836740",
"SD c #836944",
"I3 c #836950",
"gp c #836e3f",
"So c #836e53",
"l3 c #837864",
"ka c #837b6e",
"GR c #845d18",
"wK c #845e47",
"uA c #846129",
"vT c #846549",
"P9 c #846745",
"ur c #84694b",
"rQ c #846c54",
"Hi c #84725c",
"p3 c #847558",
"kC c #848381",
"w1 c #856246",
"Q9 c #856939",
"p2 c #857e78",
"uv c #865e16",
"AJ c #86644b",
"Mp c #866542",
"Kx c #86662d",
"tp c #866c39",
"Ib c #866c51",
"XX c #86715c",
"il c #867f6d",
"#B c #868684",
"yG c #875e30",
"yz c #875e48",
"NK c #876537",
"Lv c #876540",
"TX c #876631",
"Dh c #876b2a",
"AX c #876c37",
"v7 c #876d56",
"WK c #87715a",
"Mi c #877261",
"sE c #877466",
"QA c #877a69",
"G8 c #885827",
"O8 c #885c2f",
"tH c #885e24",
"Bo c #885e45",
"JX c #88602f",
"yh c #886046",
"Ey c #886551",
"St c #886640",
"AT c #88693d",
"w0 c #886a46",
"pi c #88733e",
"Eo c #888984",
"Jf c #896833",
"Ny c #896954",
"AU c #896a4e",
"Po c #896b45",
"WV c #896e41",
"QB c #896e50",
"E9 c #896f56",
"AV c #8a6344",
"zM c #8a672d",
"uN c #8a672f",
"xL c #8a6754",
"Lf c #8a6a39",
"Hp c #8a765b",
"v9 c #8b624c",
"Ss c #8b663a",
"Ry c #8b672d",
"W# c #8b6d49",
"D3 c #8b7055",
"mF c #8c682a",
"GL c #8c6a3a",
"u2 c #8c703e",
"NO c #8c7049",
"Ce c #8c775c",
"Ha c #8c7d46",
"GM c #8d5f23",
"sN c #8d6729",
"ki c #8d6740",
"IW c #8d6833",
"Kc c #8d6937",
"p8 c #8d6b2b",
"Nq c #8d7048",
"lU c #8e6932",
"EB c #8e6c51",
"xN c #8e6d28",
"S. c #8e703c",
"D2 c #8e7054",
"uw c #8e724d",
"pE c #8e7758",
"sG c #8e7a61",
"BR c #8f692a",
"I8 c #8f6c2c",
"Es c #8f6e43",
"Xu c #8f7248",
"CX c #8f735d",
"x4 c #8f7456",
"Ds c #8f8b66",
"EH c #906c32",
"wt c #906d45",
"D4 c #907d5c",
"Jq c #91672d",
"yy c #916a4d",
"uo c #916b3a",
"X6 c #916d39",
"pD c #916e2e",
"rp c #91702d",
"P0 c #917246",
"po c #917661",
"U0 c #918066",
"KC c #918369",
"JJ c #92693b",
"Rz c #926c2e",
"Vb c #926e3a",
"uf c #92826b",
"k5 c #937134",
"Am c #937141",
"sB c #937433",
"iU c #937551",
"Lr c #946a3a",
"Cx c #946c38",
"v8 c #946f55",
"Ez c #94714b",
"DZ c #94744e",
"Wl c #947546",
"NY c #947757",
"sF c #947862",
"VA c #947a55",
"Me c #94826e",
"mM c #94846d",
"wZ c #956946",
"Q8 c #956e2b",
"xu c #957056",
"qW c #957220",
"xi c #957343",
"AM c #95763d",
"TS c #95794a",
"qV c #957a2d",
"Ql c #957b62",
"u8 c #95885e",
"MZ c #958875",
"y3 c #967238",
"Y. c #96723e",
"p4 c #96733d",
"B4 c #967435",
"Pt c #96764d",
"Dy c #967b44",
"Ff c #967e36",
"DY c #976947",
"ST c #97714c",
"Ok c #977545",
"Jw c #97793b",
"F5 c #987744",
"V7 c #987852",
"Dv c #987b51",
"yg c #997249",
"MC c #997e4f",
"vg c #998668",
"Gs c #998c6a",
"nQ c #998e72",
"AF c #9a763a",
"OT c #9a794e",
"XU c #9a7a3d",
"Sn c #9a8351",
"Oq c #9a8a7d",
"M4 c #9b7534",
"XL c #9b7537",
"Sr c #9b7a44",
"GJ c #9b7c3b",
"C2 c #9b7d49",
"BK c #9b8063",
"WG c #9b815c",
"Uo c #9c7a4c",
"Mb c #9c7c56",
"MM c #9c7d4e",
"mG c #9c8267",
"I5 c #9c8563",
"MD c #9d8970",
"Q7 c #9e7b5b",
"vP c #9e8358",
"Tu c #9e8461",
"Mt c #9f772f",
"Tv c #9f7a45",
"nM c #9f7d50",
"Dk c #9f7e4b",
"QS c #9f7e5d",
"zL c #9f8143",
"TP c #9f856e",
"lW c #a07c3e",
"yk c #a07c4c",
"tz c #a08057",
"Do c #a0814b",
"IL c #a08768",
"NF c #a17842",
"CO c #a1793b",
"Vq c #a18148",
"tw c #a18369",
"Sq c #a1894d",
"Dz c #a18959",
"M# c #a18a6b",
"rK c #a18e6d",
"uh c #a1916d",
"Ni c #a2783e",
"nr c #a2854b",
"V3 c #a2886d",
"vV c #a28871",
"DR c #a37331",
"Cn c #a37c41",
"RF c #a38154",
"rr c #a38966",
"PK c #a47855",
"Fb c #a47f4a",
"X7 c #a48455",
"BV c #a48660",
"Jy c #a4874b",
"Ti c #a48a67",
"S6 c #a49078",
"t. c #a49463",
"KH c #a5743a",
"o8 c #a58556",
"X8 c #a58a55",
"Qz c #a58c6e",
"nK c #a59683",
"Dr c #a68155",
"GG c #a68856",
"B0 c #a6926d",
"ns c #a7803d",
"pb c #a78643",
"Jv c #a7874a",
"tx c #a78b5c",
"ts c #a78e87",
"v. c #a88b61",
"UT c #a88e6b",
"KO c #a98345",
"p1 c #a98537",
"Ly c #a98a4a",
"wL c #a98b69",
"Kk c #a9916b",
"JW c #aa824e",
"yx c #aa8654",
"yZ c #aa8858",
"X9 c #aa885a",
"Vp c #aa9675",
"vf c #ab824c",
"LS c #ab874b",
"Xb c #ab8846",
"Xo c #ab8852",
"LZ c #ab8a54",
"L4 c #ab8a57",
"Sh c #ab8c6d",
"Sp c #ab915e",
"SJ c #ab9160",
"q. c #aba478",
"Ev c #ac834d",
"Ee c #ac9a6a",
"Sy c #ac9c7a",
"Kl c #ad8255",
"E5 c #ad8955",
"Fh c #ad8e4b",
"LU c #ad8e4d",
"Sg c #ad8f5b",
"KZ c #ad9a79",
"A5 c #ae8241",
"Lz c #ae8954",
"T8 c #ae8a5a",
"DS c #ae8b51",
"g2 c #ae914d",
"VN c #ae9260",
"Kq c #ae967e",
"ui c #ae9986",
"y2 c #af8b3d",
"wM c #af916b",
"qd c #af955a",
"sQ c #af9759",
"rR c #af9878",
"Rg c #afa08d",
"E. c #b08b45",
"qe c #b08d49",
"OS c #b08d57",
"Ay c #b08f5a",
"R0 c #b0a587",
"Km c #b17f4a",
"yC c #b18a3d",
"SC c #b1905d",
"MS c #b19162",
"ta c #b1924f",
"KF c #b1975a",
"Oy c #b19772",
"ut c #b19774",
"Lt c #b19862",
"WX c #b19a4e",
"P3 c #b1a192",
"tr c #b1a88b",
"Lx c #b29657",
"WR c #b2a16d",
"Ks c #b38746",
"t1 c #b38c49",
"LT c #b3924b",
"LV c #b39356",
"M7 c #b3a372",
"J1 c #b4824f",
"KG c #b4883d",
"A6 c #b48945",
"Ts c #b48a58",
"xO c #b58e53",
"Xl c #b5954c",
"rX c #b59a55",
"mW c #b59f76",
"xK c #b69866",
"XT c #b69c5f",
"K0 c #b69e72",
"ye c #b79059",
"rL c #b79d64",
"VB c #b79f57",
"nN c #b88a56",
"J2 c #b88b47",
"vd c #b89048",
"Iw c #b8935c",
"u9 c #b89472",
"VO c #b89656",
"PW c #b8986f",
"Wb c #b8a15b",
"Eu c #b8a46f",
"zU c #b8ab7f",
"Sf c #b99257",
"Og c #b9a280",
"tF c #b9ad95",
"zN c #ba985b",
"vn c #ba994c",
"Pf c #ba9a74",
"Lw c #bb965f",
"Xy c #bb9e5c",
"p9 c #bba482",
"tt c #bba78f",
"Rb c #bba981",
"yw c #bc9d5a",
"F4 c #bc9e68",
"CS c #bca571",
"oj c #bd8e4a",
"FB c #bd986b",
"Vj c #bd9a64",
"wa c #be9953",
"X# c #bea05a",
"AG c #bea562",
"ul c #bfa46d",
"XM c #bfa960",
"nO c #c0944d",
"R# c #c09568",
"y5 c #c0964c",
"Fy c #c0994a",
"W3 c #c09d5b",
"W5 c #c0a771",
"Wr c #c0a77f",
"G# c #c19954",
"D1 c #c19c68",
"IP c #c29c5b",
"EG c #c29d57",
"vY c #c2a259",
"uO c #c2a271",
"KP c #c2a973",
"Ah c #c2ae73",
"yD c #c39351",
"Bm c #c39c63",
"q2 c #c39e46",
"LX c #c3a565",
"q3 c #c3a656",
"Op c #c3ae9b",
"EE c #c3af7a",
"A# c #c3b19b",
"Dn c #c49d62",
"y4 c #c49e5f",
"jE c #c49f51",
"xs c #c4a263",
"OA c #c5b594",
"KX c #c6a363",
"zV c #c6ae8c",
"yF c #c79b50",
"r0 c #c7a162",
"Se c #c7a25e",
"Al c #c7a46c",
"EA c #c7a679",
"E4 c #c7a975",
"oo c #c7aa68",
"q7 c #c7b084",
"Ac c #c7b992",
"ti c #c7ba8d",
"PI c #c8a058",
"u# c #c8b17b",
"oI c #c8ba73",
"oJ c #c9a06a",
"EF c #c9a358",
"y6 c #c9a456",
"Lg c #c9a865",
"Aj c #c9ab6f",
"Rs c #c9af7c",
"RR c #caae96",
"WI c #caaf5e",
"Xv c #cab37f",
"S0 c #cba574",
"SU c #cbaa77",
"wO c #cbb27c",
"Rc c #cbc2a3",
"Lh c #cca667",
"DM c #cca772",
"LY c #ccaf6d",
"xH c #ccbf7b",
"Rh c #cdaa82",
"LW c #cdaf71",
"RT c #cdbf9c",
"zu c #ceab5a",
"rZ c #ceab75",
"zP c #cec18a",
"Co c #cfaa5a",
"RW c #cfaa73",
"VZ c #cfb18b",
"FF c #cfb18d",
"zO c #cfbd7f",
"NE c #d0a271",
"vR c #d0ae57",
"NL c #d0b08a",
"sH c #d0b888",
"RJ c #d0b985",
"yE c #d19c58",
"T6 c #d1b180",
"q8 c #d1b56c",
"F3 c #d1bb6f",
"yf c #d1bb72",
"tL c #d1bc8d",
"y0 c #d2ac59",
"Fg c #d2ae4d",
"sP c #d2b25f",
"Ra c #d2ba94",
"uj c #d2cbae",
"Mv c #d3b26d",
"I1 c #d3b998",
"N8 c #d3be91",
"tu c #d3d0b1",
"Q3 c #d4b682",
"OB c #d4bb82",
"A. c #d4bc9a",
"Bq c #d4bd8b",
"V0 c #d5ab63",
"zK c #d5ac6e",
"zp c #d5b76e",
"yB c #d5b86c",
"R1 c #d5bb8a",
"TR c #d6b67d",
"Ad c #d6c194",
"zQ c #d6c381",
"s9 c #d6c99c",
"ua c #d6cab4",
"O5 c #d7b075",
"Ws c #d7ba76",
"Dg c #d7c2a5",
"CU c #d7c475",
"z# c #d7cb91",
"M8 c #d7ccb0",
"Q4 c #d8ad76",
"sz c #d8b861",
"K3 c #d8b979",
"rI c #d9b253",
"IA c #d9b674",
"O2 c #d9c0aa",
"L3 c #dab46b",
"Az c #dab879",
"KW c #daba6f",
"Gr c #dabd77",
"PE c #dac199",
"R4 c #dbb177",
"w. c #dbb47b",
"E0 c #dbb560",
"vQ c #dbb66f",
"FH c #dbc270",
"uy c #dbc498",
"o3 c #dbc57c",
"si c #dcbb6a",
"Ga c #dcc17c",
"EK c #ddaf64",
"DU c #ddba76",
"rV c #ddc388",
"xz c #ddd283",
"Cv c #deb871",
"Kt c #decc8e",
"Du c #dfb869",
"Cm c #dfbd8d",
"zm c #dfc781",
"Xa c #e0c075",
"v5 c #e0c284",
"Ou c #e1b576",
"sh c #e1b868",
"Va c #e1be94",
"uk c #e1c188",
"RG c #e1c98b",
"wY c #e1ca86",
"vB c #e2ba7c",
"Fa c #e2cb7b",
"vX c #e2ce89",
"RA c #e3bc83",
"Ai c #e3bd76",
"O1 c #e3c088",
"sO c #e3c77e",
"FA c #e4c27b",
"Lu c #e4c67d",
"D9 c #e4c769",
"sy c #e4c87f",
"Cy c #e4c887",
"ph c #e4c97a",
"RU c #e4cd99",
"FM c #e5c067",
"Wa c #e5c97f",
"rN c #e5cc93",
"Et c #e6ba61",
"EJ c #e6bf70",
"iV c #e6c17b",
"Fz c #e6c278",
"Dm c #e6c38d",
"xI c #e6c97d",
"W4 c #e6ce84",
"va c #e6d698",
"mE c #e7cb81",
"qO c #e7d597",
"Cz c #e7dbb1",
"xy c #e8bb7a",
"CT c #e8be76",
"BZ c #e8cc78",
"Ft c #e8d286",
"Cu c #e9c299",
"ou c #e9c787",
"RV c #eac99c",
"v4 c #eacf76",
"qy c #eacf82",
"u1 c #ead086",
"HF c #ead691",
"zW c #ead8a6",
"wV c #eadc83",
"B3 c #ebc972",
"vc c #ebca83",
"nF c #ebd0a1",
"uz c #ebd29c",
"Xw c #ebd38d",
"v# c #ebd477",
"oi c #ebd57f",
"sA c #ebd781",
"z9 c #ebdba8",
"E1 c #ebdc9b",
"un c #ecd091",
"Xm c #ecd47c",
"o2 c #ecd794",
"vZ c #edcb83",
"wR c #edda7c",
"ne c #eddca8",
"AH c #ede1ad",
"v0 c #ede69e",
"pd c #eecb79",
"H5 c #eed996",
"pW c #eedc90",
"E2 c #efc57d",
"RH c #efd195",
"p5 c #efd588",
"CY c #f0c590",
"O0 c #f0d38f",
"wW c #f0eba9",
"vk c #f1c972",
"rJ c #f1cb82",
"zl c #f1de99",
"JI c #f1e090",
"qZ c #f1ebeb",
"Dq c #f2d088",
"qP c #f2d879",
"v2 c #f2da78",
"RI c #f2da94",
"yt c #f2eb9b",
"BS c #f3cb83",
"Dl c #f3d494",
"oc c #f3d59f",
"xx c #f3da97",
"WQ c #f3db91",
"K2 c #f3e0a8",
"yu c #f3e487",
"KD c #f3e4b9",
"BW c #f3e58c",
"yn c #f3ebaa",
"pn c #f4d39e",
"zq c #f4d78b",
"q1 c #f4d982",
"WB c #f4dc9e",
"BX c #f4efab",
"PD c #f5d7a1",
"Xx c #f5d894",
"K1 c #f5e6bf",
"nP c #f5e8bc",
"KE c #f6eaba",
"z8 c #f6ecaf",
"z5 c #f6f9e4",
"wJ c #f7cf91",
"Gv c #f7d08d",
"CV c #f7d679",
"ie c #f7db88",
"CN c #f7dea6",
"Je c #f7e293",
"zS c #f7fbe2",
"Gw c #f8dea5",
"Nh c #f8dfb7",
"XS c #f8e19d",
"AO c #f8e996",
"OZ c #f8eaab",
"mc c #f8eabd",
"AP c #f8efb8",
"zb c #f8f1a9",
"hD c #f9d37e",
"O9 c #f9d99e",
"Mw c #f9eac3",
"N7 c #f9f5c8",
"Ab c #f9f6c9",
"rW c #fad98c",
"vm c #fada9d",
"D5 c #fae095",
"AN c #fae687",
"zR c #fae6a7",
"P. c #fae6ab",
"ym c #faea8a",
"z6 c #fafbdc",
"Bt c #fafce4",
"v1 c #fafdea",
"FW c #fbd582",
"pV c #fbd991",
"up c #fbdca3",
"AS c #fbe496",
"OC c #fbe8b0",
"WW c #fcdf9d",
"zr c #fce59f",
"VC c #fce7a8",
"q0 c #fcf0e4",
"p6 c #fcf5c7",
"wS c #fcf8cb",
"vW c #fcf9d8",
"xE c #fcfcd6",
"z4 c #fcfdf5",
"wT c #fcffea",
"AR c #fcfff8",
"Q. c #fddb94",
"IV c #fddd90",
"n7 c #fde09c",
"w3 c #fde384",
"zX c #fdeec5",
"Dp c #fdf8c0",
"zc c #fdfbcb",
"xC c #fdfde5",
"yp c #fdfff9",
"ze c #fdfffe",
"qU c #fed78a",
"u4 c #fedd90",
"rM c #fede91",
"DX c #fedead",
"yv c #fee998",
"zs c #feefaa",
"ug c #fef1cf",
"qY c #fef3dd",
"zZ c #fef7cb",
"tv c #fefdeb",
"z3 c #fefeff",
"zd c #feffea",
"z1 c #fefff3",
"yr c #fefff7",
"yq c #fefff9",
"Bx c #ffd799",
"xt c #ffd895",
"v3 c #ffdb8f",
"Gj c #ffdc88",
"xJ c #ffde94",
"ud c #ffde9f",
"Br c #ffe0aa",
"Te c #ffe0b1",
"yl c #ffe187",
"qX c #ffe2b3",
"q9 c #ffe4ac",
"Bn c #ffe5a5",
"q# c #ffe699",
"QC c #ffe6a1",
"UL c #ffe6a8",
"w# c #ffe785",
"Xn c #ffe898",
"rH c #ffe99c",
"VP c #ffe9b0",
"ty c #ffe9b3",
"ve c #ffea9e",
"V1 c #ffeaac",
"U1 c #ffeaad",
"us c #ffeacb",
"Fu c #ffeb8b",
"p7 c #ffeba1",
"r1 c #ffebb9",
"zt c #ffeca2",
"lV c #ffeca4",
"D0 c #ffeda9",
"FL c #ffedb4",
"Rt c #ffefc9",
"q4 c #fff0ab",
"EI c #fff0be",
"WH c #fff1ab",
"Wt c #fff2a9",
"XR c #fff3b0",
"D8 c #fff4a7",
"XP c #fff4b5",
"XN c #fff4b8",
"wQ c #fff4ba",
"wU c #fff5af",
"XQ c #fff5ba",
"y1 c #fff6aa",
"zj c #fff6b1",
"XO c #fff6b8",
"k6 c #fff6c1",
"za c #fff6c2",
"v6 c #fff6d5",
"zk c #fff7a5",
"kj c #fff7b9",
"zY c #fff7c6",
"wP c #fff7d2",
"BY c #fff7db",
"F0 c #fff8c5",
"vh c #fff8d7",
"z7 c #fff9ca",
"tq c #fff9d2",
"pc c #fffb9f",
"um c #fffbd1",
"y7 c #fffcc8",
"u7 c #fffce3",
"zh c #fffcf3",
"zi c #fffdd3",
"wX c #fffde2",
"Bs c #fffecc",
"xB c #fffed0",
"tG c #fffede",
"z0 c #fffedf",
"xA c #fffee1",
"ys c #fffeef",
"xD c #fffef9",
"xF c #ffffd5",
"xG c #ffffda",
"vb c #ffffde",
"Cr c #ffffe3",
"AQ c #ffffec",
"zg c #ffffed",
"yo c #fffff0",
"z2 c #fffff1",
"zf c #fffff7",
"Bu c #fffffa",
"QtQtQtQtQtQtQtQtQtQtQtQtQtQtQtQtQtQtQtQtQtQtQtQtQtQtQtQtQtQtQtQtQtQtQtQtQtQtQtQtQtQtQtQtQtQtQtQtQtQtQtQtQtQtQtQtQtQtQtQtQtQtQtQtQtQtQtQtQtQtQtQtQtQtQtQtQtQtQtQtQtQtQtQtQtQtQtQtQtQtQtQtQtQtQtQtQtQtQtQtQtQtQtQtQtQtQtQtQtQtQtQtQtQtQtQtQtQtQtQtQtQtQtQtQtQtQtQt",
"QtQtQtQtQtQtQtQtQtQtQtQtQtQtQtQtQtQtQtQtQtQtQtQtQtQtQtQtQtQtQtQtQtQtQtQtQtQtQtQtQtQtQtQtQtQtQtQtQtQtQtQtQtQtQtQtQtQtQtQtQtQtQtQtQtQtQtQtQtQtQtQtQtQtQtQtQtQtQtQtQtQtQtQtQtQtQtQtQtQtQtQtQtQtQtQtQtQtQtQtQtQtQtQtQtQtQtQtQtQtQtQtQtQtQtQtQtQtQtQtQtQtQtQtQtQtQtQt",
"QtQtQtQtQtQtQtQtQtQtQtQtQtQtQtQtQtQtQtQtQtQtQtQtQtQtQtQtQtQtQtQtQtQtQtQtQtQtQtQtQtQtQtQtQtQtQtQtQtQtQtQtQtQtQtQtQtQtQtQtQtQtQtQtQtQtQtQtQtQtQtQtQtQtQtQtQtQtQtQtQtQtQtQtQtQtQtQtQtQtQtQtQtQtQtQtQtQtQtQtQtQtQtQtQtQtQtQtQtQtQtQtQtQtQtQtQtQtQtQtQtQtQtQtQtQtQtQt",
"QtQtQtQtQtQtQtQtQtQtQtQtQtQtQtQtQtQtQtQtQtQtQtQtQtQtQtQtQtQtQtQtQtQtQtQtQtQtQtQtQtQtQtQtQtQtQtQtQtQtQtQtQtQtQtQtQtQtQtQtQtQtQtQtQtQtQtQtQtQtQtQtQtQtQtQtQtQtQtQtQtQtQtQtQtQtQtQtQtQtQtQtQtQtQtQtQtQtQtQtQtQtQtQtQtQtQtQtQtQtQtQtQtQtQtQtQtQtQtQtQtQtQtQtQtQtQtQt",
"QtQtQtQtQtQtQtQtQtQtQtQtQtQtQtQtQtQtQtQtQtQtQtQtQtQtQtQtQtQtQtQtQtQtQtQtQtQtQtQtQtQtQtQtQtQtQtQtQtQtQtQtQtQtQtQtQtQtQtQtQtQtQtQtQtQtQtQtQtQtQtQtQtQtQtQtQtQtQtQtQtQtQtQtQtQtQtQtQtQtQtQtQtQtQtQtQtQtQtQtQtQtQtQtQtQtQtQtQtQtQtQtQtQtQtQtQtQtQtQtQtQtQtQtQtQtQtQt",
"QtQtQtQtQtQtQtQtQtQtQtQtQtQtQtQtQtQtQtQtQtQtQtQtQtQtQtQtQtQtQtQtQtQtQtQtQtQtQtQtQtQtQtQtQtQtQtQtQtQtQtQtQtQtQtQtQtQt.#.aQtQtQtQtQtQtQtQtQtQtQtQtQtQtQtQtQtQtQtQtQtQtQtQtQtQtQtQtQtQtQtQtQtQtQtQtQtQtQtQtQtQtQtQtQtQtQtQtQtQtQtQtQtQtQtQtQtQtQtQtQtQtQtQtQtQtQtQt",
"QtQtQtQtQtQtQtQtQtQtQtQtQtQtQtQtQtQtQtQtQtQtQtQtQtQtQtQtQtQtQtQtQtQtQtQtQtQtQtQtQtQtQtQtQtQtQtQtQtQtQtQtQtQtQt.b.c.d.d.e.f.gQtQtQtQtQtQtQtQtQtQtQtQtQtQtQtQtQtQtQtQtQtQtQtQtQtQtQtQtQtQtQtQtQtQtQtQtQtQtQtQtQtQtQtQtQtQtQtQtQtQtQtQtQtQtQtQtQtQtQtQtQtQtQtQtQtQt",
"QtQtQtQtQtQtQtQtQtQtQtQtQtQtQtQtQtQtQtQtQtQtQtQtQtQtQtQtQtQtQtQtQtQtQtQtQtQtQtQtQtQtQtQtQtQtQtQtQtQtQtQtQtQtQt.h.d.i.j.k.l.m.nQtQtQtQtQtQtQtQtQtQtQtQtQtQtQtQtQtQtQtQtQtQtQtQtQtQtQtQtQtQtQtQtQtQtQtQtQtQtQtQtQtQtQtQtQtQtQtQtQtQtQtQtQtQtQtQtQtQtQtQtQtQtQtQtQt",
"QtQtQtQtQtQtQtQtQtQtQtQtQtQtQtQtQtQtQtQtQtQtQtQtQtQtQtQtQtQtQtQtQtQtQtQtQtQtQtQtQtQtQtQtQtQtQtQtQtQtQtQtQtQt.o.p.q.r.s.t.u.v.wQtQtQtQtQtQtQtQtQtQtQtQtQtQtQtQtQtQtQtQtQtQtQtQtQtQtQtQtQtQtQtQtQtQtQtQtQtQtQtQtQtQtQtQtQtQtQtQtQtQtQtQtQtQtQtQtQtQtQtQtQtQtQtQtQt",
"QtQtQtQtQtQtQtQtQtQtQtQtQtQtQtQtQtQtQtQtQtQtQtQtQtQtQtQtQtQtQtQtQtQtQtQtQtQtQtQtQtQtQtQtQtQtQtQtQtQtQtQtQtQt.o.x.x.y.y.z.A.B.CQtQtQtQtQtQtQtQtQtQtQt.D.E.F.G.HQtQtQtQtQtQtQtQtQtQtQtQtQtQtQtQtQtQtQtQtQtQtQtQtQtQtQtQtQtQtQtQtQtQtQtQtQtQtQtQtQtQtQtQtQtQtQtQtQt",
"QtQtQtQtQtQtQtQtQtQtQtQtQtQtQtQtQtQtQtQtQtQtQtQtQtQtQtQtQtQtQtQtQtQtQtQtQtQtQtQtQtQtQtQtQtQtQtQtQtQtQtQtQtQt.o.I.J.K.L.L.L.M.NQtQtQtQtQtQtQtQtQtQt.O.u.k.P.Q.x.RQtQtQtQtQtQtQtQtQtQtQtQtQtQtQtQtQtQtQtQtQtQtQtQtQtQtQtQtQtQtQtQtQtQtQtQtQtQtQtQtQtQtQtQtQtQtQtQt",
"QtQtQtQtQtQtQtQtQtQtQtQtQtQtQtQtQtQtQtQtQtQtQtQtQtQtQtQtQtQtQtQtQtQtQtQtQtQtQtQtQtQtQtQtQtQtQtQtQtQtQtQtQtQt.o.S.T.K.K.L.L.U.VQtQtQtQtQtQtQtQtQt.W.X.P.i.Y.Z.i.0.1QtQtQtQtQtQtQtQtQtQtQtQtQtQtQtQtQtQtQtQtQtQtQtQtQtQtQtQtQtQtQtQtQtQtQtQtQtQtQtQtQtQtQtQtQtQtQt",
"QtQtQtQtQtQtQtQtQtQtQtQtQtQtQtQtQtQtQtQtQtQtQtQtQtQtQtQtQtQtQtQtQtQtQtQtQtQtQtQtQtQtQtQtQt.2.3.4QtQtQtQtQtQt.o.I.T.L.K.V.N.5.6.#QtQtQtQtQtQtQtQt.7.8.9.P#.#.###a#b.mQtQtQtQtQtQtQtQtQtQtQtQtQtQtQtQtQtQtQtQtQtQtQtQtQtQtQtQtQtQtQtQtQtQtQtQtQtQtQtQtQtQtQtQtQtQt",
"QtQtQtQtQtQtQtQtQtQtQtQtQtQtQtQtQtQtQtQtQtQtQtQtQtQtQtQtQtQtQtQtQtQtQtQtQtQtQtQtQtQtQt#c#d#e#f.y.4QtQtQtQtQt#g.U.N.K.T.N.N###g#hQtQtQtQtQtQtQtQt#i#j.9.Y#k#l#m.P#n.mQtQtQtQtQtQtQtQtQtQtQtQtQtQtQtQtQtQtQtQtQtQtQtQtQtQtQtQtQtQtQtQtQtQtQtQtQtQtQtQtQtQtQtQtQtQt",
"QtQtQtQtQtQtQtQtQtQtQtQtQtQtQtQtQtQtQtQtQtQtQtQtQtQtQtQtQtQtQtQtQtQtQtQtQtQtQtQtQtQt#o.m.i#p#p#q#r.4QtQtQtQt#g#s.V#t#u#u#v#w#w#xQtQtQtQtQtQtQtQt#y#j#z#z#A#A#p.l#n#xQtQtQtQtQtQtQtQtQtQtQtQtQtQtQtQtQtQtQtQtQtQtQtQtQtQtQtQtQtQtQtQtQtQtQtQtQtQtQtQtQtQtQtQtQtQt",
"QtQtQtQtQtQtQtQtQtQtQtQtQtQtQtQtQtQtQtQtQtQtQtQtQtQtQtQtQtQtQtQtQtQtQtQtQtQtQtQtQtQt.4#B#C.T.Z.e#D#E#FQtQt.o#G#s#H#I#J#J#K#L.M#MQtQtQtQtQtQtQtQt#N#O#P#z#A#l#Q.u#n#RQtQtQtQtQtQtQtQtQtQtQtQtQtQtQtQtQtQtQtQtQtQtQtQtQtQtQtQtQtQtQtQtQtQtQtQtQtQtQtQtQtQtQtQtQtQt",
"QtQtQtQtQtQtQtQtQtQtQtQtQtQtQtQtQtQtQtQtQtQtQtQtQtQtQtQtQtQtQtQtQtQtQtQtQtQtQtQtQt.4#S#T#U#z#z#A#V#W#XQtQt.o#Y#Z.T#0#1#2#3#4#5.mQtQtQtQtQtQtQtQt#6#7#g#8#P.Y#Q#Q#n#9QtQtQtQtQtQtQtQtQtQtQtQtQtQtQtQtQtQtQtQtQtQtQtQtQtQtQtQtQtQtQtQtQtQtQtQtQtQtQtQtQtQtQtQtQtQt",
"QtQtQtQtQtQtQtQtQtQtQtQtQtQtQtQtQtQtQtQtQtQtQtQtQtQtQtQtQtQtQtQtQtQtQtQtQtQtQtQtQt.4a.#sa##z#z#laa#WabQtQt.oacadaeafag#3ahaiaj.mQtQtQtQtQtQtQtQtak.9alam.J.8.I#Q#n.m.mQtQtQtQtQtQtQtQtQtQtQtQtQtQtQtQtQtQtQtQtQtQtQtQtQtQtQtQtQtQtQtQtQtQtQtQtQtQtQtQtQtQtQtQtQt",
"QtQtQtQtQtQtQtQtQtQtQtQtQtQtQtQtQtQtQtQtQtQtQtQtQtQtQtQtQtQtQtQtQtQtQtQtQtQtQtQt.4.4an#gao#z#zapaq.harQtQt.oasatauavawaxaway#Z.mQtQtQtQtQtQtQtaz.maAaBaCaDaEaF#Q#Q#n.mQtQtQtQtQtQtQtQtQtQtQtQtQtQtQtQtQtQtQtQtQtQtQtQtQtQtQtQtQtQtQtQtQtQtQtQtQtQtQtQtQtQtQtQtQt",
"QtQtQtQtQtQtQtQtQtQtQtQtQtQtQtQtQtQtQtQtQtQtQtQtQtQtQtQtQtQtQtQtQtQtQtQtQtQtQtQtaGaHaIaJ.T.Z.ZapaaaKQtQtQt.oasaL.VaBagaM#Iai.N.mQtQtQtQtQtQtQtaN.manaOaPaQaRaS#Q#Q#n.mQtQtQtQtQtQtQtQtQtQtQtQtQtQtQtQtQtQtQtQtQtQtQtQtQtQtQtQtQtQtQtQtQtQtQtQtQtQtQtQtQtQtQtQtQt",
"QtQtQtQtQtQtQtQtQtQtQtQtQtQtQtQtQtQtQtQtQtQtQtQtQtQtQtQtQtQtQtQtQtQtQtQtQtQtQtQtaTaUaVaW.VaX.T.x.GQtQtQtQt.oacaYaZa0a1a2#1a3a4.ma5QtQtQtQtQtQta6.ma7a8a9b.b#ba#Q#Q#n.mQtQtQtQtQtQtQtQtQtQtQtQtQtQtQtQtQtQtQtQtQtQtQtQtQtQtQtQtQtQtQtQtQtQtQtQtQtQtQtQtQtQtQtQtQt",
"QtQtQtQtQtQtQtQtQtQtQtQtQtQtQtQtQtQtQtQtQtQtQtQtQtQtQtQtQtQtQtQtQtQtQtQtQtQtQtQtbbbcbdbebfbgbh#Z.GQtQtQtQt.obibjbkblbmbnboa3a4.mbpQtQtQtQtQtQtbqatbrbsa2btbu#Q#Q#Q#n.mQtQtQtQtQtQtQtQtQtQtQtQtQtQtQtQtQtQtQtQtQtQtQtQtQtQtQtQtQtQtQtQtQtQtQtQtQtQtQtQtQtQtQtQtQt",
"QtQtQtQtQtQtQtQtQtQtQtQtQtQtQtQtQtQtQtQtQtQtQtQtQtQtQtQtQtQtQtQtQtQtQtQtQtQtQt.4.4bvbwbxbybzba.UbAQtQtQtQtQt.oaYb.bBbCbDbEbFbz.mbpQtQtQtQtQtQtbGaLbHbIa9bJbK#Q#Q#QaC.mQtQtQtQtQtQtQtQtQtQtQtQtQtQtQtQtQtQtQtQtQtQtQtQtQtQtQtQtQtQtQtQtQtQtQtQtQtQtQtQtQtQtQtQtQt",
"QtQtQtQtQtQtQtQtQtQtQtQtQtQtQtQtQtQtQtQtQtQtQtQtQtQtQtQtQtQtQtQtQtQtQtQtQtQtQt.4bL.UbMbNbObP.6bQ.GQtQtQtQtQt.obRb.bSbCbTbU#8bVbW.m.#QtQtQtQtQtbG#wawbPbXbYbK#Q#Q#naC.mQtQtQtQtQtQtQtQtQtQtQtQtQtQtQtQtQtQtQtQtQtQtQtQtQtQtQtQtQtQtQtQtQtQtQtQtQtQtQtQtQtQtQtQtQt",
"QtQtQtQtQtQtQtQtQtQtQtQtQtQtQtQtQtQtQtQtQtQtQtQtQtQtQtQtQtQtQtQtQtQtQtQtQtQtQt.4bZ#L.Tb0b1b2b3b4.Pb5QtQtQtQt.obWb6bsb7b8b9c.c#aY.mcaQtQtQtQtQt.oa3cbcccdcebK#Q#Q#n.m.mQtQtQtQtQtQtQtQtQtQtQtQtQtQtQtQtQtQtQtQtQtQtQtQtQtQtQtQtQtQtQtQtQtQtQtQtQtQtQtQtQtQtQtQtQt",
"QtQtQtQtQtQtQtQtQtQtQtQtQtQtQtQtQtQtQtQtQtQtQtQtQtQtQtQtQtQtQtQtQtQtQtQtQtQtQt.4bL#scf.6#ucg#Ich.9ciQtQtQtQt.ocjckbsclcmcncocpcq.4crQtQtQtQtQtcsayctcucvcwbK#Q#QaC.mcxQtQtQtQtQtQtQtQtQtQtQtQtQtQtQtQtQtQtQtQtQtQtQtQtQtQtQtQtQtQtQtQtQtQtQtQtQtQtQtQtQtQtQtQtQt",
"QtQtQtQtQtQtQtQtQtQtQtQtQtQtQtQtQtQtQtQtQtQtQtQtQtQtQtQtQtQtQtQtQtcy.Y#aczQtQt.4cAcBcCcDagcEcFcGba.FcHQtQtQt.ocjckcka2cIcJcK#tcL.4cMQtQtQtQt.obgcNbScOcPcQbK#Q#QaC.mQtQtQtQtQtQtQtQtQtQtQtQtQtQtQtQtQtQtQtQtQtQtQtQtQtQtQtQtQtQtQtQtQtQtQtQtQtQtQtQtQtQtQtQtQtQt",
"QtQtQtQtQtQtQtQtQtQtQtQtQtQtQtQtQtQtQtQtQtQtQtQtQtQtQtQtQtQtQtQt#w.8.9cRcScTQtQt.4cUcVcDcWcXcYcZcDc0c1QtQtQt.ocjc2cba9c3c4c5ay##.4c6QtQtQtQt.oc7c8cbc9d.d#da#Q#Z.m.mQtQtQtQtQtQtQtQtQtQtdbdbdbQtQtQtQtQtQtQtQtQtQtQtQtQtQtQtQtQtQtQtQtQtQtQtQtQtQtQtQtQtQtQtQtQt",
"QtQtQtQtQtQtQtQtQtQtQtQtQtQtQtQtQtQtQtQtQtQtQtQtQtQtQtQtQtQt.#dcdd#5.zcRdedfQtQt.4dgdh.Ndidjdkdl#8dmdnQtQtQt.odoc2dpdqdrc4dsaiaL.4dtQtQtQtQt.odudvbmdwdxdydz#Qaj.m.mQtQtQtQtQtQtQtQtQtdA.9dBdCQtQtQtQtQtQtQtQtQtQtQtQtQtQtQtQtQtQtQtQtQtQtQtQtQtQtQtQtQtQtQtQtQt",
"QtQtQtQtQtQtQtQtQtQtQtQtQtQtQtQtQtQtQtQtQtQtQtQtQtQtQtQtQtQtdD.GaL.z.K#faqaqQtQt.4dEaj.TbsdFdGdHcbb4dIQtQtQt.oaSdJdKdLdMcDc2dNad##dOQtQtQtQt.odPdQdRdSdTdUdV#Q.A.mdWQtQtQtQtQtQtQtQtdX.B.UdYdZdbQtQtQtQtQtQtQtQtQtQtQtQtQtQtQtQtQtQtQtQtQtQtQtQtQtQtQtQtQtQtQtQt",
"QtQtQtQtQtQtQtQtQtQtQtQtQtQtQtQtQtQtQtQtQtQtQtQtQtQtQtQtQtQtd0.IbQ.k#zd1apaqQtQt.4#uaLaJaQd2d3d4d5a7d6d7QtQtd8d9e.e#eaebeceddNeedoefQtQtQt.oegbya9eheiejekel.V.P.memQtQtQtQtQtQt.#eneoepeqdYbPdbQtQtQtQtQtQtQtQtQtQtQtQtQtQtQtQtQtQtQtQtQtQtQtQtQtQtQtQtQtQtQtQt",
"QtQtQtQtQtQtQtQtQtQtQtQtQtQtQtQtQtQtQtQtQtQtQtQtQtQtQtQtQteresae#O.y.kaqapetQtQtQt.4cBc#euevewexeyezaAeAQtQteBeCeDbFeEeFeGeHb4#teIeJeKeLeMeNeOePeQeReSeTeUeVeWeX.mQtQtQtQtQtQtQteY.AcybaeZ#OdgdbQtQtQtQtQtQtQtQtQtQtQtQtQtQtQtQtQtQtQtQtQtQtQtQtQtQtQtQtQtQtQtQt",
"QtQtQtQtQtQtQtQtQtQtQtQtQtQtQtQtQtQtQtQtQtQtQtQtQtQtQtQtQte0c.e1#O.y.kaqcSe2QtQtQt.4e3e4e5e6e7e8e9f.dXf#QtQtfafbameQfcfdfeeGffeQeIfgfhfieBfjeebFfkflfmfnfofpfqfrdQ.mQtQtQtQtQtQtfs.dfteofufvfwfxQtQtQtQtQtQtQtQtQtQtQtQtQtQtQtQtQtQtQtQtQtQtQtQtQtQtQtQtQtQtQtQt",
"QtQtQtQtQtQtQtQtQtQtQtQtQtQtQtQtQtQtQtQtQtQtQtQtQtQtQtQt.4fy.IfzbjcR.yfAfBQtQtQtQt.4bjfCfDfEfFfGfHfIfJfKfLQtfMfNb4fOfPfQfReGfSfTfUfVfW.U.JfXfYb4fZd5f0f1f2f3f4f5f6.mQtQtQtQtQtdbeX#Ueac8eo#maof7QtQtQtQtQtQtQtQtQtQtQtQtQtQtQtQtQtQtQtQtQtQtQtQtQtQtQtQtQtQtQtQt",
"QtQtQtQtQtQtQtQtQtQtQtQtQtQtQtQtQtQtQtQtQtQtQtQtQtQtQtQt.4f8#se1bz#m.Lapf9QtQtQtQt.4g.g#gagbfngcgdgegfggghgigjgkglgmgngogpgqgr#tgsgtgugvgwayaigxb6gygzgAgBgCgDgEbO.mQtQtQtQtQtdbgF.6b.c8eogGgHgHgIQtQtQtQtQtQtQtQtQtQtQtQtQtQtQtQtQtQtQtQtQtQtQtQtQtQtQtQtQtQtQt",
"QtQtQtQtQtQtQtQtQtQtQtQtQtQtQtQtQtQtQtQtQtQtQtQtQtQtQtQt.4gJ#sb6gKc.aZ#rgLQtQtQtQt.4gMgNgOgPb9gQgRgSbmgTgUgVgWgXeogYgZg0g1g2g3g4gxg5g6g7g8b2g9h.gyh#hahbhchdhebRhf.mQtQtQtQtQtdbgFhghhbHcDaAaehihjQtQtQtQtQtQtQtQtQtQtQtQtQtQtQtQtQtQtQtQtQtQtQtQtQtQtQtQtQtQtQt",
"QtQtQtQtQtQtQtQtQtQtQtQtQtQtQtQtQtQtQtQtQtQtQtQtQtQtQtQt.4#SaLayhkhlbgaX.GhmQtQtQt.4hnhohphqhrhshthuhvhwhxhyhzchc#hAhBhCg3hDhEhFaJhGhHhIhJhKhLhMhNhOhPhQhRhdfvhS.J.mQtQtQtQtQtdbgFhTb.hUaX.NdX.VhVhWQtQtQtQtQtQtQtQtQtQtQtQtQtQtQtQtQtQtQtQtQtQtQtQtQtQtQtQtQtQt",
"QtQtQtQtQtQtQtQtQtQtQtQtQtQtQtQtQtQtQtQtQtQtQtQtQtQtQtQt.4.BdXcD.BfPhXhY#Q##QtQtQt.4hZh0h1h2h3h4h5h6h7h8h9h9i.i#aAiaibicidieif#n#8igihgWiic4ijgeikiliminioipiqiris#xQtQtQtQtQtdbdbitc8iuivbafv#O#giwQtQtQtQtQtQtQtQtQtQtQtQtQtQtQtQtQtQtQtQtQtQtQtQtQtQtQtQtQtQt",
"QtQtQtQtQtQtQtQtQtQtQtQtQtQtQtQtQtQtQtQtQtQtQtQtQtQtQtQt.4ixadb4baiyiziAiB.diCQtQt.4iDiEiFiGiHiIiJfniKiLiMiNiOiPiQiRiSiTiUiViWiXiYePiZi0i1i2i3i4i5i6i7i8i9j.j#jajbjcQtQtQtQtQtdbdb#jb4jdjec8#8#jaAjfdbQtQtQtQtQtQtQtQtQtQtQtQtQtQtQtQtQtQtQtQtQtQtQtQtQtQtQtQtQt",
"QtQtQtQtQtQtQtQtQtQtQtQtQtQtQtQtQtQtQtQtQtQtQtQtQtQtQtQt.4jgjhb4aljijjhQjkaljljmQt.4jnjobFjpjqjrjsjtjujvjwjxjyjzjAjBjCjDjEjFjGjHjIjJjKjLjMjNjOjPjQcvjR#Ii9jSj##ZjT.hQtQtQtQtQtQtdbjUjVa7jWjX.N#wdXjYdbQtQtQtQtQtQtQtQtQtQtQtQtQtQtQtQtQtQtQtQtQtQtQtQtQtQtQtQtQt",
"QtQtQtQtQtQtQtQtQtQtQtQtQtQtQtQtQtQtQtQtQtQtQtQtQtQtQtQtQt.4jZ#5j0j1j2j3j4iuj5j6Qt.4j7j8aej9k.k#kabTkbkckdkejyjykfkgkhkikjkkklkmknkokpiPkqkrksktclkukvkwkxkykzajkAkBQtQtQtQtQtdbkCkDfkkEkFkGaAkHbQ#gkIdbQtQtQtQtQtQtQtQtQtQtQtQtQtQtQtQtQtQtQtQtQtQtQtQtQtQtQtQt",
"QtQtQtQtQtQtQtQtQtQtQtQtQtQtQtQtQtQtQtQtQtQtQtQtQtQtQtQtQt.4jV#ZitaZdzkJkKinkLkMkN.4kOkPkQkRkSkTkUkVkWkXkYkZk0k1k2k3k4k5k6k7k8k9dYl.l#lalblcldlelflglhliljlk#UaollbsdbQtQtQtdblmlnlob4#HlplqaoeelrlsltdbQtQtQtQtQtQtQtQtQtQtQtQtQtQtQtQtQtQtQtQtQtQtQtQtQtQtQtQt",
"QtQtQtQtQtQtQtQtQtQtQtQtQtQtQtQtQtQtQtQtQtQtQtQtQtQtQtQtQt.4lu##lvkGlwlxlylzlAlBlClDlElFgHlGlHlIlJlKlLlMlNlOlPlQlRlSlTlUlVlWlXlYlZl0l1l2l3l4l5l6l7l8l9m.m#makD.N#5hvdbdbQtdbmbmcmdmemfa0a0mgdNaLlrcqmhdbQtQtQtQtQtQtQtQtQtQtQtQtQtQtQtQtQtQtQtQtQtQtQtQtQtQtQtQt",
"QtQtQtQtQtQtQtQtQtQtQtQtQtQtQtQtQtQtQtQtQtQtQtQtQtQtQtQtQtQtmiatcBbzmjmkmlmmmnmompmqmrmsgHmtmumvmwmxmyiFmzmAmBiSmCl6lomDmEmFmGmHmImJmKmLmMmNmOmPfnmQmRmSmTmUbGeoatckdbdbdbdbmVmWmXmYkDmZm0m1.Tat#5m2m3dbQtQtQtQtQtQtQtQtQtQtQtQtQtQtQtQtQtQtQtQtQtQtQtQtQtQtQtQt",
"QtQtQtQtQtQtQtQtQtQtQtQtQtQtQtQtQtQtQtQtQtQtQtQtQtQtQtQtQtQt.4m4m5e1m6m7m8jPm9n.n#nanbncf4ndnenfngnhijnig9njnknlnmnnnonpnqnrnsl4ntnunvnwnxnynznAnBnCnDnEnFnGnH#Qaj#JnIQtnJnKnLnMnNnOnPnQnRnScfia#sm4nTQtQtQtQtQtQtQtQtQtQtQtQtQtQtQtQtQtQtQtQtQtQtQtQtQtQtQtQtQt",
"QtQtQtQtQtQtQtQtQtQtQtQtQtQtQtQtQtQtQtQtQtQtQtQtQtQtQtQtQtQtQtdOnUdomHnVnWnXnYnZn0n1n2n3n4n5n6n7n8n9o.o#lIoaobocodoeofogohoiojokolomonooopoqorall1osotouovowivoxkMoyozoAoBoCoDoEoFoGoHoIoJoKoLoMoNoOoPQtQtQtQtQtQtQtQtQtQtQtQtQtQtQtQtQtQtQtQtQtQtQtQtQtQtQtQtQt",
"QtQtQtQtQtQtQtQtQtQtQtQtQtQtQtQtQtQtQtQtQtQtQtQtQtQtQtQtQtQtQt.4gHiEoQoRoSjPoToUoVoWoXoYoZo0k9o1o2o3o4o5lbo6o7o8o9p.p#papbpcpdpepfpgphpipjpkn4pleHpmpnponAppc2pqprpsptpupvpwpxpypzpAp#pBpCpDpEpFpGpHQtQtQtQtQtQtQtQtQtQtQtQtQtQtQtQtQtQtQtQtQtQtQtQtQtQtQtQtQtQt",
"QtQtQtQtQtQtQtQtQtQtQtQtQtQtQtQtQtQtQtQtQtQtQtQtQtQtQtQtQtQtQtQt.4pIpJdxpKpLpMkUpNpOpPpQpRpSpTlopUpVpWpXpYawpZp0p1p2p3p4p5p6p7p8p9q.q#qaqbbxqceGqdqeqfqgqhjqqiqjqkqlqmqnqoqpqqqrqsqtquqvqwqxqyqz#xqAQtQtQtQtQtQtQtQtQtQtQtQtQtQtQtQtQtQtQtQtQtQtQtQtQtQtQtQtQtQt",
"QtQtQtQtQtQtQtQtQtQtQtQtQtQtQtQtQtQtQtQtQtQtQtQtQtQtQtQtQtQtQtQt.4cAqBqCqDqEeSqFqGqHqIqJqKaUqLqMg3qNqOqPqQqRqSqTqUqVqWqXqYqZq0q1q2q3q4q5bKq6q7q8q9r.lor#rae5pPrbgDrcrdrerfrgrhrirjrkrlrmrnrorprqrrrsQtQtQtQtQtQtQtQtQtQtQtQtQtQtQtQtQtQtQtQtQtQtQtQtQtQtQtQtQtQt",
"QtQtQtQtQtQtQtQtQtQtQtQtQtQtQtQtQtQtQtQtQtQtQtQtQtQtQtQtQtQtQtQt.4rtrurvrwcUrxryrzrArBrCrDiKrEjVfvrFrGrHrIrJrKrLrMrNrOrPrQrRrSrTrUrVrWrXrYrZr0r1r2r3lCr4nXr5r6r7kvr8r9ijs.s#sasbscsdgbsee9sfsgshsisjQtQtQtQtQtQtQtQtQtQtQtQtQtQtQtQtQtQtQtQtQtQtQtQtQtQtQtQtQtQt",
"QtQtQtQtQtQtQtQtQtQtQtQtQtQtQtQtQtQtQtQtQtQtQtQtQtQtQtQtQtQtQtQt.4skslsmsnsospsqsreSmPbtmsssstsu#JsvswsxsyszsAsBsCsDsEsFsGsHsIsJsKsLsMsNsOsPsQsRsSsThJsUsVsWsXjPsYpjsZs0qJs1s2s3s4s5s6s7s8s9t.t#tatbdbQtQtQtQtQtQtQtQtQtQtQtQtQtQtQtQtQtQtQtQtQtQtQtQtQtQtQtQtQt",
"QtQtQtQtQtQtQtQtQtQtQtQtQtQtQtQtQtQtQtQtQtQtQtQtQtQtQtQtQtQtQtQtQtgHtctdnbtetf.Vtgthnna#kDtitjtktltmtntotptqtrtstttutvtwtxtytztAtBtCtDtEtFtGtHtIpZtJqH.htKtLtMjuiitNtOtPtQtRtStTtUgetVtWtXtYl4tZt0t1dbQtQtQtQtQtQtQtQtQtQtQtQtQtQtQtQtQtQtQtQtQtQtQtQtQtQtQtQtQt",
"QtQtQtQtQtQtQtQtQtQtQtQtQtQtQtQtQtQtQtQtQtQtQtQtQtQtQtQtQtQtQtQtQt.4t2t3gVt4t5bQt6sYctt7t8t9u.u#uamNubucudueufuguhuiujukulumunuoupuqurusutuuuvuwuxuyuzuAuBuCuDuEuFpObulMgAuGuHuIuJnuuKuLuMnA.drul4uNuOuPQtQtQtQtQtQtQtQtQtQtQtQtQtQtQtQtQtQtQtQtQtQtQtQtQtQtQtQt",
"QtQtQtQtQtQtQtQtQtQtQtQtQtQtQtQtQtQtQtQtQtQtQtQtQtQtQtQtQtQtQtQtQtQtuQskuRuSuTuUuVuWa8r4uXuY.4uZu0u1u2u3u4u5u6u7u8u9v.v#vavbvcvdvevfvgvhvivjvkvlvmvntbvovpqJjujPiihFravqvrvsvtvuvvvwckvxa3vyllm5vzvAvBvCvDvEQtQtQtQtQtQtQtQtQtQtQtQtQtQtQtQtQtQtQtQtQtQtQtQtQtQt",
"QtQtQtQtQtQtQtQtQtQtQtQtQtQtQtQtQtQtQtQtQtQtQtQtQtQtQtQtQtQtQtQtQtQt.4vFvGvHvIvJvKsZdQa1vLh6vMvNvOvPvQvRvSvTvUvVvWvXvYvZv0v1v2v3v4v5v6v7v8v9w.w#wawbwcwdwewfwguFwhjutOwiwjwkwlwmwnuXkLc8bVwo.I.6wpwqwrwswtwuwvQtQtQtQtQtQtQtQtQtQtQtQtQtQtQtQtQtQtQtQtQtQtQtQtQt",
"QtQtQtQtQtQtQtQtQtQtQtQtQtQtQtQtQtQtQtQtQtQtQtQtQtQtQtQtQtQtQtQtQtQt.4wwwxwyanwzwAt7wBwCwDwEpPwFwGwHwIwJwKwLwMwNwOwPwQwRwSwTwUwVwWwXwYwZw0w1w2w3w4w5rEhviOw6i9w7w8w9x.mOx#whdQxaxbaHxcc8a4xdxexfxgxhxixjxkdbQtQtQtQtQtQtQtQtQtQtQtQtQtQtQtQtQtQtQtQtQtQtQtQtQtQt",
"QtQtQtQtQtQtQtQtQtQtQtQtQtQtQtQtQtQtQtQtQtQtQtQtQtQtQtQtQtQtQtQtQtQt.4xl.NllxmxnlscpiTavk.xoxpxqxreHxsxtxuxvxwxxxyxzxAxBxCxDxExFxGxHxIxJxKxLxMxNxOxPxQxRpHxSxTxUxVo6pkg9nHnHxWxXxYezxcbzvyxZx0x1x2x3x4x5dbQtQtQtQtQtQtQtQtQtQtQtQtQtQtQtQtQtQtQtQtQtQtQtQtQtQtQt",
"QtQtQtQtQtQtQtQtQtQtQtQtQtQtQtQtQtQtQtQtQtQtQtQtQtQtQtQtQtQtQtQtQtQtQt#N.Bx6x7aRx8x9y.y#qwyaybycydyeyfygyhyiyjykylymynyoypyqyrysytyuyvywyxyyyzyAyByCyDyEyFyGyHgfyIyJyKyLyMyNyOyPyQkmb4#g#jddyRySyTQtnEyUdbQtQtQtQtQtQtQtQtQtQtQtQtQtQtQtQtQtQtQtQtQtQtQtQtQtQtQt",
"QtQtQtQtQtQtQtQtQtQtQtQtQtQtQtQtQtQtQtQtQtQtQtQtQtQtQtQtQtQtQtQtQtQtQt.4yVyWyX.yk9yYyZy0y1y2y3y4y5y6y7y8y9z.z#zazbzczdzexDzfyrzgzhzizjzkzlzmznzoq4zpzqzrzsztzuzvzwzxzyzzluzAzBzCzDsq#L#LbQ.UzE.hQtQtpgzFdbQtQtQtQtQtQtQtQtQtQtQtQtQtQtQtQtQtQtQtQtQtQtQtQtQtQtQt",
"QtQtQtQtQtQtQtQtQtQtQtQtQtQtQtQtQtQtQtQtQtQtQtQtQtQtQtQtQtQtQtQtQtQtQt.4jDzGzHzIzJkkzKzLzMzNzOzPzQzRzSzTzUzVzWzXzYzZz0z1yqz2z3z4z5z6z7z8z9A.A#AaAbAcAdAeAfAgAhAiAjAkAlyeAmAnAoApAqAr#gaA.UAsAt.hQtQtAuAvdbQtQtQtQtQtQtQtQtQtQtQtQtQtQtQtQtQtQtQtQtQtQtQtQtQtQtQt",
"QtQtQtQtQtQtQtQtQtQtQtQtQtQtQtQtQtQtQtQtQtQtQtQtQtQtQtQtQtQtQtQtQtQtQt.4AwlXAxAyAzAAABmNmNACADAEAFAGAHAIAJAKALAMANAOAPAQyqARv6v6yuyuASxJATAUAVAWAXAYAZA0A1A2A3A4A5A6A7A8mNeHA9B.msaV#m.SjlhiB#QtQt.#BaBbdbQtQtQtQtQtQtQtQtQtQtQtQtQtQtQtQtQtQtQtQtQtQtQtQtQtQtQt",
"QtQtQtQtQtQtQtQtQtQtQtQtQtQtQtQtQtQtQtQtQtQtQtQtQtQtQtQtQtQtQtQtQtQtQt.4BcBdBeBfp#.IBgBhBiBjlol4BkBlBmBnBoBpBqBryuyuv6BsBtBuv6v6v6yuASyxeGBvBwBxBymNBzBABBBCBDBEBFBFBGitBHrEwoBIe1afiElrac#x.#QtQtBJBKBLdbQtQtQtQtQtQtQtQtQtQtQtQtQtQtQtQtQtQtQtQtQtQtQtQtQtQtQt",
"QtQtQtQtQtQtQtQtQtQtQtQtQtQtQtQtQtQtQtQtQtQtQtQtQtQtQtQtQtQtQtQtQtQtQtQt.4BcdX.UadBMdYjdrddgBNBOBPBQBRBSBTBUBVuhxJxJv6BWBXBYBZxJv6xJyxyxB0B1B2B3B4B5B6B7B8B9wiC.C#fqsZCaCbf4Ccwovyj5xZatix.hQtQtQtCdCeCfdbQtQtQtQtQtQtQtQtQtQtQtQtQtQtQtQtQtQtQtQtQtQtQtQtQtQtQt",
"QtQtQtQtQtQtQtQtQtQtQtQtQtQtQtQtQtQtQtQtQtQtQtQtQtQtQtQtQtQtQtQtQtQtQtQtQt.4#Om5CgChitivCigXCjCkClCmCnCoCpCquhuhv6v6yuyuyuCrBZyuxJv6uhuhCsCtCuCvCwCxCyCzCAuXCBCCCDCECFwDCG#Oe1wom5llbjCHix.hQtQtCICJCKdbQtQtQtQtQtQtQtQtQtQtQtQtQtQtQtQtQtQtQtQtQtQtQtQtQtQtQtQt",
"QtQtQtQtQtQtQtQtQtQtQtQtQtQtQtQtQtQtQtQtQtQtQtQtQtQtQtQtQtQtQtQtQtQtQtQtQt.4#OxZm5CLCcitvxCMiRmNCNCOCPCQCRAauhCSv6yuyuCTCUxBCVuhyuyuv6uhCWCXCYCZC0C1C2C3g1C4C5C6C7C8C9D.#8dYCcD#m5wyzBDa.hQtQtDbsjDcDddbQtQtQtQtQtQtQtQtQtQtQtQtQtQtQtQtQtQtQtQtQtQtQtQtQtQtQtQt",
"QtQtQtQtQtQtQtQtQtQtQtQtQtQtQtQtQtQtQtQtQtQtQtQtQtQtQtQtQtQtQtQtQtQtQtQtQt.4bh.J.IdXbQbQDeDfDgDhDitXDjDkDlAaAav6uhuhDmDnDoDpDqDruhuhuhv6DsDtDuDvDw#kqLDxDyDzDADBr6DCDDvxanititDEDEwygHDF.h.hDGDHDIDJdbQtQtQtQtQtQtQtQtQtQtQtQtQtQtQtQtQtQtQtQtQtQtQtQtQtQtQtQtQt",
"QtQtQtQtQtQtQtQtQtQtQtQtQtQtQtQtQtQtQtQtQtQtQtQtQtQtQtQtQtQtQtQtQtQtQtQtQt.4DKjVkHk2DLaeqcDMDNDODPg8DQDRDSDTDUDVuhDWDXDYDZD0D1D2D3D4D5D6D7D8D9E.E#EaEbEcsfEdEeEfEgEhpLEi#gjVadllEjaJgHuNuNuNEkElEmEnQtQtQtQtQtQtQtQtQtQtQtQtQtQtQtQtQtQtQtQtQtQtQtQtQtQtQtQtQtQt",
"QtQtQtQtQtQtQtQtQtQtQtQtQtQtQtQtQtQtQtQtQtQtQtQtQtQtQtQtQtQtQtQtQtQtQtQtQtQt.4Eo.5lr#g#LloEpBgEqaWErEsEtnlEuEvDVDVEwExEyEzEAEBECEDEEEFtXEGEHEIEJEKELEMENEOEPEQayjzERf4f4jV#gsv#5ESaJgHgHdbdbdbdbETEUQtQtQtQtQtQtQtQtQtQtQtQtQtQtQtQtQtQtQtQtQtQtQtQtQtQtQtQtQtQt",
"QtQtQtQtQtQtQtQtQtQtQtQtQtQtQtQtQtQtQtQtQtQtQtQtQtQtQtQtQtQtQtQtQtQtQtQtQtQt.4EVaj.SatjVeeEWEXEYy.EZE0E1AwE2E3E4E5E6DVE7E8E9F.F#nlFaFbeGFcFdFeFfFgFhFiFjFkoVFlFmFnFoePb0aA.Md6kHalix.hQtQtQtQtQtQtQtQtQtQtQtQtQtQtQtQtQtQtQtQtQtQtQtQtQtQtQtQtQtQtQtQtQtQtQtQtQt",
"QtQtQtQtQtQtQtQtQtQtQtQtQtQtQtQtQtQtQtQtQtQtQtQtQtQtQtQtQtQtQtQtQtQtQtQtQtQtQt.4cR.SdddXbQFpFqFrFsFtFuFvrCrCFwFxFyFzFAFBFCFDFEFFFGFHFeFeFIeGFJFKFLFMqwFNFOfIncFPanFQb0FRfvddbAfval.hQtQtQtQtQtQtQtQtQtQtQtQtQtQtQtQtQtQtQtQtQtQtQtQtQtQtQtQtQtQtQtQtQtQtQtQtQtQt",
"QtQtQtQtQtQtQtQtQtQtQtQtQtQtQtQtQtQtQtQtQtQtQtQtQtQtQtQtQtQtQtQtQtQtQtQtQtQtQt.4FSaYm5aYCcFTlMFUFVFWFXFYrCrCgHFZF0E7F1F2F3F0F4F5F5EJFLFeF6F7F8F9G.G#GaGbGcGdaU#tGeGfaBGg.U.IaLalix.4QtQtQtQtQtQtQtQtQtQtQtQtQtQtQtQtQtQtQtQtQtQtQtQtQtQtQtQtQtQtQtQtQtQtQtQtQtQt",
"QtQtQtQtQtQtQtQtQtQtQtQtQtQtQtQtQtQtQtQtQtQtQtQtQtQtQtQtQtQtQtQtQtQtQtQtQtQtd7mNGhbWllGiit#LhJl4GjGkGlGmrCrCFeF0GnwvGoGpGqGrGsFHFhFeEKEKFeF7BIGteGGuGvGwGxGdk2CDbuGyfY.S.5GzGzixdbGAQtQtQtQtQtQtQtQtQtQtQtQtQtQtQtQtQtQtQtQtQtQtQtQtQtQtQtQtQtQtQtQtQtQtQtQtQtQt",
"QtQtQtQtQtQtQtQtQtQtQtQtQtQtQtQtQtQtQtQtQtQtQtQtQtQtQtQtQtQtQtQtQtQtQtQtQtQtGBGCGDc.cBllorGEGFGGGHecGIrCrCrCFeGJl4.dGKGLGMGNFHFhpel4FfFLEKFiFiF7GOGPGQGRGSi#GTnHCa#tm5.5GUGzixdbQtQtQtQtQtQtQtQtQtQtQtQtQtQtQtQtQtQtQtQtQtQtQtQtQtQtQtQtQtQtQtQtQtQtQtQtQtQtQtQt",
"QtQtQtQtQtQtQtQtQtQtQtQtQtQtQtQtQtQtQtQtQtQtQtQtQtQtQtQtQtQtQtQtQtQtQtQtQt.4GVGWGWkDD#lvlvGXGYGZG0G1G2G2rCeGGJG3G4G5G6G7G8FHFhFHl4F7F7FeEKeGFiFii2G9H.H#HaHbGTbs#IDE.IadePixdbQtQtQtQtQtQtQtQtQtQtQtQtQtQtQtQtQtQtQtQtQtQtQtQtQtQtQtQtQtQtQtQtQtQtQtQtQtQtQtQtQt",
"QtQtQtQtQtQtQtQtQtQtQtQtQtQtQtQtQtQtQtQtQtQtQtQtQtQtQtQtQtQtQtQtQtQtQtQtdOHcHdHekDkDHfadHgHhHiHjHk#LG2G2rCeGG3eGHlrerereHmFhFhFhl4F7F7F7FfFLFiFiHnlRvyosHoHpHqc2orHrHsHt.4dbQtQtQtQtQtQtQtQtQtQtQtQtQtQtQtQtQtQtQtQtQtQtQtQtQtQtQtQtQtQtQtQtQtQtQtQtQtQtQtQtQtQt",
"QtQtQtQtQtQtQtQtQtQtQtQtQtQtQtQtQtQtQtQtQtQtQtQtQtQtQtQtQtQtQtQtQtQtQtHuHvHwHxkDQtkD.v#j.UHyecHzHAG2G2G2G2FKFeHBHCHDrel4HEFLFLHFl4reF7F7F7FfFiF7oXhwmHHGmPHHbGCMEjxZreHIdbQtQtQtQtQtQtQtQtQtQtQtQtQtQtQtQtQtQtQtQtQtQtQtQtQtQtQtQtQtQtQtQtQtQtQtQtQtQtQtQtQtQtQt",
"QtQtQtQtQtQtQtQtQtQtQtQtQtQtQtQtQtQtQtQtQtQtQtQtQtQtQtQtQtQtQtQtQtQtHJHKHLHMHNkDQtQtkDHOpIHPHQHRlpgwG2G2G2eGx#x#HSHTrel4l4FHFhl4rereF7F7F7F9F7F7HUwospfYe5#j.U.5EjkLsodbHVQtQtQtQtQtQtQtQtQtQtQtQtQtQtQtQtQtQtQtQtQtQtQtQtQtQtQtQtQtQtQtQtQtQtQtQtQtQtQtQtQtQtQt",
"QtQtQtQtQtQtQtQtQtQtQtQtQtQtQtQtQtQtQtQtQtQtQtQtQtQtQtQtQtQtQtQtQtQtQtQtHWHXHYkDQtQtQtkDoxHZH0H1BHayH2G2G2rCrCrCH3H4hkrel4FHH5eGreH6H7F7F7F7F7wfH8cCH9I.whchI##5.5bPIaIbIcQtQtQtQtQtQtQtQtQtQtQtQtQtQtQtQtQtQtQtQtQtQtQtQtQtQtQtQtQtQtQtQtQtQtQtQtQtQtQtQtQtQtQt",
"QtQtQtQtQtQtQtQtQtQtQtQtQtQtQtQtQtQtQtQtQtQtQtQtQtQtQtQtQtQtQtQtQtQtQtQtIdIeIfkDQtQtQt.mIgeqeq.JCcIhIiG2G2G2rCrCIjIknHrel4FhFhl4iFIlImnZF7F7F7InIo.Tb2IpbtnCIqaYIrIsItIuIvQtQtQtQtQtQtQtQtQtQtQtQtQtQtQtQtQtQtQtQtQtQtQtQtQtQtQtQtQtQtQtQtQtQtQtQtQtQtQtQtQtQtQt",
"QtQtQtQtQtQtQtQtQtQtQtQtQtQtQtQtQtQtQtQtQtQtQtQtQtQtQtQtQtQtQtQtQtQtQtQtQt.4IwkDQtQtQtIxkDj0dd#LanIyfk.SG2G2rCrCrCIzhkrel4IAFHl4o0IBICnZIDF7F7nXIEIFkvIGIHIIdmIJlrIKILIMINQtQtQtQtQtQtQtQtQtQtQtQtQtQtQtQtQtQtQtQtQtQtQtQtQtQtQtQtQtQtQtQtQtQtQtQtQtQtQtQtQtQtQt",
"QtQtQtQtQtQtQtQtQtQtQtQtQtQtQtQtQtQtQtQtQtQtQtQtQtQtQtQtQtQtQtQtQtQtQtQtQt.4IOIPkDQtQtIQkDep.M#5#4Hna7anIRG2rCrCrCISITIUl4IVIWl4IXrCHUiFCbuXF7agIYnutgCC#t#jlrIZI0I1I2I3I4QtQtQtQtQtQtQtQtQtQtQtQtQtQtQtQtQtQtQtQtQtQtQtQtQtQtQtQtQtQtQtQtQtQtQtQtQtQtQtQtQtQtQt",
"QtQtQtQtQtQtQtQtQtQtQtQtQtQtQtQtQtQtQtQtQtQtQtQtQtQtQtQtQtQtQtQtQtQtQtQt.4I5I6I7I8I9J.J#.4#QajjlxZJalBweaeJbG2rCJcrCJdf4l4JeJfl4JgJhJiIXf4JjrxjdJkJlJmJneP#gfAJoJpJqJreHETQtQtQtQtQtQtQtQtQtQtQtQtQtQtQtQtQtQtQtQtQtQtQtQtQtQtQtQtQtQtQtQtQtQtQtQtQtQtQtQtQtQtQt",
"QtQtQtQtQtQtQtQtQtQtQtQtQtQtQtQtQtQtQtQtQtQtQtQtQtQtQtQtQtQtQtQtQtQtQt.4JsJtGBJuJvJwJxJyJzJAJBJCJD#jJEvtc#qRJFG2JcG2rCJGJHJIJJJKJLJMlAx#JNJOBjJPJQJRhuJSJTJUJVJWJXJYJZl4dbQtQtQtQtQtQtQtQtQtQtQtQtQtQtQtQtQtQtQtQtQtQtQtQtQtQtQtQtQtQtQtQtQtQtQtQtQtQtQtQtQtQtQt",
"QtQtQtQtQtQtQtQtQtQtQtQtQtQtQtQtQtQtQtQtQtQtQtQtQtQtQtQtQtQtQtQtQtQtQtQtGBGBGBGBGBJ0J1J2J3J4J5J6xZJ7xdJ8J9K.K#KaJcJcrCrCKbJeKcGbKdKeJctNbkKfKgKhKiKjecnRKkKlKmKnKolXKpKqdbQtQtQtQtQtQtQtQtQtQtQtQtQtQtQtQtQtQtQtQtQtQtQtQtQtQtQtQtQtQtQtQtQtQtQtQtQtQtQtQtQtQtQt",
"QtQtQtQtQtQtQtQtQtQtQtQtQtQtQtQtQtQtQtQtQtQtQtQtQtQtQtQtQtQtQtQtQtQtQtQtQtQtQtQtGBGBKrsxKsKtl4xZJDaIBhIFjyKuezKvG2JcJcrCKwphKxKyloKzc.AwmNKAKBKCKDKEKFKGKHKIKJKKKLm4ubEmdbQtQtQtQtQtQtQtQtQtQtQtQtQtQtQtQtQtQtQtQtQtQtQtQtQtQtQtQtQtQtQtQtQtQtQtQtQtQtQtQtQtQtQt",
"QtQtQtQtQtQtQtQtQtQtQtQtQtQtQtQtQtQtQtQtQtQtQtQtQtQtQtQtQtQtQtQtQtQtQtQtQtQtQtQtQtQtGBKMKNKOKPg1KQKRBfdEKSKTp.II.MKUrCrCKVKWKXGYecKYmNKZK0K1K2K3K4K5K6K7K8K9L.##L#LacfLbdbQtQtQtQtQtQtQtQtQtQtQtQtQtQtQtQtQtQtQtQtQtQtQtQtQtQtQtQtQtQtQtQtQtQtQtQtQtQtQtQtQtQtQt",
"QtQtQtQtQtQtQtQtQtQtQtQtQtQtQtQtQtQtQtQtQtQtQtQtQtQtQtQtQtQtQtQtQtQtQtQtQtQtQtQtQtQtQtGBLcLdLeLfLgLhLiLjLkLlLmLnLoLpLqLrLsLtLuLvuTLwLxLyLzLALBLCLDLELFLGLHLILJLKH0LLLMdbQtQtQtQtQtQtQtQtQtQtQtQtQtQtQtQtQtQtQtQtQtQtQtQtQtQtQtQtQtQtQtQtQtQtQtQtQtQtQtQtQtQtQtQt",
"QtQtQtQtQtQtQtQtQtQtQtQtQtQtQtQtQtQtQtQtQtQtQtQtQtQtQtQtQtQtQtQtQtQtQtQtQtQtQtQtQtQtQtQtGBGBLNLOLPLQLRLSLTLULVLWLXLYLZL0L1L2L3L4L5L6L7L8L9M.M#MaMbklMcMdMeMftXHrd6MgMhdbQtQtQtQtQtQtQtQtQtQtQtQtQtQtQtQtQtQtQtQtQtQtQtQtQtQtQtQtQtQtQtQtQtQtQtQtQtQtQtQtQtQtQtQt",
"QtQtQtQtQtQtQtQtQtQtQtQtQtQtQtQtQtQtQtQtQtQtQtQtQtQtQtQtQtQtQtQtQtQtQtQtQtQtQtQtQtQtQtQtQtGBMiMjMkeHMlMmMnya.4q5MoMpqwMqMrMsMtMuMvMwMxMyMzMAMBMCMDMEMFMGMHMIMJMKMLMMMNQtQtQtQtQtQtQtQtQtQtQtQtQtQtQtQtQtQtQtQtQtQtQtQtQtQtQtQtQtQtQtQtQtQtQtQtQtQtQtQtQtQtQtQtQt",
"QtQtQtQtQtQtQtQtQtQtQtQtQtQtQtQtQtQtQtQtQtQtQtQtQtQtQtQtQtQtQtQtQtQtQtQtQtQtQtQtQtQtQtQtQtGBMOMPMQMRMSMTMUMVMWMXMYMZM0M1M2M3M4M5M6M7M8mNM9#RN.N#nRNaNbNcNdNeNfNgNhNiNjNkdbQtQtQtQtQtQtQtQtQtQtQtQtQtQtQtQtQtQtQtQtQtQtQtQtQtQtQtQtQtQtQtQtQtQtQtQtQtQtQtQtQtQtQt",
"QtQtQtQtQtQtQtQtQtQtQtQtQtQtQtQtQtQtQtQtQtQtQtQtQtQtQtQtQtQtQtQtQtQtQtQtQtQtQtQtQtQtNlNmNnGBNoNpisNqNrG6BMNsNtdXbqNuLJggaLNvNwNxNyNzNAbQNB#KNCcUNDC#ecl4tLNENFNGNHNINJNKNLNMQtQtQtQtQtQtQtQtQtQtQtQtQtQtQtQtQtQtQtQtQtQtQtQtQtQtQtQtQtQtQtQtQtQtQtQtQtQtQtQtQtQt",
"QtQtQtQtQtQtQtQtQtQtQtQtQtQtQtQtQtQtQtQtQtQtQtQtQtQtQtQtQtQtQtQtQtQtQtQtQtQtQtQtQtQtQtQtGB.zNNqBzwNONPNQNRJSIDliNSNToWlhNUNVNWNXNYNZ.hN0N1N2N3N4N5N6N7N8N9O.O#OaObOcOdOeOfOgdbQtQtQtQtQtQtQtQtQtQtQtQtQtQtQtQtQtQtQtQtQtQtQtQtQtQtQtQtQtQtQtQtQtQtQtQtQtQtQtQtQt",
"QtQtQtQtQtQtQtQtQtQtQtQtQtQtQtQtQtQtQtQtQtQtQtQtQtQtQtQtQtQtQtQtQtQtQtQtQtQtQtQtQtQtQtNnGBOhl4OiOjOkOlOmOnOolomNOpOqOrOsNbBfOtOuOvOwOxOyOzl4OAOBOCODOEOFOGOHloOIOJbAOKOLOMLOONQtQtQtQtQtQtQtQtQtQtQtQtQtQtQtQtQtQtQtQtQtQtQtQtQtQtQtQtQtQtQtQtQtQtQtQtQtQtQtQtQt",
"QtQtQtQtQtQtQtQtQtQtQtQtQtQtQtQtQtQtQtQtQtQtQtQtQtQtQtQtQtQtQtQtQtQtQtQtQtQtQtQtQtQtQtGBOOOPOQOROSOTOUOVOWOXOYOZO0O1O2O3.hO4tjO5O6O7eGO8O9P.P#PaPbPcPdPePfPg.qCLPh.sAsPiPjPkPlQtQtQtQtQtQtQtQtQtQtQtQtQtQtQtQtQtQtQtQtQtQtQtQtQtQtQtQtQtQtQtQtQtQtQtQtQtQtQtQtQt",
"QtQtQtQtQtQtQtQtQtQtQtQtQtQtQtQtQtQtQtQtQtQtQtQtQtQtQtQtQtQtQtQtQtQtQtQtQtQtQtQtQtQtPmPnPoPpPqPrPsPtPuPvPwPxPyPzPAPBPCPDPEPFPGPHPInlPJPKPLPMPNloPONpBI#rtXPP.iosPQPRhkPSPTPUdbQtQtQtQtQtQtQtQtQtQtQtQtQtQtQtQtQtQtQtQtQtQtQtQtQtQtQtQtQtQtQtQtQtQtQtQtQtQtQtQtQt",
"QtQtQtQtQtQtQtQtQtQtQtQtQtQtQtQtQtQtQtQtQtQtQtQtQtQtQtQtQtQtQtQtQtQtQtQtQtQtQtQtQtQtPVPWPXPYmNPZINP0P1P2P3eHP4P5P6mNP7P8F#eHkDP9Q.Q#qwQaloQbQcQdQeQfQgorBe.JQhBeQigH.QjYQjQkQtQtQtQtQtQtQtQtQtQtQtQtQtQtQtQtQtQtQtQtQtQtQtQtQtQtQtQtQtQtQtQtQtQtQtQtQtQtQtQtQtQt",
"QtQtQtQtQtQtQtQtQtQtQtQtQtQtQtQtQtQtQtQtQtQtQtQtQtQtQtQtQtQtQtQtQtQtQtQtQtQtQtQtQtGBQlQmQnQo.LQptXQqQrQsmN..QuQvm2QwQxQyl4QzQAQBQCQDecQEQFQGQH.iGfQIQJQKQLQMQNdeBal4QOBcQPQQQtQtQtQtQtQtQtQtQtQtQtQtQtQtQtQtQtQtQtQtQtQtQtQtQtQtQtQtQtQtQtQtQtQtQtQtQtQtQtQtQtQt",
"QtQtQtQtQtQtQtQtQtQtQtQtQtQtQtQtQtQtQtQtQtQtQtQtQtQtQtQtQtQtQtQtQtQtQtQtQtQtQtQtQtQtQRQSQT.zf4g.ecQUQVQWQXfCQYQZQ0Q1Q2Q3Q4Q5Q6Q7Q8Q9nER.R#RaRbRc#xRdmNReMdr9RfRgRheHRiRjdb.nQtQtQtQtQtQtQtQtQtQtQtQtQtQtQtQtQtQtQtQtQtQtQtQtQtQtQtQtQtQtQtQtQtQtQtQtQtQtQtQtQtQt",
"QtQtQtQtQtQtQtQtQtQtQtQtQtQtQtQtQtQtQtQtQtQtQtQtQtQtQtQtQtQtQtQtQtQtQtQtQtQtQtQtQtQtGBGBRkRlRmgNNtRnRoRp.ld9RqmNRrRsRtRuRvRwRxRyRzRARBRCRDRERFRGRHRIRJRKGbRLnERMRNRO#aRPdb.#Qt.#QtQtQtQtQtQtQtQtQtQtQtQtQtQtQtQtQtQtQtQtQtQtQtQtQtQtQtQtQtQtQtQtQtQtQtQtQtQtQtQt",
"QtQtQtQtQtQtQtQtQtQtQtQtQtQtQtQtQtQtQtQtQtQtQtQtQtQtQtQtQtQtQtQtQtQtQtQtQtQtQtQtQtQtQtGBi.RQINRRmNRStXReRTRURVRWRXRYl4ecRZR0R1R2R3R4R5R6R7ecOmR8R9S.S#SaSbScSdSeSfSgShnEOoSidbdbSjQtQtQtQtQtQtQtQtQtQtQtQtQtQtQtQtQtQtQtQtQtQtQtQtQtQtQtQtQtQtQtQtQtQtQtQtQtQtQt",
"QtQtQtQtQtQtQtQtQtQtQtQtQtQtQtQtQtQtQtQtQtQtQtQtQtQtQtQtQtQtQtQtQtQtQtQtQtQtQtQtQtQtQtQtSkvKSlSmSnSoSpSqSrSsStSukASvSwirSxSySzSASBSCSDkNSESFSGSHSISJSKSLSMSNSOSPSQSRSSSTSUSVSWdb.#QtQtQtQtQtQtQtQtQtQtQtQtQtQtQtQtQtQtQtQtQtQtQtQtQtQtQtQtQtQtQtQtQtQtQtQtQtQtQt",
"QtQtQtQtQtQtQtQtQtQtQtQtQtQtQtQtQtQtQtQtQtQtQtQtQtQtQtQtQtQtQtQtQtQtQtQtQtQtQtQtQtQtQtQtSXSYDASZS0S1S2S3eHS4S5S6S7S8S9T.T#TaTbTcloTdTeMPTfqBTgThTiTjTkgYsvTlTmTnToA1mNTpTqTrTsdbQtQtQtQtQtQtQtQtQtQtQtQtQtQtQtQtQtQtQtQtQtQtQtQtQtQtQtQtQtQtQtQtQtQtQtQtQtQtQtQt",
"QtQtQtQtQtQtQtQtQtQtQtQtQtQtQtQtQtQtQtQtQtQtQtQtQtQtQtQtQtQtQtQtQtQtQtQtQtQtQtQtQtQtQtIxTtTuTvTwTxTyTzpATATBTCTD#CzJaWbMTEcq#4#GePTFTGTHTIivTJa3TK.Sg#.F.F.5ddjlTLOJ.s.ETMTNTOTPdbQtQtQtQtQtQtQtQtQtQtQtQtQtQtQtQtQtQtQtQtQtQtQtQtQtQtQtQtQtQtQtQtQtQtQtQtQtQtQt",
"QtQtQtQtQtQtQtQtQtQtQtQtQtQtQtQtQtQtQtQtQtQtQtQtQtQtQtQtQtQtQtQtQtQtQtQtQtQtQtQtQtQtHVTQTRTSTTMzloME.t.t.5bA.tbAFq.MTUaubM#m#HTVp.TWTXTYTZkG#t#tT0Hkwoe1CcbRjl.rT1H0T2T3T4ecT5T6tXQtQtQtQtQtQtQtQtQtQtQtQtQtQtQtQtQtQtQtQtQtQtQtQtQtQtQtQtQtQtQtQtQtQtQtQtQtQtQt",
"QtQtQtQtQtQtQtQtQtQtQtQtQtQtQtQtQtQtQtQtQtQtQtQtQtQtQtQtQtQtQtQtQtQtQtQtQtQtQtQtQtT7GBT8T9g1U.QxU#.Ieqddjh#jbQkHa3b0au#HUaUaUbUcePTMUdUeUfaXeQIHkfUgCcitCcCc#g#Z.P.sUhUiUj#9UkUlUmdbQtQtQtQtQtQtQtQtQtQtQtQtQtQtQtQtQtQtQtQtQtQtQtQtQtQtQtQtQtQtQtQtQtQtQtQtQtQt",
"QtQtQtQtQtQtQtQtQtQtQtQtQtQtQtQtQtQtQtQtQtQtQtQtQtQtQtQtQtQtQtQtQtQtQtQtQtQtQtQtQtUnUoJuUpcNUqQOUrUsaSd9aVjV#O.Neob0JP#HUaUbUbUtuMubUuUvUwUxfYeQfYeQb4#g#g#gjVajaLjhUy.saLjYUzUAUBUCdbQtQtQtQtQtQtQtQtQtQtQtQtQtQtQtQtQtQtQtQtQtQtQtQtQtQtQtQtQtQtQtQtQtQtQtQtQt",
"QtQtQtQtQtQtQtQtQtQtQtQtQtQtQtQtQtQtQtQtQtQtQtQtQtQtQtQtQtQtQtQtQtQtQtQtQtQtQtQtQtUDUEUFUGUHTLpAUIaL#wjV#gCcitayayb2hkUJUJUbc.bPC7UKULUM#DUNBjchayb4eojV.e.e#OatatjhUO.r.rUPUQURdbdbQtQtQtQtQtQtQtQtQtQtQtQtQtQtQtQtQtQtQtQtQtQtQtQtQtQtQtQtQtQtQtQtQtQtQtQtQtQt",
"QtQtQtQtQtQtQtQtQtQtQtQtQtQtQtQtQtQtQtQtQtQtQtQtQtQtQtQtQtQtQtQtQtQtQtQtQtQtQtQtUSUTLFUUUVao.s.s.JdXaAjVjVCce1ayayUghkUWUXUYmvUZepU0U1U2UOU3U4ayai#8a3#O.e.e#OajadjhUO.s.sUPU5URdbQtQtQtQtQtQtQtQtQtQtQtQtQtQtQtQtQtQtQtQtQtQtQtQtQtQtQtQtQtQtQtQtQtQtQtQtQtQtQt",
"QtQtQtQtQtQtQtQtQtQtQtQtQtQtQtQtQtQtQtQtQtQtQtQtQtQtQtQtQtQtQtQtQtQtQtQtQtQtQtQtU6U7U8FrU9bjjh.rj5aAaL#gjVe1CcayayfYlhUJUJV.iOV#.hVaVbVcVdcNBjchayb4a3a3#7.k#OaL#wadUO.s.t#PVedbQtQtQtQtQtQtQtQtQtQtQtQtQtQtQtQtQtQtQtQtQtQtQtQtQtQtQtQtQtQtQtQtQtQtQtQtQtQtQtQt",
"QtQtQtQtQtQtQtQtQtQtQtQtQtQtQtQtQtQtQtQtQtQtQtQtQtQtQtQtQtQtQtQtQtQtQtQtQtQtQtQtQtGBGBhAVfllkH.rdX.8aAjV#OvyfzchaieQhkUJUXVge.VhViVjVkVlchxcBjaiaia3b4#8.k#7pqdPiadPUO.spA#z.YdbQtQtQtQtQtQtQtQtQtQtQtQtQtQtQtQtQtQtQtQtQtQtQtQtQtQtQtQtQtQtQtQtQtQtQtQtQtQtQtQt",
"QtQtQtQtQtQtQtQtQtQtQtQtQtQtQtQtQtQtQtQtQtQtQtQtQtQtQtQtQtQtQtQtQtQtQtQtQtQtQtQtQtQtQtGBVmkHH0TLBg.8bQjV#OitheaiayfYkSVnc.iPVoVpVqVrVs#fVtwBU4aiaia3b4.6.k#7VupqiaBMUO.s.s.FVvVwQtQtQtQtQtQtQtQtQtQtQtQtQtQtQtQtQtQtQtQtQtQtQtQtQtQtQtQtQtQtQtQtQtQtQtQtQtQtQtQt",
"QtQtQtQtQtQtQtQtQtQtQtQtQtQtQtQtQtQtQtQtQtQtQtQtQtQtQtQtQtQtQtQtQtQtQtQtQtQtQtQtQtQtQtGBVx.sH0T1aAGUae#OVyVyD#chTJfYbccoVz.mVAVBVCVDnwaXH9VEbkc8ayayaiai#g#gjV#gVFVG#WpA.sd6VHVIQtQtQtQtQtQtQtQtQtQtQtQtQtQtQtQtQtQtQtQtQtQtQtQtQtQtQtQtQtQtQtQtQtQtQtQtQtQtQtQt",
"QtQtQtQtQtQtQtQtQtQtQtQtQtQtQtQtQtQtQtQtQtQtQtQtQtQtQtQtQtQtQtQtQtQtQtQtQtQtQtQtQtQtGBmNVJ.r.tbAaAGU.JjVGIVyD#chTJVKVLVMi4VNVOVPVQVRedvzaUJhc8bkchchaiai#g#g#g#jaSgK#s.sVSbAVTVUQtQtQtQtQtQtQtQtQtQtQtQtQtQtQtQtQtQtQtQtQtQtQtQtQtQtQtQtQtQtQtQtQtQtQtQtQtQtQtQt",
"QtQtQtQtQtQtQtQtQtQtQtQtQtQtQtQtQtQtQtQtQtQtQtQtQtQtQtQtQtQtQtQtQtQtQtQtQtQtQtQtQtGBVVTMVWjl.r.rd9GUaejVpqpqD#aysZb2VXVYVZV0V1V2V3osc8.Bo0cNJhJhePp.ayay#g#gjV#gt7V4#5.sUOUOV5V6dbQtQtQtQtQtQtQtQtQtQtQtQtQtQtQtQtQtQtQtQtQtQtQtQtQtQtQtQtQtQtQtQtQtQtQtQtQtQtQt",
"QtQtQtQtQtQtQtQtQtQtQtQtQtQtQtQtQtQtQtQtQtQtQtQtQtQtQtQtQtQtQtQtQtQtQtQtQtQtQtQtGBV7V8kDaejl.rjld9GUaejVpqpqfzay#tV9W.W#WaWbWcWdWeWfWgWhJhWidEuMGgbFayay#g#gjV#gt7cjbRd6UOUOLKWjdbQtQtQtQtQtQtQtQtQtQtQtQtQtQtQtQtQtQtQtQtQtQtQtQtQtQtQtQtQtQtQtQtQtQtQtQtQtQtQt",
"QtQtQtQtQtQtQtQtQtQtQtQtQtQtQtQtQtQtQtQtQtQtQtQtQtQtQtQtQtQtQtQtQtQtQtQtQtQtQtWkGBWlWmciWn.rjlHsre#waejVjVWo#PdgWpWqWrWsWtWuWvWwWxoWUaWy#GWzvxvxCD#tayayhgCc#g#g#Oatad.sUOUO.X#z.mQtQtQtQtQtQtQtQtQtQtQtQtQtQtQtQtQtQtQtQtQtQtQtQtQtQtQtQtQtQtQtQtQtQtQtQtQtQtQt",
"QtQtQtQtQtQtQtQtQtQtQtQtQtQtQtQtQtQtQtQtQtQtQtQtQtQtQtQtQtQtQtQtQtQtQtQtQtQtQtGBWAWBWCecR6jl.rpAd8ane1e1e1WDWEWFJzWGWHWIWJWKWLWMbkWNalWOfZUxvxvxaMfYayayaiCc#g#gaoadad.sUOUO.XUH.hQtQtQtQtQtQtQtQtQtQtQtQtQtQtQtQtQtQtQtQtQtQtQtQtQtQtQtQtQtQtQtQtQtQtQtQtQtQtQt",
"QtQtQtQtQtQtQtQtQtQtQtQtQtQtQtQtQtQtQtQtQtQtQtQtQtQtQtQtQtQtQtQtQtQtQtQtQtQtQtGBWPWQWRu6WST0WTeg#rd9e1heD#mRWUnlWVWWWXWYWZA2aIW0xcsq.6WyamGTvxvxaDIHayayaie1jV#gjVadaL.dUOUOd6gl.mW1QtQtQtQtQtQtQtQtQtQtQtQtQtQtQtQtQtQtQtQtQtQtQtQtQtQtQtQtQtQtQtQtQtQtQtQtQtQt",
"QtQtQtQtQtQtQtQtQtQtQtQtQtQtQtQtQtQtQtQtQtQtQtQtQtQtQtQtQtQtQtQtQtQtQtQtQtQtQtGBW2W3W4W5W6kAW7W8pA.s#WbAsvW9X.X#XaXbXcXdXeXfwoXgIFIjeoXhamivvxvxaDIHayayaie1jV#gjVadaL.dUOUOpA#aXiXjQtQtQtQtQtQtQtQtQtQtQtQtQtQtQtQtQtQtQtQtQtQtQtQtQtQtQtQtQtQtQtQtQtQtQtQtQtQt",
"QtQtQtQtQtQtQtQtQtQtQtQtQtQtQtQtQtQtQtQtQtQtQtQtQtQtQtQtQtQtQtQtQtQtQtQtQtQtQtGBXkR3XlXmXnXoXpXqXrXsXtXuXvXwXxXyXzXAXBXCXD.QbHWzGTc8XEUXb6cNvxvxbkhgXFayaij0jVjVjV#w#w.xUOUOpA.XXGXHQtQtQtQtQtQtQtQtQtQtQtQtQtQtQtQtQtQtQtQtQtQtQtQtQtQtQtQtQtQtQtQtQtQtQtQtQtQt",
"QtQtQtQtQtQtQtQtQtQtQtQtQtQtQtQtQtQtQtQtQtQtQtQtQtQtQtQtQtQtQtQtQtQtQtQtQtQtQtSjGBXIXJXKXLXMXNXOXPXQXRXSXTXUXKXVXWXXp#f5XYa3bHWzhgbaXZUJb6cNvxvxbkaiXFaychao#g#g#gjVgK#w.tUOUOX0X1X2dbQtQtQtQtQtQtQtQtQtQtQtQtQtQtQtQtQtQtQtQtQtQtQtQtQtQtQtQtQtQtQtQtQtQtQtQtQt",
"QtQtQtQtQtQtQtQtQtQtQtQtQtQtQtQtQtQtQtQtQtQtQtQtQtQtQtQtQtQtQtQtQtQtQtQtQtQtQtQtGBX3lnX4X5X6X7X8GGX9XoY.Y#YaYbYcYdTW.lSHYejdYfGTc8baXZYgdvbkvxaDcNaydgayay.TjV#g#g#ggK#wVS.rUOX0mSYhdbQtQtQtQtQtQtQtQtQtQtQtQtQtQtQtQtQtQtQtQtQtQtQtQtQtQtQtQtQtQtQtQtQtQtQtQtQt",
"QtQtQtQtQtQtQtQtQtQtQtQtQtQtQtQtQtQtQtQtQtQtQtQtQtQtQtQtQtQtQtQtQtQtQtQtQtQtQtQtQtGBYiVVYjYkYlYmYnYoYpYqYrYsYtYu.SYv.UeIxcaiWzezxccDXZYgb6cNvxCDcNchXFaych#8#j#j#g#ggK#wVS.rUOUOmSYwdbQtQtQtQtQtQtQtQtQtQtQtQtQtQtQtQtQtQtQtQtQtQtQtQtQtQtQtQtQtQtQtQtQtQtQtQtQt",
"QtQtQtQtQtQtQtQtQtQtQtQtQtQtQtQtQtQtQtQtQtQtQtQtQtQtQtQtQtQtQtQtQtQtQtQtQtQtQtQtQtGBQXfjYxYyYzYAYAYBUQYCfBYD.G.M.Mxdaihgjdjdf.ezhgcDYEVn#HbkaXdEdE#ufYchaygx#j#j#g#g#wad.GVSUOUOVS#CYFQtQtQtQtQtQtQtQtQtQtQtQtQtQtQtQtQtQtQtQtQtQtQtQtQtQtQtQtQtQtQtQtQtQtQtQtQt",
"QtQtQtQtQtQtQtQtQtQtQtQtQtQtQtQtQtQtQtQtQtQtQtQtQtQtQtQtQtQtQtQtQtQtQtQtQtQtQtQtQtYGGBmHYHYIYITmTmQxYJYKcB.A#s.Sxcc8hgjdhghgezf.WzcDaX.6WhWhbaJPdEJh#tayaygxa3#g#g#g.8aL.ld6UOUOVS#zdbQtQtQtQtQtQtQtQtQtQtQtQtQtQtQtQtQtQtQtQtQtQtQtQtQtQtQtQtQtQtQtQtQtQtQtQtQt",
"QtQtQtQtQtQtQtQtQtQtQtQtQtQtQtQtQtQtQtQtQtQtQtQtQtQtQtQtQtQtQtQtQtQtQtQtQtQtQtQtQtYLGBmRYMUiUOX0.sozaIajYN#O#Qchhghgjdhghg.6jdezWzjduMagc8c.aXJhdEdE#tchaygx#8jV#gjVaAdX.xd6UOTL.X#qYOQtQtQtQtQtQtQtQtQtQtQtQtQtQtQtQtQtQtQtQtQtQtQtQtQtQtQtQtQtQtQtQtQtQtQtQtQt",
"QtQtQtQtQtQtQtQtQtQtQtQtQtQtQtQtQtQtQtQtQtQtQtQtQtQtQtQtQtQtQtQtQtQtQtQtQtQtQtQtQtGBGBaopAQOQOWUYPYQYR.kaV#Qitchf.hghgxchgcDhgWzezWzUgb2WzdsaXJhdEdE#tayaygxa3#g#g#O#gad.x.uX0TL.t#aYSdbQtGAGAQtQtQtQtQtQtQtQtQtQtQtQtQtQtQtQtQtQtQtQtQtQtQtQtQtQtQtQtQtQtQtQtQt",
"QtQtQtQtQtQtQtQtQtQtQtQtQtQtQtQtQtQtQtQtQtQtQtQtQtQtQtQtQtQtQtQtQtQtQtQtQtQtQtQtQtGBgJj0.r.tTLTL#w#w.J#O#OYT#Qa3f.uMuMuM#ubaxcxcc8bauMvxc8c5bkdEJhdEsZYUUHayeo#gitit#O#waAadUOH0VSVSkIdbGAGAQtQtQtQtQtQtQtQtQtQtQtQtQtQtQtQtQtQtQtQtQtQtQtQtQtQtQtQtQtQtQtQtQtQt"};
