/* XPM */
static char *dummy[]={
"128 128 3685 2",
"Qt c None",
"EM c None",
"cn c None",
"Ax c None",
"EN c #070100",
"JO c #000000",
"J3 c #58544b",
"Ek c #070100",
".# c #000000",
"z8 c #000002",
"dN c #000004",
"bp c #000100",
"z4 c #000105",
"Q7 c #000200",
"Tm c #000201",
"O6 c #000300",
"UR c #000501",
"Hd c #010000",
"uf c #010005",
"#j c #010100",
".b c #010101",
"hY c #010200",
"Dc c #010300",
".. c #010504",
"Qk c #020003",
"#Q c #020200",
".s c #020202",
"Ri c #020300",
"M9 c #020400",
"pz c #030000",
"GU c #030100",
"LW c #030200",
"Rh c #030300",
"#y c #030301",
"#E c #030303",
"2S c #030400",
"gZ c #040000",
"K3 c #040100",
"tx c #040300",
"aY c #040402",
"ak c #040404",
"bA c #040500",
"Pb c #050000",
"Of c #050100",
"O7 c #050200",
"JV c #050300",
"EW c #050400",
"fF c #050402",
"iI c #050501",
"#w c #050503",
".a c #050505",
"TD c #050600",
"DL c #050904",
"Bb c #050a04",
"Pg c #050c03",
"DX c #050e0d",
"E. c #060000",
"N2 c #060100",
"Qs c #060200",
"TT c #060203",
"D8 c #060300",
"Tr c #060500",
".4 c #060604",
"cW c #060605",
".M c #060606",
"oz c #070000",
"nz c #070100",
"Rg c #070200",
"PR c #070300",
"D7 c #070400",
"rj c #070602",
"NC c #070604",
"#H c #070705",
"aj c #070707",
"O8 c #070800",
"kS c #080000",
"GK c #080100",
"RE c #080300",
"I5 c #080400",
"PP c #080500",
"NJ c #08060b",
"Kv c #080702",
".i c #080806",
"aR c #080807",
".W c #080808",
"QB c #080a09",
"Ce c #090000",
"QX c #090100",
"kM c #090700",
"RK c #090800",
"#k c #090909",
"fM c #09090b",
"bF c #090c07",
"AH c #090d0e",
"lA c #0a0000",
"Sq c #0a0100",
"hD c #0a0200",
"g0 c #0a0202",
"Ic c #0a0400",
"Rx c #0a0406",
"JN c #0a0500",
"2Z c #0a0809",
"Ue c #0a0905",
"u9 c #0a0907",
"#K c #0a0a08",
"aU c #0a0a0a",
"Gt c #0a0e11",
"pQ c #0b0000",
"pM c #0b0003",
"Bc c #0b0100",
"Gd c #0b0300",
"Sr c #0b0301",
"IC c #0b0400",
"gm c #0b0502",
"PX c #0b0600",
"2w c #0b0601",
"hC c #0b0603",
"zL c #0b0700",
"LZ c #0b0704",
"Fr c #0b0900",
"QD c #0b0a05",
"F7 c #0b0a06",
"b7 c #0b0b09",
".N c #0b0b0b",
"Jp c #0b0b0d",
"SW c #0b100c",
"Lg c #0c0000",
"kT c #0c0100",
"M4 c #0c0201",
"kQ c #0c0300",
"FA c #0c0400",
"Uz c #0c0701",
"M7 c #0c0703",
"QL c #0c0902",
"qK c #0c0904",
"g6 c #0c0912",
"IM c #0c0b06",
"Rb c #0c0c08",
"bc c #0c0c0a",
".r c #0c0c0c",
"NB c #0d0000",
"vp c #0d0101",
"MO c #0d0200",
"Sz c #0d0400",
"UN c #0d0500",
"Ok c #0d0502",
"qw c #0d0700",
"tA c #0d0800",
"0q c #0d0803",
"Gp c #0d0805",
"OI c #0d0900",
"Dh c #0d0906",
"ed c #0d0a05",
".8 c #0d0d09",
"cr c #0d0d0b",
"bi c #0d0d0d",
"Ym c #0d0f0c",
"Mw c #0d1311",
"ti c #0e0000",
"OS c #0e0100",
"MN c #0e0200",
"1R c #0e0300",
"Eu c #0e0405",
"HE c #0e0600",
"Ev c #0e0a00",
"Ht c #0e0c0d",
"yk c #0e0d0b",
"cc c #0e0e0b",
"bb c #0e0e0c",
"#5 c #0e0e0e",
"y7 c #0e100d",
"Ts c #0e110a",
"vZ c #0e1213",
"Dj c #0e1215",
"lE c #0f0000",
"hJ c #0f0200",
"H2 c #0f0300",
"yD c #0f0400",
"Q. c #0f040a",
"J8 c #0f0500",
"YY c #0f0600",
"D9 c #0f0601",
"tC c #0f0700",
"Ir c #0f0a00",
"S3 c #0f0c00",
"Gn c #0f0d0e",
"20 c #0f0e0c",
"hR c #0f0f0d",
"#3 c #0f0f0f",
"yy c #100000",
"CK c #100202",
"iL c #100300",
"F3 c #100501",
"Bq c #100503",
"OV c #100600",
"W8 c #100700",
"Gh c #100903",
"Rw c #100a0a",
"U2 c #100c09",
"DJ c #100d08",
"SV c #101008",
"cT c #101010",
"PL c #10110c",
"VY c #101113",
"Ba c #10120b",
"xA c #10120f",
"IF c #10150f",
"vY c #110000",
"Se c #110100",
"hK c #110200",
"Kn c #110300",
"lN c #110505",
"QW c #110700",
"Ji c #110800",
"mQ c #110a00",
"GA c #110e07",
"fQ c #11110f",
"fJ c #111111",
"Q6 c #11120c",
"Ll c #111310",
"DT c #111518",
"Gi c #111612",
"QA c #111717",
"CB c #120000",
"kW c #120100",
"z2 c #120109",
"Gs c #120200",
"KK c #120403",
"HT c #120404",
"Pa c #120600",
"Mv c #120703",
"AI c #120800",
"21 c #120806",
"RJ c #120900",
"HB c #120a07",
"Xf c #120e03",
"HI c #121013",
"Gj c #12110f",
"fE c #121210",
"ac c #121212",
"kD c #121214",
"wO c #12130e",
"As c #12140f",
"GL c #121413",
"Ke c #12150c",
"Rd c #121615",
"Va c #12171a",
"uN c #130100",
"jV c #130200",
"BR c #130300",
"lQ c #130b00",
"yj c #130d0a",
"HS c #130d0d",
"y3 c #130f0c",
"vb c #131112",
"KQ c #131114",
"28 c #13120d",
"#V c #131311",
"#l c #131313",
"nA c #131512",
"JI c #131514",
"S1 c #13160f",
"WI c #131716",
"DU c #131814",
"Nl c #140000",
"f2 c #140202",
"Nr c #140400",
"vw c #140900",
"EE c #140903",
"xN c #140e00",
"S0 c #140f0b",
"CH c #141215",
"Zn c #14130f",
"AB c #141311",
"3q c #141318",
"FQ c #14140a",
"cH c #141412",
"#f c #141414",
"a4 c #141416",
"3B c #14150d",
"Hu c #141510",
"Qz c #141517",
"W9 c #141613",
"YE c #141615",
"ug c #141710",
"v1 c #141817",
"CG c #141819",
"iT c #150400",
"X2 c #150505",
"P0 c #150700",
"Gx c #150a00",
"Np c #150a06",
"BM c #15100c",
"Bf c #15110e",
"DP c #151110",
"va c #151314",
"A6 c #151410",
"zQ c #151412",
"jD c #151419",
"T. c #15150b",
"#F c #151513",
".5 c #151515",
"Eg c #151610",
"dg c #151611",
"0W c #151618",
"TU c #15161a",
"CF c #151712",
"vd c #151714",
"wh c #151716",
"Tl c #151918",
"ji c #160000",
"f3 c #160400",
"Gq c #160402",
"nB c #160500",
"MT c #160800",
"wP c #160805",
"Ss c #160c14",
"FL c #160e0b",
"PQ c #161213",
"FS c #161415",
"US c #161417",
"Vh c #161419",
"Ar c #161510",
"yn c #161511",
"y8 c #161513",
"#u c #161614",
".9 c #161616",
"vc c #161618",
"nx c #161711",
"dH c #161712",
"Uq c #161719",
"QM c #161813",
"lz c #161815",
"tj c #161817",
"S# c #161910",
"Sa c #161a1b",
"FJ c #170000",
"lJ c #170300",
"xy c #170500",
"t4 c #170803",
"pP c #170805",
"D# c #170c06",
"KM c #170d04",
"3z c #17120f",
"3y c #171216",
"N0 c #171310",
"X. c #171314",
"rp c #17141b",
"tk c #171516",
"0V c #171518",
"YC c #171612",
"FY c #171614",
"H6 c #17161b",
"dC c #171715",
".o c #171717",
"bR c #171719",
"ge c #171813",
"Wo c #17181a",
"wN c #171918",
"Am c #180302",
"KL c #180606",
"QK c #180900",
"Da c #180b05",
"xB c #180e0d",
"Tt c #180e0f",
"S2 c #180f06",
"3G c #181214",
"ly c #18130f",
"3I c #181310",
"Q5 c #181319",
"E6 c #181411",
"LX c #181415",
"YB c #181617",
"uh c #181619",
"LY c #181712",
"We c #181715",
"aS c #181816",
"#L c #181818",
"B2 c #18181a",
"ea c #181914",
"FI c #18191b",
"ro c #181a0f",
"Tc c #181a17",
"AF c #181a19",
"GF c #181c1f",
"HW c #190000",
"iz c #190400",
"v5 c #190504",
"GD c #190602",
"Hv c #190705",
"iu c #190707",
"oQ c #190801",
"Tz c #19080e",
"EI c #190a03",
"DI c #190a05",
"DG c #190b0a",
"I# c #190d0d",
"S. c #19110f",
"VN c #191313",
"FR c #191317",
"ZX c #191411",
"Vp c #191514",
"Go c #191816",
"Tw c #19181d",
"sk c #19181e",
"PM c #191911",
"ci c #191917",
".h c #191919",
"TV c #19191b",
"cU c #191a15",
"TY c #191b18",
"NK c #191c15",
"LA c #1a0000",
"0m c #1a0104",
"un c #1a0200",
"ow c #1a0202",
"A8 c #1a0502",
"n0 c #1a0700",
"Cw c #1a0701",
"g9 c #1a0703",
"NZ c #1a0804",
"pR c #1a0806",
"QN c #1a0900",
"II c #1a0b00",
"E7 c #1a0b08",
"Us c #1a0f0b",
"y4 c #1a110c",
"ZR c #1a120f",
"YF c #1a1511",
"AG c #1a1917",
"#J c #1a1a18",
".V c #1a1a1a",
"KR c #1a1a22",
"ui c #1a1c19",
"L3 c #1a1e1f",
"wo c #1b0200",
"Fs c #1b040a",
"lM c #1b0605",
"WK c #1b0804",
"Qr c #1b0900",
"q9 c #1b0a03",
"xU c #1b0b00",
"kP c #1b0b0b",
"QV c #1b0d0c",
"Y0 c #1b110f",
"HZ c #1b120d",
"OB c #1b140c",
"za c #1b140e",
"J9 c #1b141b",
"0r c #1b1613",
"Lf c #1b170b",
"RG c #1b170e",
"UH c #1b1716",
"Tv c #1b1718",
"v2 c #1b1813",
"g5 c #1b191c",
"2f c #1b1a15",
"#S c #1b1b19",
"#c c #1b1b1b",
"2F c #1b1b1d",
"TF c #1b1c17",
"yC c #1b1c20",
"P# c #1c0200",
"lw c #1c0300",
"BN c #1c0702",
"nw c #1c0704",
"pJ c #1c0706",
"L7 c #1c0905",
"3i c #1c090b",
"wZ c #1c0a00",
"Cu c #1c0a06",
"At c #1c0a08",
"Dl c #1c0b03",
"Ry c #1c0b04",
"TW c #1c0d0a",
"vH c #1c0e0b",
"kO c #1c1010",
"NE c #1c1012",
"EU c #1c1100",
"ZQ c #1c1616",
"BP c #1c1713",
"sl c #1c1817",
"TZ c #1c1a1b",
"eH c #1c1c1a",
".P c #1c1c1c",
"T0 c #1c1e19",
"Ld c #1d0002",
"Cb c #1d0100",
"Ku c #1d0200",
"hZ c #1d0300",
"gY c #1d0304",
"ot c #1d0400",
"Im c #1d0501",
"C6 c #1d0503",
"K7 c #1d0600",
"i2 c #1d0805",
"kA c #1d0900",
"G6 c #1d0902",
"E5 c #1d0a04",
"DH c #1d0a06",
"EJ c #1d0b09",
"Ew c #1d0c00",
"zH c #1d0f0c",
"ye c #1d120e",
"y1 c #1d1210",
"Zq c #1d1311",
"MX c #1d1400",
"TS c #1d1610",
"rk c #1d1900",
"ZS c #1d1910",
"Tb c #1d1a13",
"Di c #1d1a15",
"Qq c #1d1b1c",
"Q4 c #1d1c17",
"0A c #1d1c21",
"d3 c #1d1d1b",
"#T c #1d1d1d",
"ar c #1d1e19",
"Eo c #1d1f1c",
"mx c #1e0000",
"h4 c #1e0100",
"NW c #1e0200",
"h. c #1e0201",
"Cs c #1e0602",
"T2 c #1e0606",
"BO c #1e0a09",
"i. c #1e0b07",
"Cv c #1e0c08",
"3a c #1e0f0c",
"EQ c #1e1003",
"TX c #1e100d",
"G7 c #1e1101",
"HJ c #1e1510",
"0s c #1e1613",
"Tu c #1e1a17",
"IQ c #1e1a19",
"DV c #1e1c1d",
"3f c #1e1c1f",
"Q3 c #1e1d18",
"XT c #1e1e1c",
"#0 c #1e1e1e",
"Za c #1e1f17",
"2g c #1e1f1a",
"3g c #1e201f",
"xd c #1f0000",
"hI c #1f0100",
"lL c #1f0200",
"td c #1f0300",
"Ee c #1f0504",
"D. c #1f0506",
"Kf c #1f0600",
"Df c #1f0602",
"yM c #1f0703",
"QU c #1f090c",
"hp c #1f0a09",
"Ei c #1f0d09",
"my c #1f0d0b",
"wI c #1f0e07",
"xu c #1f120c",
"QG c #1f1919",
"kC c #1f1b18",
"Km c #1f1c17",
"Je c #1f1f1d",
".X c #1f1f1f",
"a5 c #1f1f21",
"Ub c #1f211e",
"NP c #1f2120",
"MK c #200000",
"v3 c #200200",
"oW c #200202",
"0Q c #200300",
"JJ c #200307",
"WQ c #200400",
"rh c #200702",
"OA c #200800",
"pO c #200804",
"J4 c #200806",
"Ik c #200808",
"0i c #200903",
"ZG c #200a00",
"EK c #200d09",
"Aw c #200e00",
"WR c #201000",
"SH c #20151b",
"UW c #201712",
"Pl c #201f1a",
"f. c #20201d",
"bl c #20201e",
"#7 c #202020",
"bg c #202022",
"Qp c #20211c",
"Lm c #202123",
"zB c #210301",
"sd c #210400",
"qn c #210501",
"yW c #210706",
"BI c #210803",
"lR c #210804",
"BK c #210907",
"B1 c #210f0d",
"MY c #211000",
"ii c #21120d",
"Op c #211807",
"ZA c #211a12",
"cI c #211b1d",
"JH c #211c19",
"SX c #211f10",
"sm c #21201e",
"ap c #21211f",
".7 c #212121",
"Zz c #212224",
"Pm c #21241d",
"3b c #220000",
"Y3 c #220300",
"gX c #220402",
"sc c #220404",
"UM c #220500",
"3H c #220807",
"DE c #220905",
"G3 c #220a06",
"dV c #220a08",
"hc c #220d0a",
"Ur c #220e0d",
"A7 c #22100e",
"ut c #22130e",
"3m c #221411",
"Cx c #221912",
"c3 c #221d1a",
"tl c #222021",
"cO c #22211f",
"cS c #222220",
".T c #222222",
"Mx c #222416",
"E4 c #222421",
"F9 c #222921",
"Hw c #230000",
"s2 c #230100",
"1a c #230400",
"A1 c #230401",
"GB c #230600",
"XU c #230602",
"h3 c #230703",
"Au c #230706",
"Qg c #230900",
"FK c #230908",
"Jv c #23090a",
"Jb c #230a03",
"Eh c #230b07",
"NH c #230d02",
"T4 c #230e0b",
"gW c #230f10",
"y6 c #23140d",
"Ln c #231917",
"wM c #232122",
"F0 c #232124",
"GP c #23221e",
"dJ c #232321",
".E c #232323",
"cb c #232325",
"TG c #23241e",
"zR c #23241f",
"qx c #232428",
"FZ c #232524",
"dX c #232822",
"Gc c #232927",
"x3 c #240000",
"yL c #240004",
"SF c #240200",
"t5 c #240405",
"iA c #240503",
"lK c #24050b",
"Oi c #240a09",
"ns c #240f0c",
"3h c #240f0e",
"Nk c #241115",
"Gb c #241915",
"T1 c #241a0e",
"TH c #241a19",
"XK c #241b14",
"T5 c #24201f",
"G# c #24211c",
"1Q c #24231f",
"ys c #242321",
".d c #242422",
".G c #242424",
"VF c #24251f",
"xt c #242520",
"NT c #24271e",
"yc c #242923",
"xi c #250000",
"U9 c #250200",
"XM c #250301",
"vN c #250506",
"jj c #250705",
"Yv c #250906",
"zv c #250b0a",
"Yh c #251611",
"Ka c #25170e",
"YL c #251c1f",
"oN c #251f0f",
"UZ c #25201d",
"2R c #252020",
"AN c #252118",
"db c #252523",
"az c #252525",
"ec c #252621",
"U. c #252724",
"03 c #252a23",
"1P c #252a26",
"wR c #260000",
"mJ c #260004",
"3d c #260202",
"q8 c #260301",
"2B c #260402",
"Wl c #260403",
"nv c #260702",
"zI c #260705",
"h# c #260a07",
"Ux c #260a09",
"No c #260e00",
"Ff c #261300",
"zG c #261412",
"rg c #261616",
"3o c #261712",
"Uv c #261d18",
"Nj c #261e1b",
"GE c #262520",
"cj c #262624",
"#i c #262626",
"Ef c #26271f",
"HR c #262722",
"QO c #26272b",
"XD c #262825",
"0X c #262827",
"DQ c #262920",
"NR c #262e23",
"ZL c #270305",
"XB c #270400",
"Uh c #270402",
"Al c #270504",
"De c #270803",
"qH c #270805",
"wE c #270806",
"jo c #270b07",
"KG c #270d0c",
"V# c #270e09",
"Ft c #270f0b",
"Dk c #271511",
"GN c #271f14",
"mz c #272018",
"O0 c #272115",
"Le c #272622",
"Gy c #27262b",
"zf c #27271f",
"fC c #272725",
".g c #272727",
"G1 c #272823",
"T# c #272928",
"FH c #272b2a",
"zU c #272b2c",
"2W c #280000",
"VV c #280102",
"IL c #280404",
"v6 c #280503",
"jv c #280604",
"Iy c #280906",
"se c #280907",
"wz c #280b07",
"LH c #280c01",
"ok c #280f08",
"iV c #28100c",
"Js c #28130e",
"Zt c #281310",
"A2 c #281413",
"I3 c #281614",
"IB c #281818",
"Og c #281d07",
"Bl c #282013",
"kN c #282222",
"Fu c #28231f",
"Fj c #28251e",
"ps c #282520",
"JE c #282722",
"dx c #282725",
"aW c #282826",
"#p c #282828",
"eG c #282924",
"KJ c #28292b",
"C8 c #282a25",
"KF c #282b24",
"FT c #282c2b",
"In c #282d26",
"y2 c #282e2a",
"Nf c #282e2c",
"Bv c #28311e",
"gp c #290000",
"xX c #290004",
"yo c #290100",
"yf c #290300",
"HL c #290302",
"0j c #290505",
"s4 c #29060c",
"V9 c #290705",
"vQ c #290708",
"lS c #290a07",
"lx c #290a08",
"CE c #290b09",
"Kg c #290c06",
"Aq c #290f0e",
"qr c #29100b",
"q3 c #29100c",
"Ja c #291300",
"JF c #291b12",
"MZ c #291b18",
"PK c #291e0c",
"3w c #291e1c",
"DW c #29261d",
"AC c #292728",
"He c #292823",
"yd c #292824",
"lF c #29282d",
"M0 c #292921",
"#e c #292927",
".y c #292929",
"AE c #292a25",
"kF c #292a2c",
"wH c #292b26",
"tm c #292b28",
"Bu c #292b2a",
"Qn c #292c25",
"JY c #292e2a",
"Uf c #2a0304",
"Vm c #2a0403",
"uQ c #2a0606",
"y9 c #2a0703",
"aN c #2a0807",
"x9 c #2a0b08",
"kB c #2a0b09",
"Bp c #2a0e0a",
"te c #2a100f",
"3l c #2a1814",
"w3 c #2a1d14",
"Ne c #2a2623",
"yr c #2a2720",
"B3 c #2a2829",
"G2 c #2a2924",
"nP c #2a2927",
"#b c #2a2a28",
".p c #2a2a2a",
"Kd c #2a2d24",
"H7 c #2a2e2d",
"Id c #2a2f2b",
"zs c #2b0200",
"XY c #2b0301",
"ZO c #2b0303",
"NU c #2b0502",
"ou c #2b0504",
"wt c #2b0804",
"iB c #2b0806",
"ov c #2b0907",
"iU c #2b0c07",
"Wg c #2b0d0b",
"MC c #2b1005",
"Lc c #2b1112",
"Ox c #2b120b",
"Fz c #2b211f",
"KI c #2b2622",
"UT c #2b2724",
"YR c #2b291a",
"Bg c #2b292a",
"Xj c #2b2b21",
"#R c #2b2b29",
".U c #2b2b2b",
"Yf c #2b2b2d",
"DB c #2b2c24",
"aq c #2b2c27",
"J. c #2b2c2e",
"qq c #2b2d28",
"I8 c #2b3127",
"qs c #2c0000",
"Xx c #2c0300",
"I0 c #2c0402",
"iC c #2c0506",
"ul c #2c0603",
"YU c #2c0605",
"jx c #2c0907",
"DN c #2c0d0b",
"zN c #2c0f0b",
"pN c #2c100c",
"O9 c #2c1e13",
"Io c #2c2014",
"HM c #2c2221",
"xF c #2c251f",
"Ec c #2c2723",
"TE c #2c2829",
"qp c #2c2924",
"Fk c #2c2b27",
"hb c #2c2c22",
"br c #2c2c2a",
".L c #2c2c2c",
"A4 c #2c2d27",
"eh c #2c2d28",
"QR c #2c2e2b",
"Uu c #2c2e2d",
"mE c #2c3033",
"M2 c #2c3228",
"3c c #2d0000",
"VC c #2d0304",
"tp c #2d0505",
"Y7 c #2d0506",
"El c #2d0607",
"Yi c #2d0704",
"CN c #2d0802",
"gF c #2d090b",
"X9 c #2d0a06",
"YJ c #2d0b0a",
"e2 c #2d0c07",
"Af c #2d1110",
"GR c #2d1513",
"LI c #2d1a1c",
"I. c #2d221c",
"ds c #2d241f",
"OE c #2d2424",
"Xw c #2d2920",
"Zg c #2d2c27",
"bu c #2d2d2b",
".q c #2d2d2d",
"IG c #2d2f2a",
"jA c #2d2f2c",
"YW c #2d2f2e",
"xD c #2e0000",
"B0 c #2e0104",
"1o c #2e0201",
"Yd c #2e0604",
"KH c #2e0606",
"1g c #2e0b09",
"Z2 c #2e0c0a",
"pS c #2e1010",
"oj c #2e120e",
"Em c #2e130f",
"vJ c #2e1711",
"J1 c #2e181a",
"SR c #2e1c04",
"yb c #2e1f1c",
"DD c #2e2119",
"jR c #2e2216",
"Vi c #2e2721",
"02 c #2e282a",
"A5 c #2e2925",
"h6 c #2e2926",
"jE c #2e2c2d",
"DR c #2e2c2f",
"Ep c #2e2d29",
"Ql c #2e2d2b",
"b3 c #2e2e2c",
".6 c #2e2e2e",
"ai c #2e2e30",
"de c #2e2f2a",
"DS c #2e3025",
"Dg c #2e302b",
"sn c #2e302d",
"L2 c #2e302f",
"Pi c #2e3430",
"NV c #2f0000",
"nJ c #2f0300",
"u7 c #2f0604",
"vg c #2f0707",
"UY c #2f0906",
"SE c #2f0c08",
"v7 c #2f0d0b",
"jk c #2f0d0e",
"AV c #2f1310",
"gV c #2f1312",
"W4 c #2f1713",
"xm c #2f1f1f",
"dW c #2f201d",
"I1 c #2f2523",
"Fa c #2f2a27",
"Zo c #2f2b2a",
"BL c #2f2c25",
"B7 c #2f2c27",
"R5 c #2f2d2e",
"NG c #2f2e2c",
"dl c #2f2f2d",
".D c #2f2f2f",
"df c #2f302b",
"My c #2f3034",
"Jg c #2f312c",
"Fh c #2f3130",
"JX c #2f3332",
"R4 c #2f362f",
"Hi c #2f3931",
"Aa c #300000",
"xn c #300204",
"rz c #300401",
"pt c #300403",
"CD c #300607",
"Zv c #300a09",
"q4 c #301411",
"WE c #301814",
"kz c #301913",
"R6 c #302221",
"N6 c #302416",
"29 c #302424",
"uj c #302825",
"DF c #302923",
"NI c #302a2a",
"Fi c #302b25",
"YA c #302b28",
"Lb c #302c29",
"Gz c #302c2d",
"vh c #302d28",
"Qm c #302f34",
"dG c #30302e",
"#6 c #303030",
"AQ c #303129",
"zT c #30312c",
"3n c #30322d",
"QQ c #30322f",
"WM c #303231",
"OW c #303433",
"Yb c #303531",
"pC c #310502",
"2s c #310600",
"3A c #310708",
"r3 c #310709",
"IN c #310907",
"27 c #31090a",
"ZI c #310d01",
"Ay c #311c19",
"YS c #312323",
"Tx c #312614",
"Iz c #312624",
"H8 c #312725",
"Zk c #312726",
"QH c #312819",
"ev c #312821",
"um c #312926",
"C9 c #312c28",
"Qj c #312c29",
"#C c #31312f",
".O c #313131",
"ab c #313133",
"I4 c #31322c",
"fa c #31322d",
"QP c #313236",
"Iw c #31332e",
"XN c #313330",
"zX c #313332",
"WA c #313534",
"JL c #313536",
"1O c #320200",
"nK c #320202",
"vG c #320603",
"ub c #320605",
"v4 c #320607",
"CM c #32080a",
"sq c #320907",
"tc c #320a0a",
"HK c #320c09",
"tW c #321213",
"hn c #321311",
"Kc c #32201e",
"Oj c #322117",
"wT c #32231c",
"zc c #322626",
"Mt c #322713",
"Zm c #322826",
"YV c #322a28",
"2x c #323031",
"eg c #32312d",
"rq c #323230",
"#g c #323232",
"fD c #32332e",
"Bi c #323433",
"3v c #323639",
"dt c #323731",
"0Y c #323733",
"ND c #32382a",
"qC c #330303",
"1d c #330704",
"CP c #330802",
"Wn c #330b00",
"Hk c #330e00",
"yv c #33110f",
"OT c #331700",
"wn c #331714",
"M6 c #331d10",
"H9 c #33201c",
"UQ c #33240f",
"3k c #33241f",
"ve c #332927",
"kX c #332b20",
"Fl c #332c26",
"SU c #332d1f",
"IY c #333029",
"PN c #333136",
"Wh c #33322e",
"bd c #333230",
"G. c #33332b",
"a6 c #333331",
".K c #333333",
"ym c #33342f",
"0t c #333530",
"wU c #333532",
"zk c #333b30",
"z# c #340400",
"r0 c #340404",
"DM c #340702",
"rt c #340704",
"wS c #340805",
"ts c #340807",
"rZ c #340809",
"2U c #340a0b",
"iD c #340a0c",
"vV c #340b05",
"Cm c #340b07",
"Zr c #340c0a",
"tR c #341211",
"sP c #341713",
"Qy c #341d15",
"Wf c #34231c",
"iZ c #342522",
"L. c #342b2c",
"MD c #342d35",
"jH c #34302d",
"Ut c #343233",
"b8 c #343432",
".F c #343434",
"IX c #343436",
"e9 c #343530",
"0u c #343635",
"yp c #350200",
"TK c #350400",
"xE c #350803",
"en c #350906",
"RA c #350b00",
"ho c #350b0c",
"hG c #350b0d",
"qG c #350c08",
"P9 c #350e00",
"W# c #351915",
"26 c #351a0f",
"VE c #351a13",
"2O c #351b0c",
"D1 c #351c00",
"Hl c #351c17",
"Oy c #35200b",
"mw c #35221c",
"OK c #352317",
"Hg c #352913",
"ZP c #352b29",
"EG c #352b2a",
"ST c #352d1a",
"ZY c #35302a",
"WB c #35302d",
"IP c #35312e",
"eu c #353130",
"Mz c #353132",
"2. c #353334",
"WL c #35342f",
"BE c #353430",
"fG c #353432",
"bh c #353533",
"#h c #353535",
"FG c #353630",
"rr c #353631",
"Bh c #353732",
"ex c #353734",
"VR c #353736",
"Me c #360602",
"Ow c #36080a",
"xv c #360f0a",
"PC c #361800",
"UU c #361816",
"Xu c #361915",
"Q# c #361c0d",
"lv c #361c1d",
"Vg c #362616",
"V8 c #362a2a",
"0Z c #362b29",
"U8 c #362e2b",
"TA c #362e2c",
"Yc c #363030",
"3E c #363135",
"Zu c #36322f",
"ZT c #363530",
"AD c #363533",
".k c #363634",
".t c #363636",
"3u c #363638",
"Xr c #363835",
"Ta c #363a3b",
"IH c #363c38",
"EF c #363e33",
"Tg c #370500",
"zP c #370602",
"ru c #370909",
"oH c #370b0a",
"ri c #370f0f",
"WJ c #371410",
"BB c #371514",
"qB c #371815",
"jy c #371919",
"Td c #371f03",
"Vx c #371f1d",
"S7 c #372519",
"VO c #372a24",
"VB c #372c28",
"PI c #372d24",
"EL c #373028",
"Oh c #37322c",
"Ap c #37322e",
"YH c #373330",
"3r c #37342f",
"Gl c #373536",
"v9 c #373631",
"EV c #373632",
"W1 c #373634",
"Ni c #37372f",
"bz c #373735",
"#m c #373737",
"xG c #373833",
"L# c #373936",
"M1 c #373a33",
"CI c #373b3c",
"pr c #373c36",
"qy c #373d3d",
"RF c #373e37",
"1c c #380107",
"TN c #380609",
"uL c #380702",
"gq c #380b08",
"Yu c #380f09",
"0w c #380f0d",
"VP c #381010",
"3F c #381a1a",
"X7 c #38241b",
"X# c #382a27",
"FM c #382d17",
"I9 c #382d31",
"Y4 c #38332f",
"Du c #383337",
"H5 c #383429",
"Co c #383433",
"cw c #383636",
"xz c #383735",
"aV c #383836",
"#. c #383838",
"Sb c #383933",
"dd c #383934",
"J5 c #38413e",
"SG c #390603",
"2P c #390801",
"1e c #390804",
"1b c #390909",
"X8 c #390a02",
"yq c #390c09",
"Ga c #39100e",
"rf c #391b19",
"Hb c #392816",
"UV c #392e2a",
"Jo c #393021",
"Fy c #393534",
"xa c #393631",
"FW c #39373a",
"mF c #393833",
"Yy c #393834",
"c2 c #393937",
".Y c #393939",
"wV c #393b38",
"Hn c #394132",
"AA c #3a0704",
"TM c #3a0706",
"wQ c #3a0a0a",
"VX c #3a0e01",
"vf c #3a110f",
"XQ c #3a1e1a",
"i5 c #3a201f",
"Ix c #3a2522",
"VH c #3a2917",
"tf c #3a2b1a",
"Vk c #3a2f2b",
"JW c #3a2f3d",
"XO c #3a322f",
"IA c #3a352f",
"Ct c #3a3531",
"XV c #3a3633",
"v0 c #3a3839",
"Ya c #3a3935",
"yt c #3a3937",
"kG c #3a3a32",
"c8 c #3a3a37",
"ck c #3a3a38",
"#v c #3a3a3a",
"Fx c #3a3b35",
"b6 c #3a3b36",
"Gm c #3a3b3d",
"Ou c #3a3c37",
"R. c #3a3c39",
"HQ c #3a3d34",
"1f c #3b0908",
"PA c #3b0c00",
"hH c #3b0d0f",
"LE c #3b0e09",
"sb c #3b0f0c",
"YG c #3b1210",
"ju c #3b1313",
"XA c #3b1512",
"tb c #3b1917",
"Jq c #3b2824",
"Pe c #3b301c",
"Cf c #3b363a",
"qz c #3b372e",
"M3 c #3b392d",
"mN c #3b3a38",
"#o c #3b3b39",
"#G c #3b3b3b",
"Ol c #3b3c37",
"Kh c #3b3d3a",
"Oq c #3b3d3c",
"O1 c #3b403a",
"R7 c #3c0c0a",
"Vo c #3c100d",
"tP c #3c130f",
"qm c #3c1412",
"Vj c #3c1615",
"IZ c #3c1917",
"uK c #3c1b16",
"iy c #3c1d1b",
"eU c #3c201c",
"N9 c #3c2a12",
"iY c #3c2d28",
"nr c #3c2e2b",
"VQ c #3c312d",
"xr c #3c312f",
"T8 c #3c3228",
"d2 c #3c3b37",
"zb c #3c3c32",
"#a c #3c3c3a",
".3 c #3c3c3c",
"CJ c #3c3d37",
"## c #3c3d38",
"La c #3c3e39",
"wX c #3d0504",
"2a c #3d0b0a",
"G4 c #3d0d0b",
"fw c #3d1611",
"jh c #3d1e1c",
"qc c #3d1f1d",
"nt c #3d2823",
"Yt c #3d2a2c",
"S6 c #3d311b",
"OF c #3d321c",
"qo c #3d322e",
"po c #3d332a",
"Ud c #3d362c",
"NS c #3d383c",
"yg c #3d3936",
"Z# c #3d3a33",
"Xe c #3d3c37",
"RB c #3d3c38",
".A c #3d3d3b",
".1 c #3d3d3d",
"T3 c #3d3f34",
"xs c #3d3f3a",
"Fg c #3d3f3c",
"2# c #3d3f3e",
"0G c #3e0704",
"Pz c #3e0e00",
"Xd c #3e110e",
"HX c #3e1211",
"QE c #3e1e13",
"pu c #3e2624",
"ZK c #3e2c2a",
"VL c #3e2f1a",
"lk c #3e3530",
"so c #3e3634",
"u8 c #3e3731",
"U3 c #3e3a3b",
"ze c #3e3d38",
"EP c #3e3d3b",
"#n c #3e3e3c",
".x c #3e3e3e",
"#I c #3e3e40",
"XP c #3f0e09",
"t2 c #3f0e11",
"0h c #3f0f05",
"WY c #3f1a14",
"nS c #3f2800",
"OZ c #3f2808",
"xH c #3f2b2c",
"N8 c #3f2f1f",
"wW c #3f2f2f",
"Xs c #3f312e",
"sy c #3f3418",
"BX c #3f3625",
"Wc c #3f3627",
"Ki c #3f382e",
"KE c #3f3939",
"xw c #3f3a37",
"UA c #3f3b3a",
"z9 c #3f3e3c",
"a# c #3f3f3d",
".e c #3f3f3f",
"e. c #3f403b",
"W0 c #3f4440",
"0b c #400000",
"0P c #400d0c",
"J0 c #400e05",
"i3 c #401617",
"pm c #401a17",
"2J c #40200b",
"L9 c #402605",
"BV c #402b0e",
"SS c #402d1f",
"Jd c #402e24",
"vU c #402f28",
"W2 c #40312a",
"BJ c #40322f",
"C5 c #403b35",
"dS c #403f3d",
"bP c #40403e",
"#x c #404040",
"fb c #40413c",
"YT c #40423d",
"FX c #40423f",
"0z c #404443",
"JA c #40473f",
"15 c #410400",
"00 c #410d0f",
"sp c #41100c",
"Y2 c #411514",
"ZJ c #411718",
"Cg c #41231b",
"N7 c #413326",
"E3 c #41382f",
"Jt c #41383b",
"F# c #413b3b",
"Jz c #413d3c",
"GT c #413e39",
"Xc c #41403b",
"T9 c #41403c",
"Fw c #41413f",
".C c #414141",
"C4 c #41423d",
"KD c #414338",
"Xp c #41433e",
"bG c #414340",
"3. c #414342",
"Zh c #41443d",
"w9 c #414520",
"Y# c #414640",
"Ws c #414841",
"KZ c #420d07",
"pl c #421212",
"G5 c #421a1b",
"uM c #421b16",
"sL c #422622",
"HA c #42271c",
"mK c #422f29",
"jN c #42321b",
"XZ c #423431",
"GQ c #423636",
"v8 c #423a37",
"nF c #423b1f",
"A. c #423c3c",
"Qo c #423f3a",
"Zj c #42413d",
"zp c #42413f",
"Z5 c #424146",
"aZ c #424240",
".n c #424242",
"Iv c #42433b",
"Ed c #42433d",
"fL c #42433e",
"Yx c #42443f",
"Ig c #424941",
"xI c #430c07",
"1N c #43100f",
"GC c #43120e",
"Ov c #43191d",
"V6 c #43201e",
"1# c #432719",
"jX c #432723",
"WC c #432c26",
"pB c #432f26",
"A3 c #433431",
"DK c #433938",
"Zi c #433e38",
"zq c #433e3b",
"zS c #434142",
"2e c #43423e",
"WF c #434240",
"aa c #434341",
".S c #434343",
"EH c #43443c",
"Dv c #43443e",
"2Y c #43443f",
"1q c #434540",
"Wy c #434544",
"Jr c #440c0d",
"ZH c #441316",
"Wx c #44211d",
"BY c #442520",
"JD c #442a19",
"KS c #44321a",
"DO c #443935",
"Dz c #443a30",
"h5 c #443c3a",
"Oe c #443f22",
"yZ c #44403f",
"U7 c #44413c",
"gf c #444243",
"Xq c #44433e",
"X1 c #44433f",
"wG c #444341",
"ag c #444442",
"#O c #444444",
"3D c #444446",
"01 c #44453f",
"Y5 c #444540",
"WU c #444641",
"Wj c #444643",
"Jw c #444b44",
"B9 c #450100",
"to c #45140f",
"Zs c #451c1a",
"Bd c #451f1c",
"jM c #452a0f",
"vi c #452c28",
"rB c #453631",
"eI c #453a38",
"J2 c #453c3d",
"Ie c #45403c",
"F8 c #454140",
"2d c #454142",
"sx c #45423d",
"XC c #454344",
"DC c #45443f",
"Xb c #454440",
"X0 c #454442",
"a. c #454543",
".f c #454545",
"3s c #454640",
"Vz c #454641",
"VA c #454744",
"2y c #454746",
"xO c #45483f",
"YK c #454a44",
"0I c #460408",
"r1 c #461312",
"uk c #46150e",
"Xa c #461612",
"oX c #461f20",
"jO c #46301b",
"Lo c #46320f",
"Dy c #463835",
"ew c #463c38",
"rE c #463d1c",
"zF c #46413d",
"Uw c #464239",
"VS c #46423f",
"QS c #46433e",
"Cq c #464540",
"Yl c #464541",
"Z0 c #464543",
"ah c #464644",
".2 c #464646",
"2D c #464741",
"UF c #464742",
"VT c #464843",
"tq c #464845",
"Uc c #464942",
"Ao c #464b44",
"mI c #471b1a",
"jW c #47241e",
"L8 c #47280c",
"JZ c #473126",
"oC c #473409",
"jS c #473727",
"1M c #474036",
"os c #47403a",
"Xz c #47423c",
"Wi c #47423f",
"Wz c #474340",
"Y8 c #474342",
"3# c #474344",
"NQ c #47443d",
"C3 c #474546",
"If c #474641",
"Xy c #474642",
"ZZ c #474644",
"hX c #47464b",
".R c #474745",
".u c #474747",
"zE c #474843",
"OJ c #474944",
"tt c #481c1b",
"rl c #48361e",
"vj c #483632",
"RC c #483828",
"SK c #48402b",
"w2 c #484222",
"WO c #48433f",
"QT c #484340",
"WN c #484441",
"Vs c #484443",
"Y9 c #484445",
"pq c #484540",
"hQ c #484647",
"uJ c #484742",
"be c #484745",
"VG c #48474c",
"by c #484846",
".B c #484848",
"2b c #484944",
"V2 c #484f48",
"CL c #490a01",
"HY c #491410",
"qa c #492a27",
"o0 c #492b29",
"M# c #492d21",
"1n c #492d2a",
"Av c #493407",
"Pf c #49351a",
"u6 c #493a33",
"Ot c #494238",
"XW c #494544",
"Zw c #494843",
"zD c #494844",
".Z c #494947",
".Q c #494949",
"w. c #494b46",
"LF c #4a0f11",
"XL c #4a1211",
"w# c #4a231e",
"vo c #4a2c24",
"Rv c #4a2c2c",
"B# c #4a3717",
"zl c #4a390b",
"Hm c #4a3a3d",
"rs c #4a403f",
"Vy c #4a453f",
"2z c #4a4542",
"2T c #4a4647",
"1m c #4a4740",
"I2 c #4a4742",
".0 c #4a4a48",
"#d c #4a4a4a",
"AY c #4a4b46",
"sv c #4b1515",
"jp c #4b1e1b",
"Bw c #4b2125",
"Zb c #4b351e",
"22 c #4b372c",
"nQ c #4b3925",
"M8 c #4b402e",
"uB c #4b413f",
"Yj c #4b4239",
"WZ c #4b423d",
"V7 c #4b4340",
"Z1 c #4b4341",
"W6 c #4b4432",
"Z6 c #4b4545",
"Y. c #4b4640",
"Yw c #4b4642",
"ta c #4b4843",
"dT c #4b4a46",
"dR c #4b4a48",
"ao c #4b4b49",
"a7 c #4b4b4b",
"B5 c #4b4c47",
"UG c #4c1210",
"su c #4c1417",
"Be c #4c1916",
"Az c #4c1f1a",
"Ch c #4c231f",
"LG c #4c2619",
"m3 c #4c2e2c",
"GG c #4c360f",
"Nq c #4c391b",
"uu c #4c3a2c",
"NF c #4c3b2b",
"Pn c #4c3d28",
"24 c #4c402a",
"XX c #4c433a",
"Wt c #4c433e",
"et c #4c4a4b",
"bk c #4c4c4a",
".H c #4c4c4c",
"aB c #4c4d48",
"Kw c #4c504f",
"0O c #4d0803",
"0H c #4d0c10",
"eS c #4d2523",
"Br c #4d340c",
"ky c #4d3430",
"pn c #4d362e",
"kl c #4d3a34",
"zC c #4d3b39",
"sF c #4d3e1d",
"hx c #4d3e3b",
"Dt c #4d4030",
"Vl c #4d443d",
"pp c #4d443f",
"tn c #4d4542",
"DA c #4d473b",
"mv c #4d4842",
"Yk c #4d4844",
"Zx c #4d4b4c",
"c9 c #4d4c4a",
"bf c #4d4d4b",
"Ej c #4d4f4a",
"XS c #4d4f4e",
"zV c #4d544d",
"V. c #4e1211",
"uo c #4e2425",
"pk c #4e2827",
"Lj c #4e2f03",
"iR c #4e300a",
"0U c #4e3306",
"UJ c #4e3718",
"yh c #4e3924",
"Fm c #4e4035",
"0v c #4e4442",
"SJ c #4e463b",
"An c #4e4643",
".z c #4e4e4c",
"Eb c #4e4e4e",
"Ph c #4e4f4a",
"u5 c #4e534f",
"Mf c #4f0502",
"Xt c #4f1312",
"n1 c #4f1e21",
"PW c #4f2e0b",
"FN c #4f301c",
"Ip c #4f3212",
"CZ c #4f322a",
"xx c #4f3715",
"Cr c #4f3a37",
"25 c #4f3c2b",
"Y6 c #4f3c36",
"C7 c #4f3d39",
"23 c #4f3e2c",
"2X c #4f4140",
"0x c #4f423a",
"y0 c #4f4641",
"w8 c #4f4745",
"RT c #4f4a34",
"zW c #4f4b48",
"2c c #4f4d4e",
"aT c #4f4f4d",
"#Z c #4f4f4f",
"Fv c #4f4f51",
"B6 c #4f514c",
"jG c #4f514e",
"or c #4f544d",
"O2 c #4f5551",
"Dd c #502924",
"i4 c #50292a",
"Nu c #50320c",
"zJ c #503517",
"H. c #503611",
"2t c #503615",
"1. c #503a22",
"jI c #503b10",
"1h c #503c1b",
"VU c #504242",
"Bj c #504b4f",
"aJ c #50504e",
"#P c #505050",
"B4 c #50514c",
"FV c #50534d",
"aD c #505559",
"W3 c #511610",
"zO c #511e1a",
"rA c #511f1e",
"qb c #512929",
"xq c #512b2a",
"EZ c #512d0d",
"ql c #512d2d",
"m2 c #512f2e",
"HF c #513108",
"hd c #513335",
"MU c #513414",
"BU c #51391d",
"1p c #51423f",
"wF c #514c48",
"iJ c #51504c",
"OC c #51504e",
"as c #51514f",
"#z c #515151",
"UD c #51534e",
"VD c #521210",
"Lv c #521c12",
"0l c #521d19",
"oI c #522222",
"lI c #523932",
"1V c #523a0c",
"Qc c #523c24",
"Z3 c #523d38",
"UX c #523e37",
"pA c #523f21",
"2C c #524242",
"Jh c #524322",
"Kx c #524745",
"Ju c #524d49",
"dO c #525250",
".J c #525252",
"cm c #52534d",
"dK c #52534e",
"C1 c #52575a",
"Ug c #531611",
"Xn c #53221e",
"KB c #532f19",
"KO c #533008",
"nu c #53302c",
"16 c #533500",
"Tp c #533519",
"yE c #533b1f",
"go c #534344",
"04 c #53442f",
"YI c #53463e",
"Wk c #534747",
"sa c #534842",
"ya c #534b48",
"ay c #535351",
"jB c #535353",
"UE c #53544e",
"V4 c #535852",
"Il c #541e1c",
"BZ c #541f1b",
"Bx c #542722",
"oY c #543030",
"Y1 c #543230",
"Nv c #54340b",
"1u c #543810",
"s3 c #543834",
"MP c #543a21",
"ZU c #543c24",
"Xo c #543f3a",
"ua c #54413b",
"UI c #544331",
"S8 c #544423",
"zt c #544947",
"Ua c #545253",
"dm c #54534f",
"#8 c #545452",
"#q c #545454",
"UB c #545955",
"WD c #55160f",
"jY c #553735",
"jQ c #553818",
"BW c #553b20",
"N5 c #553e2e",
"wY c #553e38",
"Rr c #55402d",
"Sc c #554221",
"Yo c #55431d",
"t6 c #554643",
"Or c #55504c",
"U# c #55544f",
"#9 c #555553",
"#W c #555555",
"xb c #555651",
"Wu c #555a56",
"1F c #561f18",
"z. c #561f1a",
"ME c #563218",
"2A c #563432",
"qS c #563a37",
"2N c #563c19",
"iF c #563d39",
"Qb c #56442c",
"mO c #56452b",
"yu c #564744",
"GM c #564a34",
"qA c #564d46",
"yK c #564f45",
"ee c #565251",
"vk c #56534c",
"xV c #565550",
"sr c #565551",
"vT c #565553",
".j c #565654",
"U5 c #565751",
"di c #565752",
"AT c #565853",
"ss c #565952",
"M5 c #572407",
"CC c #572723",
"o1 c #573130",
"2n c #573418",
"TC c #57391d",
"Sp c #573e20",
"IR c #573f1d",
"Po c #574215",
"s1 c #57463f",
"N1 c #57534a",
"Z4 c #575654",
"tM c #57574f",
".c c #575755",
"ba c #575757",
"O3 c #575958",
"XI c #575c55",
"R3 c #582222",
"uY c #582f2d",
"Na c #58370e",
"Ii c #58390b",
"g. c #583a2f",
"PG c #583c0c",
"AW c #583c38",
"e3 c #584340",
"P5 c #58442c",
"x. c #58492c",
"RS c #584932",
"ha c #585147",
"dU c #585753",
"cz c #585755",
"bx c #585856",
".m c #585858",
"XJ c #585951",
"2E c #585953",
"d9 c #585954",
"WW c #585a55",
"Wv c #585a57",
"WX c #585b52",
"CU c #585d56",
"ML c #591c00",
"gr c #59302e",
"1U c #59351d",
"Qx c #59380f",
"D0 c #593906",
"Mq c #593a04",
"Sv c #593a0c",
"LS c #593d16",
"17 c #594018",
"LT c #594223",
"ON c #594524",
"PS c #594733",
"1s c #594930",
"BH c #594c46",
"wm c #59544e",
"Os c #595554",
"CV c #59564d",
"Vw c #59564f",
"Up c #595758",
"Vu c #59575a",
"V5 c #595853",
"Cp c #595854",
"#s c #595957",
".I c #595959",
"1r c #59595b",
"3t c #595a55",
"v# c #595a5c",
"Xk c #595b56",
"Ca c #5a1f19",
"P8 c #5a351b",
"iE c #5a3636",
"ZC c #5a3d13",
"Pp c #5a400d",
"Pc c #5a4321",
"py c #5a4727",
"LU c #5a4a31",
"z5 c #5a4d2b",
"Ww c #5a5655",
"CW c #5a5657",
"V3 c #5a585b",
"Z. c #5a585d",
"zM c #5a5957",
"ad c #5a5a58",
".v c #5a5a5a",
"3e c #5a5b56",
"Vt c #5a5c59",
"r2 c #5b2525",
"IO c #5b322c",
"JK c #5b322e",
"H3 c #5b3810",
"Mo c #5b3909",
"2u c #5b3c0e",
"1L c #5b3d19",
"TR c #5b3e16",
"2M c #5b4011",
"wK c #5b411c",
"GV c #5b4418",
"i6 c #5b4547",
"Jn c #5b4722",
"Vv c #5b5756",
"dQ c #5b5a56",
"0y c #5b5a58",
"b2 c #5b5b59",
"hT c #5b5b5b",
"aK c #5b5c57",
"ef c #5b5d5a",
"1A c #5c2511",
"tK c #5c2926",
"Zl c #5c3536",
"1K c #5c3d0f",
"lO c #5c422b",
"O. c #5c4523",
"RR c #5c4617",
"P7 c #5c472c",
"P6 c #5c4a34",
"U6 c #5c534e",
"Xl c #5c5855",
"Xm c #5c5952",
"WV c #5c5a5b",
"z3 c #5c5b56",
"vS c #5c5b57",
"bo c #5c5b59",
"a8 c #5c5c5a",
".w c #5c5c5c",
"BG c #5c5d58",
"jF c #5c5d62",
"CX c #5c5e59",
"W. c #5d1715",
"Jf c #5d3229",
"YN c #5d360f",
"jT c #5d3d14",
"qI c #5d3e0f",
"D2 c #5d4225",
"SL c #5d452b",
"VJ c #5d4835",
"jZ c #5d4845",
"Ve c #5d4c3c",
"NO c #5d4e31",
"k9 c #5d4f4e",
"uF c #5d594e",
"Zy c #5d5b5e",
"vl c #5d5c57",
"d1 c #5d5c58",
"an c #5d5d5b",
"#N c #5d5d5d",
"dF c #5d5e59",
"Bn c #5e130d",
"1G c #5e181a",
"xC c #5e2d29",
"3x c #5e312e",
"2r c #5e341e",
"Ye c #5e3931",
"n2 c #5e3c3b",
"Vn c #5e3d34",
"OL c #5e3e0d",
"Sm c #5e4823",
"OH c #5e4938",
"hL c #5e4b47",
"Hj c #5e4c58",
"st c #5e5550",
"UC c #5e595d",
"U4 c #5e5a5b",
"By c #5e5b56",
"W5 c #5e5d62",
"bm c #5e5e5c",
".l c #5e5e5e",
"gj c #5e5f5a",
"Dw c #5e605d",
"Z8 c #5f3a0e",
"2k c #5f3f0e",
"Mp c #5f3f18",
"2K c #5f3f19",
"rC c #5f4216",
"2L c #5f4218",
"Sn c #5f4512",
"UP c #5f4719",
"kU c #5f4828",
"CY c #5f564f",
"BF c #5f5b5a",
"#B c #5f5f5d",
"#U c #5f5f5f",
"Kb c #60352f",
"L5 c #603c08",
"vB c #603f38",
"To c #60420e",
"0B c #604414",
"P4 c #604415",
"vX c #60441d",
"ik c #604645",
"KW c #604711",
"wj c #604848",
"Vb c #604927",
"JP c #60492a",
"rv c #605752",
"AS c #605951",
"lu c #605c51",
"u4 c #605f5a",
"cG c #605f5d",
"aH c #60605e",
"YD c #606060",
"aA c #60615c",
"zo c #606261",
"Yz c #61302c",
"Fo c #61350e",
"1l c #613c0f",
"JR c #613d09",
"Jc c #613e3a",
"PF c #614013",
"Qe c #614223",
"OM c #61441a",
"Ey c #614520",
"NX c #614629",
"Uo c #614e2e",
"RY c #615138",
"0n c #61552d",
"C0 c #615755",
"bn c #61605e",
"#1 c #61615f",
"#X c #616161",
"dk c #61625c",
"aM c #61625d",
"0f c #621616",
"0c c #621c1a",
"KU c #623600",
"QI c #62411e",
"kx c #624444",
"EA c #624621",
"xW c #624a46",
"Sl c #624f27",
"JB c #625340",
"aw c #626260",
"kE c #626262",
"aI c #62635e",
"u# c #626461",
"ep c #626665",
"vE c #626763",
"Wm c #63332f",
"uG c #633736",
"JG c #633831",
"2j c #63411c",
"j6 c #634140",
"X3 c #634415",
"mt c #634948",
"PT c #634c2c",
"Xi c #635030",
"cN c #63625e",
"yY c #636260",
"#r c #636361",
"#Y c #636363",
"fN c #63645f",
"c4 c #636562",
"yJ c #636759",
"K8 c #643116",
"D3 c #64401c",
"05 c #644215",
"fx c #644b47",
"Vf c #64522e",
"Pj c #645538",
"ae c #646462",
"#A c #646464",
"dM c #64655f",
"af c #646560",
"PB c #653d23",
"wd c #65411d",
"Ma c #654327",
"pd c #654344",
"06 c #654618",
"Rn c #654820",
"HC c #654b26",
"PJ c #654c24",
"vW c #655d5a",
"Dx c #655e56",
"eV c #655e58",
"mM c #65605d",
"Ys c #65625b",
"dP c #656460",
"cX c #656563",
"bj c #656661",
"ER c #663d00",
"pc c #663f42",
"rS c #664a49",
"sV c #664c4b",
"fc c #664e4a",
"xc c #664e4c",
"VK c #665948",
"mL c #665f59",
"C2 c #66615d",
"3j c #666465",
"a0 c #666563",
"#2 c #666664",
"#M c #666666",
"3C c #666c68",
"0J c #671c16",
"WP c #673a37",
"Gf c #673d0b",
"Uj c #673e08",
"Nw c #674311",
"xK c #674714",
"kK c #674b1b",
"rY c #674e4a",
"RZ c #67513a",
"Eq c #675436",
"jz c #675757",
"sE c #676050",
"yI c #676161",
"cV c #676661",
"eC c #676664",
"aE c #676765",
"gh c #676767",
"b5 c #676863",
"VW c #683b35",
"Ho c #684329",
"nI c #684f4b",
"HG c #685034",
"i# c #68504e",
"ud c #685229",
"wc c #68573b",
"Bk c #686762",
"b. c #686866",
"Rc c #686868",
"vm c #686963",
"bO c #686964",
"uq c #686b64",
"zZ c #693b07",
"si c #694008",
"Ez c #69471a",
"HO c #694812",
"Qd c #694920",
"It c #694a1c",
"fR c #694a47",
"g7 c #694e23",
"SQ c #69512f",
"Wb c #69533b",
"sf c #695435",
"St c #695437",
"K# c #695743",
"mu c #695c56",
"yX c #69605b",
"YX c #696562",
"cB c #696864",
"b4 c #696967",
"dj c #696a65",
"Xv c #696b68",
"Q8 c #6a4229",
"Te c #6a4324",
"ki c #6a4849",
"vv c #6a4a11",
"H# c #6a4a23",
"j9 c #6a4b48",
"0p c #6a4f24",
"jn c #6a5d57",
"bT c #6a6965",
"bB c #6a6967",
"LJ c #6a6a5e",
"dD c #6a6a68",
"a3 c #6a6a6a",
"g4 c #6a6b65",
"dL c #6a6b66",
"KV c #6b400b",
"1v c #6b462c",
"lD c #6b4e0c",
"Nm c #6b5035",
"Lq c #6b542b",
"Wa c #6b5530",
"vA c #6b5f5f",
"e1 c #6b625b",
"LM c #6b6448",
"nG c #6b6863",
"cA c #6b6a66",
"e8 c #6b6a68",
"ax c #6b6b69",
"cl c #6b6c66",
"am c #6b6c67",
"ZM c #6c2f2c",
"Hx c #6c403d",
"18 c #6c4a27",
"R9 c #6c5239",
"w4 c #6c5529",
"OD c #6c563e",
"WG c #6c5837",
"fS c #6c655f",
"iW c #6c6761",
"Cj c #6c6865",
"E8 c #6c6962",
"bE c #6c6a6b",
"cY c #6c6b67",
"b1 c #6c6b69",
"bv c #6c6c6a",
"ei c #6c6d68",
"hP c #6c716d",
"0e c #6d2322",
"0k c #6d3331",
"Ls c #6d431b",
"jw c #6d504c",
"Gv c #6d5525",
"2l c #6d5527",
"H0 c #6d5531",
"Nd c #6d5636",
"RL c #6d5e35",
"A0 c #6d5e5b",
"EX c #6d6040",
"mH c #6d645f",
"h7 c #6d6a65",
"Ai c #6d6c68",
"bS c #6d6c6a",
"a2 c #6d6d6b",
"al c #6d6e69",
"lP c #6e4b09",
"Ij c #6e4b35",
"Rs c #6e4e15",
"AK c #6e4e25",
"ZW c #6e502a",
"Lp c #6e5125",
"l4 c #6e5153",
"N4 c #6e531c",
"Qu c #6e5328",
"Py c #6e5423",
"xp c #6e5f5a",
"oG c #6e615b",
"Od c #6e655c",
"tr c #6e6966",
"hU c #6e6a69",
"xZ c #6e6b66",
"bU c #6e6d68",
"a1 c #6e6d69",
"bC c #6e6d6b",
"bW c #6e6e6c",
"F. c #6e6e6e",
"bq c #6e6f6a",
"Yg c #6e6f71",
"LK c #6e7065",
"oq c #6e706b",
"e0 c #6e706d",
"oM c #6e736d",
"Q9 c #6f4626",
"B. c #6f4f36",
"Oo c #6f5019",
"R0 c #6f501a",
"vq c #6f511d",
"OG c #6f5232",
"TJ c #6f5836",
"f5 c #6f5d5b",
"W7 c #6f5f46",
"Tq c #6f634d",
"Qh c #6f675a",
"dn c #6f6e6a",
"dB c #6f6e6c",
"AU c #6f716c",
"0K c #702319",
"R2 c #704029",
"K. c #704d17",
"Hs c #704d27",
"Ui c #704f2c",
"yQ c #705858",
"OO c #705b22",
"Fq c #70644a",
"gU c #706664",
"up c #706961",
"x1 c #706d68",
"Wd c #706e71",
"LN c #706f5d",
"AZ c #706f6d",
"bs c #70706e",
"fI c #707070",
"xh c #70716c",
"BD c #70726d",
"oL c #70736c",
"0d c #712822",
"wa c #714b0d",
"uy c #714d1b",
"Ko c #715226",
"v. c #71542c",
"BT c #71583a",
"vR c #715959",
"jt c #715a54",
"Um c #715f4b",
"x4 c #715f5d",
"wq c #716d6c",
"Aj c #71706c",
"da c #71706e",
"dE c #71726c",
"at c #71726d",
"qE c #717370",
"zr c #724444",
"Ge c #72502b",
"gn c #72511e",
"p9 c #725452",
"LV c #725a50",
"T6 c #725c37",
"19 c #726240",
"wJ c #726a67",
"oo c #726d6a",
"wr c #726e6d",
"Ci c #727071",
"gk c #72716d",
"a9 c #727270",
"aG c #727272",
"dc c #72736d",
"bM c #72736e",
"nH c #727770",
"mG c #727972",
"Lt c #73431f",
"HV c #734a34",
"Sw c #73521d",
"O# c #73541e",
"MR c #735533",
"p8 c #735555",
"SP c #73562a",
"0C c #735920",
"kR c #736250",
"2h c #73644f",
"xY c #73645f",
"jl c #736562",
"oJ c #73665e",
"yV c #736864",
"PO c #736d5d",
"on c #736e68",
"xf c #736f6e",
"Ck c #73706b",
"bL c #737270",
"e# c #737371",
"eD c #737373",
"Cl c #73766f",
"XR c #737a72",
"0a c #743b34",
"3p c #744440",
"nh c #745654",
"Ex c #74572f",
"rV c #745857",
"Qw c #745e35",
"yx c #745f32",
"0R c #745f44",
"f9 c #746055",
"RU c #746141",
"GS c #746443",
"k4 c #74655e",
"x0 c #746f6c",
"iX c #747067",
"xg c #74706f",
"iK c #74716c",
"b# c #747472",
"fO c #747570",
"Tf c #754737",
"R8 c #754835",
"GH c #754d1a",
"UO c #75532d",
"tg c #755723",
"Sk c #755927",
"MJ c #755934",
"pK c #755a23",
"sK c #755d59",
"XF c #75692f",
"Ab c #756a66",
"hy c #756c67",
"e7 c #757472",
"rw c #75756d",
"cx c #757575",
"Bz c #757670",
"#4 c #757a73",
"Hr c #765029",
"o2 c #765452",
"nR c #765812",
"Xg c #765834",
"kp c #765c5b",
"SZ c #76602e",
"Ky c #76644e",
"hM c #766762",
"iH c #766e6b",
"e6 c #767475",
"cP c #767573",
"#t c #767674",
"hS c #767676",
"bw c #767771",
"ZN c #773735",
"Rz c #774626",
"AR c #774a45",
"Li c #775724",
"pj c #775959",
"L0 c #775b36",
"VZ c #775c2f",
"Md c #775c31",
"EY c #775d3c",
"oi c #775e59",
"t1 c #775f5f",
"oO c #77602e",
"tu c #776861",
"op c #776e6f",
"s# c #777368",
"LL c #777465",
"dw c #777672",
"gg c #777674",
"Qi c #777775",
"aL c #777873",
"KC c #784a28",
"j7 c #78534d",
"F2 c #785e3b",
"Ms c #785f41",
"eo c #786662",
"zA c #786a67",
"lG c #78706d",
"oT c #78756e",
"vI c #787773",
"bD c #787775",
"av c #787974",
"Kl c #787c7b",
"CO c #79342d",
"z0 c #793d1b",
"Ti c #794b4d",
"ob c #795555",
"xP c #795620",
"IT c #79592a",
"Fp c #795b35",
"p2 c #795c5e",
"HD c #795e33",
"jb c #796063",
"Gu c #79654d",
"oF c #797373",
"cv c #797876",
"pE c #797a74",
"e4 c #797a75",
"q7 c #7a4945",
"jP c #7a572f",
"YZ c #7a5f42",
"oZ c #7a615d",
"hE c #7a6f6b",
"VM c #7a7579",
"aO c #7a7975",
"En c #7a7a78",
"rF c #7a7c7b",
"KP c #7a7d76",
"gs c #7b5c5a",
"JQ c #7b6746",
"uI c #7b7672",
"cy c #7b7b7b",
"us c #7b7c74",
"bt c #7b7c77",
"tv c #7b7d78",
"Hc c #7b7d7a",
"r5 c #7b8175",
"2m c #7c5a35",
"QY c #7c5d1d",
"2H c #7c5f41",
"Vq c #7c6031",
"SM c #7c6144",
"m4 c #7c6261",
"HP c #7c644a",
"u3 c #7c6867",
"ng c #7c6963",
"CA c #7c6a54",
"Cz c #7c6c4b",
"vD c #7c7974",
"nO c #7c7b76",
"bY c #7c7b77",
"eB c #7c7b79",
"Hz c #7d4f2b",
"Nx c #7d561d",
"KT c #7d5823",
"Vr c #7d591b",
"xL c #7d5929",
"Zc c #7d5e30",
"Jk c #7d6038",
"2i c #7d6233",
"Ea c #7d6549",
"kL c #7d6a40",
"zg c #7d6a4a",
"IW c #7d6b55",
"LO c #7d705d",
"gQ c #7d7270",
"vC c #7d7670",
"vn c #7d7a73",
"b9 c #7d7c78",
"aX c #7d7d7b",
"bN c #7d7e78",
"pG c #7d7f7a",
"AL c #7e3d1f",
"Lu c #7e3f30",
"w5 c #7e5a26",
"jL c #7e5d28",
"Ro c #7e5e23",
"IV c #7e5f33",
"sS c #7e6463",
"2v c #7e6b43",
"Iq c #7e6b4a",
"gG c #7e6b65",
"ol c #7e716b",
"om c #7e756e",
"nM c #7e7d78",
"bV c #7e7d79",
"e5 c #7e7e7c",
"fP c #7e7f7a",
"hO c #7e807b",
"1B c #7f4b35",
"J# c #7f5622",
"Sj c #7f5a16",
"ty c #7f5f39",
"Kk c #7f633b",
"Yn c #7f633e",
"OX c #7f6540",
"hF c #7f6765",
"K4 c #7f6848",
"Gw c #7f6e36",
"pI c #7f706b",
"Ak c #7f706d",
"pe c #7f7170",
"Lk c #7f7a77",
"tN c #7f7e79",
"u. c #7f7e7a",
"aQ c #7f7f7d",
"g3 c #7f8078",
"eM c #7f807a",
"au c #7f807b",
"lt c #7f8174",
"tw c #7f817e",
"gd c #7f8180",
"0M c #804342",
"Do c #80571f",
"ET c #805916",
"uv c #806017",
"Mr c #80633b",
"ED c #806435",
"fv c #80736d",
"qQ c #807a7a",
"bJ c #807c79",
"t# c #807d76",
"tJ c #807e72",
"bK c #807f7b",
"#D c #80807e",
"bQ c #808080",
"aF c #80817c",
"hW c #808281",
"wA c #80837c",
"rL c #80857e",
"Fn c #815d43",
"Nt c #815e24",
"Z7 c #816744",
"ws c #816863",
"1S c #81694d",
"2G c #816a4a",
"M. c #816c3f",
"bI c #817d7a",
"pF c #817d7e",
"FU c #81837e",
"Mi c #82401e",
"0N c #824242",
"Hq c #825e24",
"ZB c #826a44",
"Is c #826a48",
"f4 c #826a66",
"qD c #82706c",
"zd c #827668",
"BQ c #827773",
"zu c #827e7b",
"ur c #827e7d",
"re c #828074",
"em c #82817d",
"nN c #82827a",
"du c #828280",
"qP c #82837d",
"uH c #828479",
"rM c #828781",
"sh c #835227",
"Oa c #835f21",
"vs c #836737",
"sM c #837872",
"oS c #837c74",
"fn c #838079",
"oK c #83827d",
"qL c #83827e",
"gl c #838280",
"bH c #838381",
"fi c #83847e",
"gR c #83847f",
"wB c #838580",
"tX c #838582",
"sN c #838882",
"MH c #845a12",
"tE c #845e1f",
"R# c #846139",
"Uy c #846225",
"Nb c #84661d",
"vF c #846f6a",
"F6 c #847139",
"JM c #847146",
"iq c #847771",
"mR c #847c71",
"kH c #847f7c",
"y# c #84817c",
"wC c #84837e",
"d8 c #848381",
"dh c #848484",
"aC c #848580",
"A# c #85534a",
"Jl c #856131",
"kh c #856566",
"Q0 c #856f3e",
"n4 c #85726e",
"Ih c #857462",
"lH c #857b79",
"aP c #858480",
"g1 c #858482",
"hV c #858583",
"yN c #85867e",
"fT c #858782",
"x2 c #858a83",
"eT c #865654",
"RI c #865f28",
"rn c #86673b",
"SA c #86674a",
"Fe c #86692f",
"1t c #866b40",
"pT c #866e6e",
"sw c #867971",
"A9 c #868074",
"u0 c #86837a",
"zx c #868581",
"gT c #868583",
"vy c #86867c",
"ox c #868686",
"hz c #868781",
"Ad c #868782",
"wy c #868982",
"0F c #87553e",
"uz c #875717",
"pD c #876563",
"PU c #876736",
"T7 c #876929",
"NN c #876b2a",
"RD c #876d3a",
"uP c #878380",
"wu c #87847f",
"cC c #878682",
"do c #878684",
"Ac c #878785",
"ch c #878787",
"zz c #878883",
"xo c #878984",
"wL c #878988",
"wl c #878e86",
"2V c #885a5a",
"yG c #885c1f",
"PZ c #88642a",
"U1 c #886629",
"Et c #886841",
"Lr c #886c3c",
"V1 c #886d58",
"TP c #886e49",
"pw c #886e53",
"x# c #88725a",
"kY c #887974",
"uc c #887a79",
"fo c #887f78",
"rH c #88857c",
"vP c #888580",
"fH c #888783",
"eN c #888983",
"qM c #888984",
"sC c #888b84",
"tG c #888d87",
"k. c #896263",
"xT c #89662e",
"KX c #89692e",
"U0 c #896b39",
"n5 c #896f6e",
"Wp c #897047",
"mD c #89755c",
"rN c #89756e",
"tL c #897670",
"it c #897979",
"wk c #897d7f",
"qN c #898481",
"yO c #898883",
"cZ c #898884",
"dp c #898886",
"oV c #898981",
"sI c #898987",
"tH c #898a82",
"uW c #898a84",
"yU c #898a85",
"vz c #898b80",
"oy c #898b8a",
"HH c #898f8b",
"o4 c #8a6366",
"2I c #8a6749",
"FD c #8a6829",
"sW c #8a7773",
"nL c #8a7874",
"kZ c #8a7c79",
"BA c #8a827f",
"sG c #8a8367",
"wi c #8a837b",
"xj c #8a837d",
"Cn c #8a867d",
"j3 c #8a8782",
"uS c #8a8984",
"fj c #8a8985",
"bX c #8a8987",
"yT c #8a8b85",
"sD c #8a8b90",
"1H c #8b5a31",
"IU c #8b622a",
"fr c #8b6968",
"kj c #8b6c6a",
"2Q c #8b7448",
"ix c #8b7c79",
"km c #8b807a",
"fd c #8b8682",
"uE c #8b8a85",
"tZ c #8b8a86",
"yS c #8b8b89",
"uC c #8b8d8a",
"MQ c #8c612a",
"PH c #8c6931",
"VI c #8c6933",
"RH c #8c6a47",
"LB c #8c6c3d",
"GX c #8c6e30",
"MS c #8c7355",
"Sd c #8c795b",
"n6 c #8c7d7a",
"tF c #8c806a",
"t0 c #8c8280",
"Ae c #8c8481",
"pH c #8c8984",
"rx c #8c8a8b",
"uO c #8c8b86",
"sJ c #8c8b87",
"d4 c #8c8b89",
"zy c #8c8d88",
"sH c #8c8e89",
"iw c #8c8f88",
"mP c #8d6122",
"1T c #8d6542",
"F4 c #8d6c3f",
"AO c #8d6e38",
"pb c #8d6f6f",
"l5 c #8d7a7c",
"wb c #8d7b4b",
"kw c #8d7b79",
"iG c #8d7e7b",
"qR c #8d807a",
"fs c #8d8381",
"BC c #8d867c",
"lj c #8d8884",
"hN c #8d8885",
"qF c #8d8a85",
"eW c #8d8c87",
"x5 c #8d8c88",
"d7 c #8d8c8a",
"uD c #8d8d83",
"GO c #8d8d8f",
"K0 c #8e5247",
"NM c #8e641c",
"yz c #8e6628",
"Ng c #8e685b",
"zK c #8e7348",
"s5 c #8e7571",
"IS c #8e7654",
"sj c #8e7a55",
"uw c #8e7c4a",
"G0 c #8e7f6a",
"tI c #8e8a87",
"cD c #8e8d89",
"rG c #8e8e86",
"nE c #8f662e",
"w0 c #8f6733",
"WS c #8f7343",
"XE c #8f734e",
"qk c #8f7775",
"YM c #8f7a5d",
"kq c #8f817e",
"eR c #8f847e",
"AX c #8f8a84",
"dr c #8f8e8a",
"d. c #8f8e8c",
"tU c #8f918e",
"vx c #8f9394",
"14 c #90563e",
"zh c #906c30",
"RX c #906d2b",
"IK c #90715d",
"qW c #90716f",
"Ra c #907854",
"BS c #907a62",
"ko c #90817c",
"t7 c #90857f",
"x8 c #908583",
"i0 c #908782",
"Ah c #908d88",
"dq c #908f8b",
"Cy c #90918b",
"rJ c #909196",
"xl c #90928d",
"uU c #90928f",
"Th c #91554a",
"AM c #915b3f",
"q6 c #915e5a",
"On c #91651a",
"zj c #91673d",
"oA c #917136",
"MB c #91714b",
"Wr c #917456",
"KN c #917546",
"Qf c #917842",
"k1 c #917d7e",
"ip c #917f7d",
"vO c #918079",
"uZ c #918181",
"md c #918382",
"Ds c #91886b",
"zw c #918883",
"mS c #918c88",
"qO c #918d8a",
"cM c #91908c",
"h8 c #919189",
"x7 c #91928d",
"uV c #91938e",
"Ps c #926935",
"FF c #92693d",
"1C c #926c3b",
"Hh c #929091",
"cu c #92918d",
"rI c #92938d",
"fy c #92988c",
"FO c #936228",
"Rp c #936b2d",
"o3 c #936f6f",
"J6 c #937a42",
"B8 c #937a64",
"fq c #937a75",
"wD c #937b77",
"yR c #938f8c",
"cg c #93928e",
"cq c #93948f",
"Hf c #947549",
"y. c #947676",
"Om c #947851",
"ux c #947a57",
"Zf c #947c4e",
"qt c #948582",
"tV c #948683",
"vM c #948d87",
"c. c #94938f",
"ca c #949492",
"qv c #95692c",
"Kz c #957137",
"So c #95713f",
"S4 c #957346",
"lg c #95787a",
"iS c #957b58",
"c0 c #959490",
"eJ c #959691",
"h0 c #967240",
"ni c #967a76",
"kk c #967d79",
"ue c #968051",
"k0 c #968887",
"j2 c #96938e",
"nq c #969590",
"c# c #969591",
"Bo c #97594a",
"wf c #977325",
"Jj c #977335",
"CS c #97743c",
"th c #977842",
"X6 c #977c4f",
"lf c #977f7f",
"k5 c #978881",
"uR c #978e87",
"b0 c #979692",
"tB c #97969e",
"eE c #979797",
"uT c #979892",
"Rq c #987245",
"P3 c #987637",
"1Z c #98765d",
"SO c #987940",
"rQ c #987c7b",
"tY c #98938f",
"x6 c #989793",
"mT c #989991",
"MM c #996945",
"RW c #99713d",
"FC c #997843",
"vK c #997e77",
"gL c #998079",
"Tk c #998262",
"Ag c #99847f",
"S9 c #99865c",
"k2 c #998682",
"kr c #99968f",
"kv c #999893",
"0L c #9a4946",
"q5 c #9a716d",
"kV c #9a7237",
"Bm c #9a7450",
"GW c #9a7936",
"lT c #9a7b79",
"j5 c #9a8486",
"tT c #9a9995",
"gi c #9a9a9a",
"eL c #9a9b95",
"ej c #9a9b96",
"xM c #9b7a33",
"jg c #9b7b7c",
"yP c #9b8987",
"ry c #9b8a83",
"jm c #9b8e88",
"hA c #9b9794",
"mU c #9b9e95",
"Mg c #9c4d3e",
"SB c #9c7558",
"UK c #9c8050",
"k6 c #9c958d",
"ls c #9c988f",
"t8 c #9c9994",
"eF c #9c9c9a",
"g2 c #9c9c9c",
"ZV c #9d7739",
"QF c #9d784c",
"1W c #9d7c35",
"DY c #9d7d54",
"y5 c #9d845b",
"rO c #9d8480",
"zY c #9d8666",
"nb c #9d8885",
"k3 c #9d8a84",
"wv c #9d9c98",
"1D c #9e753f",
"u2 c #9e827f",
"Db c #9e8f8c",
"bZ c #9e9a97",
"xk c #9e9d99",
"dI c #9e9e9e",
"Gk c #9ea09f",
"rd c #9ea19a",
"Oz c #9f773c",
"yA c #9f7a34",
"jq c #9f8783",
"qY c #9f918e",
"f1 c #9f9594",
"s6 c #9f9794",
"j1 c #9f9a96",
"r4 c #9f9b98",
"gS c #9f9d9e",
"fY c #9f9e9a",
"co c #9f9e9c",
"d0 c #9fa09b",
"t9 c #9fa19c",
"CQ c #a07a3c",
"LR c #a07c40",
"L1 c #a08162",
"u1 c #a0918c",
"ct c #a0a19c",
"ij c #a17779",
"Q1 c #a18d72",
"q# c #a1948e",
"sB c #a19a94",
"dA c #a1a09e",
"eb c #a1a19f",
"fh c #a1a29c",
"rK c #a1a39e",
"Mh c #a24f3d",
"Jx c #a27e40",
"mC c #a2813c",
"ms c #a28683",
"lh c #a28e8d",
"qj c #a29994",
"t. c #a2a19c",
"vL c #a2a19d",
"dy c #a2a19f",
"dY c #a2a2a0",
"dv c #a2a39e",
"Tj c #a37f4d",
"oa c #a38786",
"nV c #a3a09b",
"c1 c #a3a2a0",
"pv c #a3a3a1",
"Dm c #a47b45",
"07 c #a4804c",
"Ul c #a4895c",
"hs c #a48c8a",
"K9 c #a48d6e",
"Ty c #a49166",
"hB c #a4a19c",
"cE c #a4a39f",
"cL c #a4a5a0",
"C# c #a56158",
"PV c #a5804b",
"Zp c #a58147",
"Dp c #a58346",
"sg c #a58353",
"Nc c #a5873f",
"WH c #a58e5a",
"AJ c #a59071",
"yH c #a59154",
"lB c #a5916c",
"cd c #a5a4a2",
"oU c #a5a69e",
"mW c #a5a6a0",
"ny c #a5a6a1",
"z1 c #a67966",
"Qa c #a67b4e",
"mB c #a6802d",
"P. c #a68154",
"H4 c #a68657",
"NL c #a6865f",
"D4 c #a6874e",
"TI c #a69675",
"ce c #a6a5a1",
"js c #a6a69e",
"nU c #a6a7a2",
"C. c #a75853",
"jU c #a78851",
"gt c #a79593",
"gM c #a79c98",
"kn c #a7a29e",
"nn c #a7a8a3",
"08 c #a86b3f",
"iQ c #a8804c",
"Mb c #a88855",
"yi c #a8895d",
"GJ c #a88f67",
"H1 c #a89172",
"sX c #a8a19b",
"j4 c #a8a39f",
"cs c #a8a7a3",
"yl c #a8a8a6",
"1E c #a97951",
"G8 c #a98963",
"pZ c #a98a87",
"mh c #a99a97",
"E9 c #a9a9a9",
"I6 c #aa8044",
"IJ c #aa8247",
"mA c #aa905f",
"oR c #aaa097",
"h2 c #aaa4a6",
"gz c #aaa6a3",
"cR c #aaa9a7",
"fe c #aaaca7",
"1w c #ab815b",
"E0 c #ab8256",
"Nh c #ab8963",
"Hy c #ab8a55",
"o5 c #ab8b8e",
"he c #ab9695",
"iM c #ab9870",
"Dq c #ab9d5c",
"pi c #aba29b",
"mV c #aba6a0",
"np c #abb5ac",
"MI c #ac823a",
"PE c #ac8951",
"j8 c #ac8a8b",
"p6 c #ac8f91",
"TQ c #ac906b",
"Sg c #ac915a",
"MA c #ac925f",
"N3 c #ac9664",
"qi c #aca59f",
"eK c #acaba7",
"Uk c #ad8746",
"JC c #ad8b5d",
"kI c #ad916a",
"JU c #ad9265",
"0# c #ad9664",
"k# c #ad999a",
"m5 c #ada8a2",
"s7 c #adaca7",
"wx c #adaca8",
"s. c #adaea8",
"PD c #ae8652",
"oD c #ae9260",
"oP c #ae964c",
"xe c #aea4a2",
"nY c #aeaba6",
"gA c #aeaeac",
"zm c #af8c56",
"SY c #af925a",
"lV c #af9c96",
"O4 c #afa276",
"eO c #afaeaa",
"0g c #b06e70",
"ID c #b08a4c",
"2p c #b08b5f",
"Lh c #b0926c",
"Sf c #b09465",
"Q2 c #b0946d",
"kg c #b09b98",
"jr c #b0aca9",
"cF c #b0afad",
"TO c #b17d58",
"L4 c #b18d5b",
"og c #b1aea5",
"ww c #b1b0ac",
"cQ c #b1b0ae",
"jC c #b1b1af",
"no c #b1b2ad",
"ph c #b1b6af",
"zi c #b27f48",
"2q c #b2915c",
"p0 c #b29492",
"lU c #b29693",
"RQ c #b29768",
"im c #b29a9a",
"oh c #b2a39c",
"QC c #b2a791",
"lb c #b2aaa8",
"eA c #b2b1af",
"kJ c #b38c41",
"N# c #b39e6f",
"nW c #b3aca6",
"dZ c #b3b4af",
"sZ c #b3b6ab",
"j0 c #b3b9b9",
"Jm c #b48c4e",
"lW c #b49b97",
"Rf c #b4a48b",
"k7 c #b4afa9",
"nX c #b4b3ae",
"s0 c #b4b4ac",
"rc c #b4b5af",
"c7 c #b4b5b0",
"lr c #b5a39f",
"Fb c #b5a572",
"s9 c #b5b0ac",
"g# c #b5b4b0",
"d# c #b5b4b2",
"c5 c #b5b5b3",
"fg c #b5b6b0",
"nm c #b5b6b1",
"2o c #b69260",
"Mu c #b69552",
"lq c #b6b2af",
"hg c #b6b3ac",
"f# c #b6b6b4",
"ks c #b6b8b3",
"sz c #b78f54",
"Gg c #b79055",
"j# c #b79a9c",
"ku c #b7b9b4",
"lm c #b7bcb5",
"Tn c #b8985d",
"X5 c #b89a40",
"Mm c #b89a54",
"Lz c #b89b59",
"h1 c #b8a56d",
"cf c #b8b7b3",
"ey c #b8b8b6",
"fU c #b8b9b3",
"XG c #b9924f",
"XH c #b99467",
"Kj c #b9a479",
"Pd c #b9a978",
"mq c #b9b4b1",
"d5 c #b9b8b6",
"es c #b9bab4",
"Ny c #ba8d4c",
"Vc c #ba9350",
"uA c #ba955e",
"w1 c #ba9b5b",
"fp c #baaba4",
"Bt c #baac7f",
"wp c #bab0ae",
"la c #bab0af",
"Sy c #bab194",
"k8 c #bab2b0",
"sY c #bab7b2",
"fk c #bab9b5",
"cJ c #babab8",
"Lw c #bb885d",
"MV c #bb8e4d",
"Sh c #bb9453",
"we c #bb9564",
"Un c #bb9763",
"lX c #bba29e",
"nf c #bbb2ab",
"sU c #bbb3b0",
"fB c #bbbab8",
"px c #bc8f3e",
"G9 c #bc9868",
"Kr c #bc9a5a",
"FP c #bc9b70",
"cK c #bcbdb8",
"qh c #bcbfb8",
"mX c #bcc1ba",
"Ia c #bd9759",
"09 c #bd9b6d",
"gK c #bdaaa6",
"jc c #bdadad",
"mp c #bdb9b6",
"r9 c #bdbcb7",
"fX c #bdbdbb",
"ln c #bdbfba",
"sT c #bdc0b7",
"nl c #bdc0b9",
"lo c #bdc2bb",
"K5 c #be9c5f",
"Lx c #be9f68",
"nk c #beb9b3",
"rb c #bebdb9",
"fK c #bebebc",
"f0 c #bec0bb",
"JT c #bf9658",
"Rm c #bf9c64",
"NY c #bf9d6f",
"p3 c #bfa2a4",
"Yr c #bfa374",
"uX c #bfa3a0",
"1X c #bfa663",
"rT c #bfada9",
"pU c #bfbab4",
"ek c #bfbeba",
"Yq c #c0944b",
"PY c #c09453",
"Mn c #c09958",
"tz c #c0a755",
"0D c #c0a963",
"le c #c0aeae",
"qT c #c0b2b1",
"s8 c #c0bdb8",
"fZ c #c0bfbb",
"fV c #c0c1bc",
"Kp c #c19355",
"OU c #c19b6a",
"yw c #c1a68b",
"mr c #c1b0a9",
"pV c #c1bdba",
"gc c #c1bdbc",
"EO c #c1c1bf",
"L6 c #c29169",
"LD c #c2ad74",
"pW c #c2c1bf",
"pX c #c2c3be",
"vt c #c3974c",
"S5 c #c39d5e",
"ZF c #c3a978",
"ke c #c3aaad",
"Rk c #c3b68a",
"c6 c #c3c4bf",
"iv c #c3c6bf",
"oB c #c4a262",
"SD c #c4a39a",
"nj c #c4aca8",
"p. c #c4b0b1",
"oc c #c4bdb3",
"qU c #c4c0bf",
"fW c #c4c4c2",
"lY c #c5ada9",
"l# c #c5b3b3",
"hj c #c5c1c0",
"mo c #c5c4c0",
"fz c #c5c6c1",
"JS c #c6985c",
"Kq c #c69c52",
"Ly c #c69c6c",
"1J c #c6a15b",
"Zd c #c6aa69",
"D5 c #c6ae72",
"K2 c #c6ae88",
"Z9 c #c6b367",
"Xh c #c7a053",
"tD c #c7a657",
"p7 c #c7adac",
"FB c #c7b786",
"hf c #c7c0ba",
"cp c #c7c6c2",
"gw c #c7c8c3",
"hh c #c7ccc5",
"iO c #c89d4e",
"QJ c #c8a271",
"Ml c #c8a969",
"0S c #c8ac7d",
"kd c #c8baba",
"r6 c #c8c4c1",
"el c #c8c7c3",
"kb c #c9bbba",
"gP c #c9bfbe",
"gu c #c9c1be",
"ff c #c9c8c3",
"d6 c #c9c8c6",
"eq c #c9cac5",
"Fc c #ca9f5b",
"E1 c #caa264",
"SI c #caad8d",
"1i c #cab878",
"mc c #cabfbb",
"mn c #cac9c5",
"er c #cacbc6",
"iP c #cba05c",
"Nn c #cba55e",
"qZ c #cbb1b2",
"i1 c #cbc4bc",
"ll c #cbc6c0",
"ne c #cbc6c3",
"gv c #cbc8c3",
"gB c #cbcdca",
"vu c #cca363",
"Er c #ccaa50",
"Ns c #ccab7e",
"1z c #ccb484",
"f8 c #cccbc6",
"lp c #cccdc7",
"Re c #cdaf7d",
"O5 c #cdb189",
"Ob c #cdb47c",
"q1 c #cdc2bc",
"ez c #cdcbcc",
"SN c #ceaf6c",
"gy c #cecac7",
"LQ c #cfa863",
"Ru c #cfad6e",
"1k c #cfae69",
"CT c #cfb383",
"Gr c #cfb57a",
"sO c #cfc0bb",
"ir c #cfc4be",
"ra c #d0cfca",
"eZ c #d0cfcb",
"SC c #d19771",
"qu c #d1ab6d",
"Mk c #d1b271",
"jK c #d1b77c",
"fm c #d1d0cc",
"Su c #d2aa62",
"Si c #d2ab5c",
"Vd c #d2b589",
"YP c #d3ad58",
"Pt c #d3ad64",
"YQ c #d3bb8d",
"rW c #d3c6be",
"q0 c #d3d0c7",
"r7 c #d3d2cd",
"qe c #d3d4cf",
"xQ c #d4a561",
"K6 c #d4b670",
"ht c #d4c6c3",
"l1 c #d4cac8",
"r. c #d4d3cf",
"fA c #d4d3d1",
"rU c #d4d4cc",
"mY c #d4d7d0",
"hi c #d4d9d3",
"hw c #d5cbca",
"of c #d5d1ce",
"pg c #d5d4d0",
"gx c #d5d6d1",
"mZ c #d6d5d0",
"fl c #d6d5d1",
"qg c #d6d7d1",
"eX c #d6d8d3",
"Cd c #d7bc75",
"w7 c #d7c27f",
"o9 c #d7c7c8",
"mm c #d7d4cf",
"N. c #d8cdb7",
"na c #d8d0cd",
"ie c #d8d8d6",
"LP c #d9ba77",
"Pk c #d9ba81",
"E2 c #d9bb95",
"EC c #d9c996",
"OR c #d9cda7",
"eQ c #d9d8d4",
"OQ c #dac17f",
"r# c #dad5d2",
"TL c #db9989",
"Nz c #dbaf6e",
"K1 c #dbbd87",
"RM c #dbbe86",
"Rl c #dbc794",
"j. c #dbdad5",
"KY c #dcaf85",
"z6 c #dcb86a",
"Iu c #dcbb90",
"t3 c #dcc0bc",
"Pu c #dcc8a3",
"UL c #ddb675",
"Ib c #deb975",
"gH c #ded0cf",
"h9 c #ded5d0",
"gD c #dedad7",
"1y c #dfbb6d",
"DZ c #dfbe5f",
"NA c #dfc58a",
"nZ c #dfd8d0",
"jJ c #e0c279",
"Mc c #e0c471",
"oE c #e0ca98",
"if c #e1e0de",
"GI c #e2ae72",
"MG c #e2bc7d",
"Cc c #e2c172",
"zn c #e2c279",
"sA c #e2d0a0",
"eP c #e2e1dd",
"f6 c #e2e1df",
"Mj c #e3c38a",
"hu c #e3e8e2",
"rm c #e4ba70",
"WT c #e4bd82",
"rD c #e4c67e",
"Hp c #e4d697",
"r8 c #e4e0dd",
"ZE c #e5ca83",
"P1 c #e5cd8f",
"tS c #e5ded8",
"pf c #e5e0dc",
"gb c #e5e6e1",
"ml c #e5eae4",
"Rt c #e6c381",
"kf c #e6d9d3",
"Rj c #e6ddbc",
"id c #e6e5e1",
"ft c #e6e6e4",
"eY c #e6e7e2",
"Pw c #e7c981",
"tQ c #e7d0ca",
"Dn c #e8c778",
"1I c #e8cd80",
"CR c #e8cd88",
"Sx c #e8d296",
"in c #e8e3df",
"i8 c #e8e3e0",
"oe c #e8e4e3",
"nd c #e8e9e4",
"Pv c #e9c690",
"RP c #e9cc94",
"xS c #e9cd6c",
"l0 c #e9d1cd",
"RN c #e9d485",
"qf c #e9e8e4",
"kt c #e9ebe6",
"w6 c #eac982",
"Ze c #eaca73",
"sR c #eacecd",
"mk c #eae6e3",
"fu c #eaece9",
"F5 c #ebd896",
"nT c #ebede8",
"Es c #eccb7c",
"pY c #ece3de",
"qd c #ece5df",
"ga c #ece8e5",
"P2 c #eecf8f",
"is c #eedfdc",
"l2 c #eeeeee",
"gN c #eef0eb",
"nD c #efcb73",
"OY c #efcb81",
"yF c #efcd8d",
"RO c #efd694",
"0T c #efdb94",
"sQ c #f0e1dc",
"gI c #f0f2ed",
"1j c #f1e098",
"Dr c #f1e4af",
"RV c #f2c782",
"tO c #f2d4d2",
"o6 c #f2dedf",
"Ks c #f2efc4",
"hq c #f2f7f0",
"nC c #f3cf71",
"HN c #f3d493",
"0o c #f3d595",
"F1 c #f3deb1",
"EB c #f3e2c8",
"Ha c #f4ca8e",
"hk c #f4f3f1",
"gC c #f4f6f1",
"1Y c #f5ca9f",
"LC c #f5cf91",
"KA c #f5d185",
"iN c #f5e2a8",
"ia c #f5e6e1",
"Oc c #f5ebba",
"rX c #f5ebe2",
"m0 c #f5f0ec",
"hl c #f5f5f3",
"HU c #f6d9b1",
"E# c #f6e0b9",
"Kt c #f6e7be",
"mj c #f6eeec",
"f7 c #f6f8f5",
"GZ c #f7e9b8",
"gO c #f7f3f2",
"m8 c #f7fcf6",
"l3 c #f8edeb",
"gJ c #f8f9f4",
"1x c #f9d486",
"MF c #f9e9b6",
"gE c #f9f0eb",
"o8 c #f9faf5",
"n# c #f9fdfc",
"ig c #f9fefa",
"lC c #fad98c",
"dz c #faf9f7",
"m6 c #fafbf6",
"m# c #fafcf9",
"m. c #fafefd",
"hv c #fafff9",
"yB c #fbe4ae",
"mi c #fbf0ec",
"lc c #fbf1ef",
"p# c #fbf6f0",
"hm c #fbf6f2",
"o. c #fbfdfc",
"Pq c #fce19a",
"l. c #fcedea",
"l7 c #fcf8f5",
"je c #fcfbf9",
"n7 c #fcfdf8",
"ld c #fcfef9",
"o7 c #fcfefb",
"q2 c #fde4e0",
"mg c #fdefec",
"10 c #fdf8d0",
"od c #fdfaf3",
"n8 c #fdfef9",
"g8 c #fee8ae",
"m1 c #fee9e8",
"i7 c #feeeee",
"io c #fef6f3",
"GY c #fefdcf",
"ih c #fefdf8",
"hr c #fefef6",
"m9 c #fefefc",
"o# c #feffff",
"QZ c #ffd984",
"Qv c #ffdb93",
"xR c #ffde9f",
"J7 c #ffe094",
"wg c #ffe2a8",
"Bs c #ffe48f",
"vr c #ffe597",
"Jy c #ffe69e",
"Pr c #ffe6a9",
"TB c #ffe8ac",
"Fd c #ffe9ad",
"lZ c #ffe9e5",
"I7 c #ffea9a",
"xJ c #ffeab8",
"IE c #ffeb9d",
"OP c #ffecb2",
"rP c #ffedec",
"AP c #ffeeaa",
"YO c #fff0a4",
"Yp c #fff0b1",
"X4 c #fff1b5",
"MW c #fff1bc",
"Px c #fff1c0",
"q. c #fff1ed",
"ZD c #fff2a9",
"Wq c #fff2ad",
"pL c #fff2b9",
"z7 c #fff2c9",
"ES c #fff39c",
"0. c #fff3a5",
"V0 c #fff3a8",
"0E c #fff3b1",
"qJ c #fff3c8",
"qV c #fff3f0",
"n3 c #fff3f3",
"R1 c #fff5d3",
"li c #fff5f1",
"jd c #fff6f4",
"i9 c #fff6f5",
"FE c #fff7af",
"D6 c #fff7da",
"nc c #fff7f3",
"p1 c #fff7f7",
"il c #fff8f3",
"ic c #fff9f3",
"jf c #fff9f9",
"ib c #fffaf4",
"p5 c #fffaf6",
"kc c #fffaf7",
"ka c #fffaf8",
"13 c #fffbe1",
"rR c #fffbf5",
"ma c #fffbf7",
"me c #fffbfa",
"pa c #fffcf4",
"ja c #fffcf8",
"mf c #fffcf9",
"qX c #fffcfa",
"l9 c #fffcfb",
"l6 c #fffcfc",
"n. c #fffdfe",
"mb c #fffefb",
"p4 c #fffefc",
"m7 c #fffefd",
"11 c #ffffc5",
"12 c #ffffc7",
"l8 c #fffffa",
"n9 c #fffffb",
"QtQtQtQtQtQtQtQtQtQtQtQtQtQtQtQtQtQtQtQtQtQtQtQtQtQtQtQtQtQtQtQtQtQtQtQtQtQtQtQtQtQtQtQtQtQtQtQtQtQtQtQtQtQtQtQtQtQtQtQtQtQtQtQtQtQtQtQtQtQtQtQtQtQtQtQtQtQtQtQtQtQtQtQtQtQtQtQtQtQtQtQtQtQtQtQtQtQtQtQtQtQtQtQtQtQtQtQtQtQtQtQtQtQtQtQtQtQtQtQtQtQtQtQtQtQtQtQt",
"QtQtQtQtQtQtQtQtQtQtQtQtQtQtQtQtQtQtQtQtQtQtQtQtQtQtQtQtQtQtQtQtQtQtQtQtQtQtQtQtQtQtQtQtQtQtQtQtQtQtQtQtQtQtQtQtQtQtQtQtQtQtQtQtQtQtQtQtQtQtQtQtQtQtQtQtQtQtQtQtQtQtQtQtQtQtQtQtQtQtQtQtQtQtQtQtQtQtQtQtQtQtQtQtQtQtQtQtQtQtQtQtQtQtQtQtQtQtQtQtQtQtQtQtQtQtQtQt",
"QtQtQtQtQtQtQtQtQtQtQtQtQtQtQtQtQtQtQtQtQtQtQtQtQtQtQtQtQtQtQtQtQtQtQtQtQtQtQtQtQtQtQtQtQtQtQtQtQtQtQtQtQtQtQtQtQtQtQtQtQtQtQtQtQtQtQtQtQtQtQtQtQtQtQtQtQtQtQtQtQtQtQtQtQtQtQtQtQtQtQtQtQtQtQtQtQtQtQtQtQtQtQtQtQtQtQtQtQtQtQtQtQtQtQtQtQtQtQtQtQtQtQtQtQtQtQtQt",
"QtQtQtQtQtQtQtQtQtQtQtQtQtQtQtQtQtQtQtQtQtQtQtQtQtQtQtQtQtQtQtQtQtQtQtQtQtQtQtQtQtQtQtQtQtQtQtQtQtQtQtQtQtQtQtQtQtQtQtQtQtQtQtQtQtQtQtQtQtQtQtQtQtQtQtQtQtQtQtQtQtQtQtQtQtQtQtQtQtQtQtQtQtQtQtQtQtQtQtQtQtQtQtQtQtQtQtQtQtQtQtQtQtQtQtQtQtQtQtQtQtQtQtQtQtQtQtQt",
"QtQtQtQtQtQtQtQtQtQtQtQtQtQtQtQtQtQtQtQtQtQtQtQtQtQtQtQtQtQtQtQtQtQtQtQtQtQtQtQtQtQtQtQtQtQtQtQtQtQtQtQtQtQtQtQtQtQtQtQtQtQtQtQtQtQtQtQtQtQtQtQtQtQtQtQtQtQtQtQtQtQtQtQtQtQtQtQtQtQtQtQtQtQtQtQtQtQtQtQtQtQtQtQtQtQtQtQtQtQtQtQtQtQtQtQtQtQtQtQtQtQtQtQtQtQtQtQt",
"QtQtQtQtQtQtQtQtQtQtQtQtQtQtQtQtQtQtQtQtQtQtQtQtQtQtQtQtQtQtQtQtQtQtQtQtQtQtQtQtQtQtQtQtQtQtQtQtQtQtQtQtQtQtQtQtQtQtQtQtQtQtQtQtQtQtQtQtQt.#.a.b.#QtQtQtQtQtQtQtQtQtQtQtQtQtQtQtQtQtQtQtQtQtQtQtQtQtQtQtQtQtQtQtQtQtQtQtQtQtQtQtQtQtQtQtQtQtQtQtQtQtQtQtQtQtQtQt",
"QtQtQtQtQtQtQtQtQtQtQtQtQtQtQtQtQtQtQtQtQtQtQtQtQtQtQtQtQtQtQtQtQtQtQtQtQtQtQtQtQtQtQtQtQtQtQtQtQtQtQtQtQtQtQtQtQtQtQtQtQtQtQtQtQtQtQtQt.c.d.e.f.g.hQtQtQtQtQtQtQtQtQtQtQtQtQtQtQtQtQtQtQtQtQtQtQtQtQtQtQtQtQtQtQtQtQtQtQtQtQtQtQtQtQtQtQtQtQtQtQtQtQtQtQtQtQtQt",
"QtQtQtQtQtQtQtQtQtQtQtQtQtQtQtQtQtQtQtQtQtQtQtQtQtQtQtQtQtQtQtQtQtQtQtQtQtQtQtQtQtQtQtQtQtQtQtQtQtQtQtQtQtQtQtQtQtQtQtQtQtQtQtQtQtQtQt.i.j.k.l.m.n.oQtQtQtQtQtQtQtQtQtQtQtQtQtQtQtQtQtQtQtQtQtQtQtQtQtQtQtQtQtQtQtQtQtQtQtQtQtQtQtQtQtQtQtQtQtQtQtQtQtQtQtQtQtQt",
"QtQtQtQtQtQtQtQtQtQtQtQtQtQtQtQtQtQtQtQtQtQtQtQtQtQtQtQtQtQtQtQtQtQtQtQtQtQtQtQtQtQtQtQtQtQtQtQtQt.#.c.p.q.rQtQtQtQtQtQtQtQtQtQtQtQtQt.s.t.u.v.w.x.y.bQtQtQtQtQtQtQtQtQtQtQtQtQtQtQtQtQtQtQtQtQtQtQtQtQtQtQtQtQtQtQtQtQtQtQtQtQtQtQtQtQtQtQtQtQtQtQtQtQtQtQtQtQt",
"QtQtQtQtQtQtQtQtQtQtQtQtQtQtQtQtQtQtQtQtQtQtQtQtQtQtQtQtQtQtQtQtQtQtQtQtQtQtQtQtQtQtQtQtQtQtQtQt.s.z.A.B.C.D.EQtQtQtQtQtQtQtQtQtQtQt.F.F.G.H.I.J.K.L.MQtQtQtQtQtQtQtQtQtQtQtQtQtQtQtQtQtQtQtQtQtQtQtQtQtQtQtQtQtQtQtQtQtQtQtQtQtQtQtQtQtQtQtQtQtQtQtQtQtQtQtQtQt",
"QtQtQtQtQtQtQtQtQtQtQtQtQtQtQtQtQtQtQtQtQtQtQtQtQtQtQtQtQtQtQtQtQtQtQtQtQtQtQtQtQtQtQtQtQtQtQt.N.O.P.B.Q.R.S.hQtQtQtQtQtQtQtQtQtQtQt.s.F.T.f.I.Q.U.V.bQtQtQtQtQtQtQtQtQtQtQtQtQtQtQtQtQtQtQtQtQtQtQtQtQtQtQtQtQtQtQtQtQtQtQtQtQtQtQtQtQtQtQtQtQtQtQtQtQtQtQtQtQt",
"QtQtQtQtQtQtQtQtQtQtQtQtQtQtQtQtQtQtQtQtQtQtQtQtQtQtQtQtQtQtQtQtQtQtQtQtQtQtQtQtQtQtQtQtQtQtQt.W.v.X.Y.Z.0.1.E.#QtQtQtQtQtQtQtQtQtQt.#.h.p.2.Q.3.U.h.sQtQtQtQtQtQt.s.#.4QtQtQtQtQtQtQtQtQtQtQtQtQtQtQtQtQtQtQtQtQtQtQtQtQtQtQtQtQtQtQtQtQtQtQtQtQtQtQtQtQtQtQtQt",
"QtQtQtQtQtQtQtQtQtQtQtQtQtQtQtQtQtQtQtQtQtQtQtQtQtQtQtQtQtQtQtQtQtQtQtQtQtQtQtQtQtQtQtQtQtQtQt.#.v.5.6.f.x.t.7.8QtQtQtQtQtQtQtQtQtQt.#.9.T#.###a#b#c.#QtQtQtQtQt.#.1#d.3.bQtQtQtQtQtQtQtQtQtQtQtQtQtQtQtQtQtQtQtQtQtQtQtQtQtQtQtQtQtQtQtQtQtQtQtQtQtQtQtQtQtQtQt",
"QtQtQtQtQtQtQtQtQtQtQtQtQtQtQtQtQtQtQtQtQtQtQtQtQtQtQtQtQtQtQtQtQtQtQtQtQtQtQtQtQtQtQtQtQtQt.s.O#e#f#g.t#h#.#i#jQtQtQtQtQtQtQtQtQtQt#k#l.T#m#n#o.p.P.iQtQtQtQt.r#p#q#r#s#t.#QtQtQtQtQtQtQtQtQtQtQtQtQtQtQtQtQtQtQtQtQtQtQtQtQtQtQtQtQtQtQtQtQtQtQtQtQtQtQtQtQtQt",
"QtQtQtQtQtQtQtQtQtQtQtQtQtQtQtQtQtQtQtQtQtQtQtQtQtQtQtQtQtQtQtQtQtQtQtQtQtQtQtQtQtQtQtQtQtQt.s.O#u.o.K#h.B#v.y#wQtQtQtQtQtQtQtQtQt.r.v.T.T#x.x.x.L#c#yQtQtQtQt.P#z#A#r#B#C#D#EQtQtQtQtQtQtQtQtQtQtQtQtQtQtQtQtQtQtQtQtQtQtQtQtQtQtQtQtQtQtQtQtQtQtQtQtQtQtQtQtQt",
"QtQtQtQtQtQtQtQtQtQtQtQtQtQtQtQtQtQtQtQtQtQtQtQtQtQtQtQtQtQtQtQtQtQtQtQtQtQtQtQtQtQtQtQtQtQt.s.O#F.L#G.H.H.u#h#HQtQtQtQtQtQtQtQtQt.r.2.T.O.x#I.x.q#J#KQtQtQtQt#L#x#M#N.u.7.9#EQtQtQtQtQtQtQtQtQtQtQtQtQtQtQtQtQtQtQtQtQtQtQtQtQtQtQtQtQtQtQtQtQtQtQtQtQtQtQtQtQt",
"QtQtQtQtQtQtQtQtQtQtQtQtQtQtQtQtQtQtQtQtQtQtQtQtQtQtQtQtQtQtQtQtQtQtQtQtQtQtQtQtQtQtQtQtQtQt.s.2#u.K#O#P#A#z.t#QQtQtQtQtQtQtQtQtQt.s.O.O#G#v.A#a#R#S.#QtQtQtQt#T.3#U.v.K.g#G#EQtQtQtQtQtQtQtQtQtQtQtQtQtQtQtQtQtQtQtQtQtQtQtQtQtQtQtQtQtQtQtQtQtQtQtQtQtQtQtQtQt",
"QtQtQtQtQtQtQtQtQtQtQtQtQtQtQtQtQtQtQtQtQtQtQtQtQtQtQtQtQtQtQtQtQtQtQtQtQtQtQtQtQtQtQtQtQtQt.s.2#V#g#W#X#Y#Z#..#QtQtQtQtQtQtQtQtQt.a.O#0#O#A#1#2#R#J.MQtQtQtQt#c.K.H.e#h#f#G#EQtQtQtQtQtQtQtQtQtQtQtQtQtQtQtQtQtQtQtQtQtQtQtQtQtQtQtQtQtQtQtQtQtQtQtQtQtQtQtQtQt",
"QtQtQtQtQtQtQtQtQtQtQtQtQtQtQtQtQtQtQtQtQtQtQtQtQtQtQtQtQtQtQtQtQtQtQtQtQtQtQtQtQtQtQtQtQtQt#Q.v#T.q.B#Z#d.U.h#yQtQtQtQtQtQtQtQtQt#E.O#3.h#h#P.3#c#f.sQtQtQtQt#0.F.S#v.p#c#G#EQtQtQtQtQtQtQtQtQtQtQtQtQtQtQtQtQtQtQtQtQtQtQtQtQtQtQtQtQtQtQtQtQtQtQtQtQtQtQtQtQt",
"QtQtQtQtQtQtQtQtQtQtQtQtQtQtQtQtQtQtQtQtQtQtQtQtQtQtQtQtQtQtQtQtQtQtQtQtQtQtQtQtQtQtQtQtQtQt.b#4#T.9#5.N#5#3#L#QQtQtQtQtQtQtQtQtQt#E#f.6#6.q.p.q#h.V.MQtQtQtQt#7.O#O.F.g.9#G#E#EQtQtQtQtQtQtQtQtQtQtQtQtQtQtQtQtQtQtQtQtQtQtQtQtQtQtQtQtQtQtQtQtQtQtQtQtQtQtQtQt",
"QtQtQtQtQtQtQtQtQtQtQtQtQtQtQtQtQtQtQtQtQtQtQtQtQtQtQtQtQtQtQtQtQtQtQtQtQtQtQtQtQtQtQtQtQtQt.##k#L.y#6#8#9a.#G.aQtQtQtQtQtQtQtQtQt#E#f.Ua#aa.f.Cab#kQtQtQtQtQt.b.O#x.F.F.h#L#E#EQtQtQtQtQtQtQtQtQtQtQtQtQtQtQtQtQtQtQtQtQtQtQtQtQtQtQtQtQtQtQtQtQtQtQtQtQtQtQtQt",
"QtQtQtQtQtQtQtQtQtQtQtQtQtQtQtQtQtQtQtQtQtQtQtQtQtQtQtQtQtQtQtQtQtQtQtQtQtQtQtQtQtQtQtQtQtQt.Mac.V.L.nadaeaf#v.bQtQtQtQtQtQtQtQtQt#E.o.eagah#O.SaiajQtQtQtQtQt.#.6.n.3.K.V.9#G#kQtQtQtQtQtQtQtQtQtQtQtQtQtQtQtQtQtQtQtQtQtQtQtQtQtQtQtQtQtQtQtQtQtQtQtQtQtQtQtQt",
"QtQtQtQtQtQtQtQtQtQtQtQtQtQtQtQtQtQtQtQtQtQtQtQtQtQtQtQtQtQtQtQtQtQtQtQtQtQtQtQtQtQtQtQtQtQtakac.o.U.R.calam#v#EQtQtQtQtQtQtQtQtak#1#c.nanagao.Q.OajQtQtQtQtQt.b#L.3.e.x.X#f#G#kQtQtQtQt.5apaqarQtQtQtQtQtQtQtQtQtQtQtQtQtQtQtQtQtQtQtQtQtQtQtQtQtQtQtQtQtQtQtQt",
"QtQtQtQtQtQtQtQtQtQtQtQtQtQtQtQtQtQtQtQtQtQtQtQtQtQtQtQtQtQtQtQtQtQtQtQtQtQtQtQtQtQtQtQtQtQt.a#L#Lahasatauav.w#EQtQtQtQtQtQtQtQt.baw.9.uaxay#1#1.F#kQtQtQtQtQt.Wak.haz.E.5#f#G#kQtQtQt.5aqaAaBaC.5QtQtQtQtQtQtQtQtQtQtQtQtQtQtQtQtQtQtQtQtQtQtQtQtQtQtQtQtQtQtQt",
"QtQtQtQtQtQtQtQtQtQtQtQtQtQtQtQtQtQtQtQtQtQtQtQtQtQtQtQtQtQtQtQtQtQtQtQtQtQtQtQtQtQtQtQtQtQt.#aD#LaaaEavaCaFaG#EQtQtQtQtQtQtQtQt#Q#0.E.vaEaHaI#1#C#kQtQtQtQtQt.b.6.D.p.9#c#caJ#kQtQtQtaraKaLaM#a.d.5QtQtQtQtQtQtQtQtQtQtQtQtQtQtQtQtQtQtQtQtQtQtQtQtQtQtQtQtQtQt",
"QtQtQtQtQtQtQtQtQtQtQtQtQtQtQtQtQtQtQtQtQtQtQtaN.bak.#aNQtQtQtQtQtQtQtQtQtQtQtQtQtQtQtQtQtQt#jaD.oaaaeaOaPaQaG.WQtQtQtQtQtQtQtQtaRaSazaTawawaw#1.OaUQtQtQtQtQt.T#6.ZaVaW.q.VaJ#kQtQtQt.daxaX#Y.O.G.X.5QtQtQtQtQtQtQtQtQtQtQtQtQtQtQtQtQtQtQtQtQtQtQtQtQtQtQtQtQt",
"QtQtQtQtQtQtQtQtQtQtQtQtQtQtQtQtQtQtQtQtQtQtaNaX.S.S.f#vaUQtQtQtQtQtQtQtQtQtQtQtQtQtQtQtQtQtaYaD.haZ#ra0a1a2a3#TQtQtQtQtQtQtQt.#.E#la4a5#7#0a6#o.K.NQtQtQtQtQt#La7a8a.aa.L.ha9#kQtQtQt#Jb.#2.m.D#ca7b#.5QtQtQtQtQtQtQtQtQtQtQtQtQtQtQtQtQtQtQtQtQtQtQtQtQtQtQtQt",
"QtQtQtQtQtQtQtQtQtQtQtQtQtQtQtQtQtQtQtQtQtQtaNaE#l.3#qba.QbbQtQtQtQtQtQtQtQtQtQtQtQtQtQtQtQtbcaD#L.t#Gbdbebf.u.gQtQtQtQtQtQtQt.#aw#3bg#O.nbhaTaT#pbiQtQtQtQt#h.X.0bjaJbk.U#0.x#kQtQtQtblaHbm.H#g.6#c.caJ.5QtQtQtQtQtQtQtQtQtQtQtQtQtQtQtQtQtQtQtQtQtQtQtQtQtQtQt",
"QtQtQtQtQtQtQtQtQtQtQtQtQtQtQtQtQtQtQtQtQtQtaNaE#l#p#d.mae#n#uQtQtQtQtQtQtQtQtQtQtQtQtQtQtQtaYaD.h.q#Pbnbo.j.O.pQtQtQtQtQtQtQtbpbqbragbsbqbt#Bbu.K.rQtQtQtQt.#.nbvbwbxad.x.o.x#kQtQtQtQt.kby.2.F.L.P#u#G.5QtQtQtQtQtQtQtQtQtQtQtQtQtQtQtQtQtQtQtQtQtQtQtQtQtQtQt",
"QtQtQtQtQtQtQtQtQtQtQtQtQtQtQtQtQtQtQtQtQtQtaNaE.h.obzbfaEbjaybi.WQtQtQtQtQtQtQtQtQtQtQtQtQtbAaD#0.u#ZbBbCbDbE.pbFQtQtQtQtQtQt.#.t#pbGbHbIbJbKbL.LaUQtQtQtQtak#sbMbNbOadbPaSad#kQtQtQtQt#j#9.f.t.6#c#u#G#G.5QtQtQtQtQtQtQtQtQtQtQtQtQtQtQtQtQtQtQtQtQtQtQtQtQtQt",
"QtQtQtQtQtQtQtQtQtQtQtQtQtQtQtQtQtQtQtQtQtQtaNbQ.9.9#oaa#8bOb.bl.#QtQtQtQtQtQtQtQtQtQtQtQtQtaY#4bR#v#rbSbTbUbVbPajQtQtQtQtQtQt#j#6#gbWbXbYbZb0b1.gaUQtQtQtQt#EaVb2bqana8.n#L#E#kQtQtQtQt#wag#Z.K#G.7#V#Sb3.5QtQtQtQtQtQtQtQtQtQtQtQtQtQtQtQtQtQtQtQtQtQtQtQtQtQt",
"QtQtQtQtQtQtQtQtQtQtQtQtQtQtQtQtQtQtQtQtQtQtaNbQ.V.V#oaV.0b4b5##b6b7QtQtQtQtQtQtQtQtQtQtQtQtbpbq#7b8#sbTb9c.c#cacbccQtQtQtQt#E.#.U.BbDcdcecfcga0.U.#QtQtQt#G.q.fcha7#e#g#T.x.x.xQtQtQtQtQtbl.t#h.Y.Eci#u#G.5QtQtQtQtQtQtQtQtQtQtQtQtQtQtQtQtQtQtQtQtQtQtQtQtQtQt",
"QtQtQtQtQtQtQtQtQtQtQtQtQtQtQtQtQtQtQtQtQtQtQt#k.6#fcjck.k.0alclcm#HQtQtQtQtQtQtQtQtQtQtQtQtcn.scia6.cbTbKcocpcq.6crQtQtQtQt#E#E.PbabLcocsctcucv.y#EQtQtQtcw.O.B#xcxb#.n#g.x#kQtQtQtQtQtQt.i#T.t#v.7br#F#G.5QtQtQtQtQtQtQtQtQtQtQtQtQtQtQtQtQtQtQtQtQtQtQtQtQtQt",
"QtQtQtQtQtQtQtQtQtQtQtQtQtQtQtQtQtQtQtQtQtQtQtaYcy#u#l.U.kczcAcBbU.NQtQtQtQtQtQtQtQtQtQtQtQtcn.s.ucia#cAcCcDcEcFcGcHQtQtQtQt#E#EcI#Yb#cJcKcLcMcNap#EQtQtQtcOcPcQcRbBbf.1.o.x#EQtQtQtQtQtQtcSahb7.ycTcjcUa7.5QtQtQtQtQtQtQtQtQtQtQtQtQtQtQtQtQtQtQtQtQtQtQtQtQtQt",
"QtQtQtQtQtQtQtQtQtQtQtQtQtQtQtQtQtQtQtQtQtQtQtaYbQ#u#L.DckczbTcAcVaScWQtQtQtQtQtQtQtQtQtQtQtQt.scX#u#ocYaPcZc0c1bSc2QtQtQtQt#EcIc3c4b#c5c6c7cucN.d#EQtQtc8c9d.d#cddaa2a.#la8#EQtQtQtQtQtQtdbdcddde#bdfdgaJ.5QtQtQtQtQtQtQtQtQtQtQtQtQtQtQtQtQtQtQtQtQtQtQtQtQtQt",
"QtQtQtQtQtQtQtQtQtQtQtQtQtQtQtQtQtQtQtQtQtQtQtaYdhaS.o.g#o.zdidjdkdb.#QtQtQtQtQtQtQtQtQtQtQtQt.s.sdl.Rdmdndodpdqdr#B.#QtQtQt#EcIdsdtagdudvaudwa1bl#EQtQtdxdydzd#dAdBbObzdC.4#kQtQtQtQtQt.#dDdEafdFdGardHa9.5QtQtQtQtQtQtQtQtQtQtQtQtQtQtQtQtQtQtQtQtQtQtQtQtQtQt",
"QtQtQtQtQtQtQtQtQtQtQtQtQtQtQtQtQtQtQtQtQtQtQtaYdIdJ.o#0aVahdKdLdMdGdNQtQtQtQtQtQtQtQtQtQtQtQt.s.sdJdOdPdQdRdSdTdU#t.j.pQt#E#EdVdWdXdGdYdZd0d1d2d3#EQtQtd4d5d6d7d8bCd9e.dCa8#kQtQtQtQtQtaYe#bM#9#n.peadga9.5QtQtQtQtQtQtQtQtQtQtQtQtQtQtQtQtQtQtQtQtQtQtQtQtQtQt",
"QtQtQtQtQtQtQtQtQtQtQtQtQtQtQtQtQtQtQtQtQtQtQtaYebec#L#0aV#o.A#a#bcj.#QtQtQtQtQtQtQtQtQtQtQtQted#4eeefeg#behaMeiejekelemdT#E#Eeneoepdjeqereseteuevew#EexeyezeAeBbSeCe.dba8#kQtQtQtQtQtQt#5#GeDa7#G.LaSaSeE.5QtQtQtQtQtQtQtQtQtQtQtQtQtQtQtQtQtQtQtQtQtQtQtQtQtQt",
"QtQtQtQtQtQtQtQtQtQtQtQtQtQtQtQtQtQtQtQtQtQtQtaYeFeG#i#TeH.h#SaVahbu#bQtQtQtQtQtQtQtQtQtQtQtQted#4eIaMeJeKeLeMdceNeOePeQc#eReSeTeUeVeWeXeYeZe0e1e2e3e4dDe5e6bLe7e8dRe9cHaS#EQtQtQtQtQtf.#a.H.7#G#v.Uci#JeE.5QtQtQtQtQtQtQtQtQtQtQtQtQtQtQtQtQtQtQtQtQtQtQtQtQtQt",
"QtQtQtQtQtQtQtQtQtQtQtQtQtQtQtQtQtQtQtQtQtQtQtaYf#fa.U.5cH#.#d#raLbMfb.#QtQtQtQtQtQtQtQtQtQtQted#4fcfdfefffgfhbNfifjfkflfmfnfofpfqfrfsftfufmfvfwfxfyfzfAfB#PcHfCaTahfDfE.5#EQtQtQtQtfFfGfHdRfI.5fJ.U#Fd3.z.5QtQtQtQtQtQtQtQtQtQtQtQtQtQtQtQtQtQtQtQtQtQtQtQtQtQt",
"QtQtQtQtQtQtQtQtQtQtQtQtQtQtQtQtQtQtQtQtQtQtQtaYfKfL#L.9#efM.tfNfOfPbqfQQtQtededQtQtQtQtQtQted#4#4fRfSfTfUfVfWfXeFfjfYfZePf0f1f2f3f4f5f6f7f8f9g.g#gagbgcbngdb2fCbPdJgecH.5.#QtQtQt#QgfggfjbCgh.5#p#f#V#o.5QtQtQtQtQtQtQtQtQtQtQtQtQtQtQtQtQtQtQtQtQtQtQtQtQtQtQt",
"QtQtQtQtQtQtQtQtQtQtQtQtQtQtQtQtQtQtQtQtQtQtQtQt#jgi#L#L.L.ndJaAgjgkglbkdfQtgmgnedQtQtQtQtQtedgogpgqgrgsgtgugvgwgxgygzgAgBgCgDgEgFgGgHgIgJgKgLgMgNgOgPgQgRgSgTbHgUgVgWgXgYgZQtQtg0aVg1bXeBdL#A#..C.9#0eE.5QtQtQtQtQtQtQtQtQtQtQtQtQtQtQtQtQtQtQtQtQtQtQtQtQtQtQt",
"QtQtQtQtQtQtQtQtQtQtQtQtQtQtQtQtQtQtQtQtQtQtQtQt#jg2#L.9#l#gbadb.ja1g3g4g5Qtg6g7g8edQtQtQtQtedg9h.h#hahbhchdhehfhghhhifzhjhkhlhmhnhohphqhrhshthuhvhwhxhyhzhAhBhChDhEhFhGhHhIhJhKhLhMhNhOhPhQ.B.p#f#LhR.#QtQtQtQtQtQtQtQtQtQtQtQtQtQtQtQtQtQtQtQtQtQtQtQtQtQtQtQt",
"QtQtQtQtQtQtQtQtQtQtQtQtQtQtQtQtQtQtQtQtQtQtQtQtaNhS.9.V#L#.hTdbbkhUhVhWhXhYhZh0h1edQtQtQtedh2h3h4h5h6h7h8h9i.i#iaibicidieifigihiiijikibiliminhvioipiqirisitiuiviwixiyiziAiBiCiDiEiFiGiHbSgf.O.o.5#c#niIQtQtQtQtQtQtQtQtQtQtQtQtQtQtQtQtQtQtQtQtQtQtQtQtQtQtQtQt",
"QtQtQtQtQtQtQtQtQtQtQtQtQtQtQtQtQtQtQtQtQtQtQtQtQtaja7cT#l.L.1.I.3iJiKiLiMiNiOiPiQiRededediSiTiUiVeViWiXiYiZi0i1i2i3i4i5i6i7i8i9j.j#jajbjcjdjejfjgjhjijjjkjljmjnjojpjqjreOjsjtjujvjwjxjyjzjA#f.5fJjB#yQtQtQtQtQtQtQtQtQtQtQtQtQtQtQtQtQtQtQtQtQtQtQtQtQtQtQtQtQt",
"QtQtQtQtQtQtQtQtQtQtQtQtQtQtQtQtQtQtQtQtQtQtQtQtQtaNjC.9jDjEehjFjGjHjIjJjKjLjMjNjOjPjQjRjSjTjUjVjWjXjYjZj0j1j2j3j4j5j6j7j8j9k.k#kakbkckdkekfkgkhkikjkkklkmknkokpkqkrcEksktkukvkwkxkykzkAkBkCkD.9crad.5QtQtQtQtQtQtQtQtQtQtQtQtQtQtQtQtQtQtQtQtQtQtQtQtQtQtQtQtQt",
"QtQtQtQtQtQtQtQtQtQtQtQtQtQtQtQtQtQtQtQtQtQtQtQtQtQt#jkE#V#LkFkGkHkIkJkKkLkMkNkOkPkQkRkSkTkUkVkWkXkYkZk0k1k2k3k4k5k6k7k8k9l.l#lalblcldjelelflglhliljlklilllmlneslolpelgwfklqlrlsltlulvlwlxly.o.h#R.4QtQtQtQtQtQtQtQtQtQtQtQtQtQtQtQtQtQtQtQtQtQtQtQtQtQtQtQtQtQt",
"QtQtQtQtQtQtQtQtQtQtQtQtQtQtQtQtQtQtQtQtQtQtQtQtQtQt.#du#clz#plAlBlClDlElFlGlHlIlJlKlLlMlNlOlPlQlRlSlTlUlVlWlXlYlZl0l1l2l3l4l5l6l7l8l9m.m#mambmcmdmemfmgmhmimjmkmlmmmnmompmqmrmsmtmumvmwmxmyd3bs.#QtQtQtQtQtQtQtQtQtQtQtQtQtQtQtQtQtQtQtQtQtQtQtQtQtQtQtQtQtQtQt",
"QtQtQtQtQtQtQtQtQtQtQtQtQtQtQtQtQtQtQtQtQtQtQtQtQtQtaNaZap.9mzmAmBmCmDmEmFmGmHmImJmKmLmMmNmOmPmQmRmSmTmUmVmWmXmYmZm0m1m2m3m4m5m6m7m8m9n.n#jenanbncndnenfngnhninjnknlfknmnnnonpnqnrnsntnunvnwnxnyhYQtQtQtQtQtQtQtQtQtQtQtQtQtQtQtQtQtQtQtQtQtQtQtQtQtQtQtQtQtQtQt",
"QtQtQtQtQtQtQtQtQtQtQtQtQtQtQtQtQtQtQtQtQtQtQtQtQtQtQtnzbfnAnBnCnDnEnFnGnHnInJnKnLnMnNnOnPnQnRnSj0nTnUnVnWnXnYnZn0n1n2n3mejan4n5n6n7n8n9o.o#mfoaobocodoeofogohoiojokolomonooopoqorosotouovowox.5QtQtQtQtQtQtQtQtQtQtQtQtQtQtQtQtQtQtQtQtQtQtQtQtQtQtQtQtQtQtQtQt",
"QtQtQtQtQtQtQtQtQtQtQtQtQtQtQtQtQtQtQtQtQtQtQtQtQtQtQtnzoyozoAoBoCoDoEoFoGoHoIoJoKbVoLoMaJoNoOoPoQoRoSoToUoVipoWoXoYoZo0o1o2o3o4o5o6o7o8o9p.p#papbpcpdpeidpfpgphpipjpkplpmpnpopppqprpsgXptpuaJ.5QtQtQtQtQtQtQtQtQtQtQtQtQtQtQtQtQtQtQtQtQtQtQtQtQtQtQtQtQtQtQtQt",
"QtQtQtQtQtQtQtQtQtQtQtQtQtQtQtQtQtQtQtQtQtQtQtQtQtQtQtnzpvpwpxpypzozpA#jpBpCpDpEpFdBpGpHpIpJpKpLpMpNpOpPpQpRpSpTpUpVpWpXpYpZp0p1p2p3p4p5p6p7p8p9q.q#qaqbqcqdqeqfqgqhqiqjqkqlqmqnqoqpqqqrqsqt.aQtQtQtQtQtQtQtQtQtQtQtQtQtQtQtQtQtQtQtQtQtQtQtQtQtQtQtQtQtQtQtQtQt",
"QtQtQtQtQtQtQtQtQtQtQtQtQtQtQtQtQtQtQtQtQtQtQtQtQtQtQtnzpzquqvqwqxqyqzqAqBqCqDaOqEcCqFkoqGqHqIqJqKoKqLqMg1emqNqOqPbIqQemqRqSqTqUqVqWqXqYqZq0q1q2q3q4q5q6q7q8q9k7r.r#rarbrcrdrengrfh3rgrhrirjQtQtQtQtQtQtQtQtQtQtQtQtQtQtQtQtQtQtQtQtQtQtQtQtQtQtQtQtQtQtQtQtQtQt",
"QtQtQtQtQtQtQtQtQtQtQtQtQtQtQtQtQtQtQtQtQtQtQtQtQtQtnzrkrlrmrnrorprqrrrsrtrurvrwa9rxryrzrArBrCrDrErFrGrHrIrJpzoxrKrLemrMrNrOcehfrPrQrRrSrTrUrVrWrXrYrZr0r1r2r3r4r5r6r7r8r9s.rGs#sasbscsdseaYQtQtQtQtQtQtQtQtQtQtQtQtQtQtQtQtQtQtQtQtQtQtQtQtQtQtQtQtQtQtQtQtQtQt",
"QtQtQtQtQtQtQtQtQtQtQtQtQtQtQtQtQtQtQtQtQtQtQtQtQtnzsfsgshsisjskslsmsnsospsqsrsse#stsusvswsxsyszsAsBsCsDsEsFsGsHsIsJnNsKsLsMsNsOsPsQsRsSsTsUsVsWsXsYsZs0s1s2s3s4s5s6nVs7s8s9t.t#tatbtctdte.5QtQtQtQtQtQtQtQtQtQtQtQtQtQtQtQtQtQtQtQtQtQtQtQtQtQtQtQtQtQtQtQtQtQt",
"QtQtQtQtQtQtQtQtQtQtQtQtQtQtQtQtQtQtQtQtQtQtQtQtQtQtnztftgthtitjtktltmtntotptqfLtrtstttutvtwtxtytztAtBtCtDtEtFtGtHtItJtKtLtMtNtOtPtQtRtStTtUtVtWkntXtYtZt0t1t2t3t4t5t6t7t8t9dAu.u#uaubizuc.5QtQtQtQtQtQtQtQtQtQtQtQtQtQtQtQtQtQtQtQtQtQtQtQtQtQtQtQtQtQtQtQtQtQt",
"QtQtQtQtQtQtQtQtQtQtQtQtQtQtQtQtQtQtQtQtQtQtQtQtQtQtQtnzudueufuguhtkuiujukuljAumunuoupuqurusutuuuvuwuxuyuzuAuBuCuDuEuFuGuHuIuJuKuLuMuNuOuPdLj3uQuRuSuTuUuVuWuXuYuZu0u1u2u3cAbCu4u5u6u7u8u9QtQtQtQtQtQtQtQtQtQtQtQtQtQtQtQtQtQtQtQtQtQtQtQtQtQtQtQtQtQtQtQtQtQtQt",
"QtQtQtQtQtQtQtQtQtQtQtQtQtQtQtQtQtQtQtQtQtQtQtQtQtQtQtnzv.uNv#vavbvcvdvevfvgvhvirZvjvkvlvmvnvovpvqvrvsvtvuvvvwvxvyvzvAvBvCvDvEvFvGqHvHaPvIooqLvJvKuEvLc#bZcgvMvNvOcDvPk2vQvRvSvTprvUvVvW#HQtQtQtQtQtQtQtQtQtQtQtQtQtQtQtQtQtQtQtQtQtQtQtQtQtQtQtQtQtQtQtQtQtQtQt",
"QtQtQtQtQtQtQtQtQtQtQtQtQtQtQtQtQtQtQtQtQtQtQtQtQtQtQtnzvXvYvZv0.9#fv1v2v3v4v5v6v7v8v9w.afiXw#vAvYwawbwcwdwewfwgnzwhwiwjwkkSwlwmwnwowpbvwqwreiwswtwub0wvwwwxwyv5wzwAwBwCwDwEwFwGwHwItPwJ.#QtQtQtQtQtQtQtQtQtQtQtQtQtQtQtQtQtQtQtQtQtQtQtQtQtQtQtQtQtQtQtQtQtQtQt",
"QtQtQtQtQtQtQtQtQtQtQtQtQtQtQtQtQtQtQtQtQtQtQtQtQtQtQtnzwKiTQt#9wLwMwNwOwPwQwRwSwTdGwUwVaswWwXwYwZw0w1w2dSw3w4w5w6w7w8w9x.x#xaxbxcxdxebvxfxgxhkkxixjcgxkfmcsxlxmxni0g1xoxpxqxrxsxtxuxvxwQtQtQtQtQtQtQtQtQtQtQtQtQtQtQtQtQtQtQtQtQtQtQtQtQtQtQtQtQtQtQtQtQtQtQtQt",
"QtQtQtQtQtQtQtQtQtQtQtQtQtQtQtQtQtQtQtQtQtQtQtQtQtQtQtnzxxxyQtQt#Hxz.pxAxBxCxDxExF.g#a#axGxHxIsdxJxKxLxMxNxObppQxPxQxRxSxTxUcvxVxWxXxYxZx0x1x2sMx3x4sJx5x6x6x7x8x9y.y##ryajjybycydyeyfygQtQtQtQtQtQtQtQtQtQtQtQtQtQtQtQtQtQtQtQtQtQtQtQtQtQtQtQtQtQtQtQtQtQtQtQt",
"QtQtQtQtQtQtQtQtQtQtQtQtQtQtQtQtQtQtQtQtQtQtQtQtQtQtQtnzyhyiyjQtQtykylymynyoypyqyr.d.GysytyuyvywyxyyozyzyAyByCyDyyyEyFyGyHyIyJvTyKyLyMv9btyNqMyOyPyQyRySfHyOyTyUyVyWyXyYyZy0y1y2y3y4aNQtQtQtQtQtQtQtQtQtQtQtQtQtQtQtQtQtQtQtQtQtQtQtQtQtQtQtQtQtQtQtQtQtQtQtQtQt",
"QtQtQtQtQtQtQtQtQtQtQtQtQtQtQtQtQtQtQtQtQtQtQtQtQtQtQtQtnzy5y6QtQtQty7cky8y9z.z#zadJ.G.ydSzbzczdgZzezfzgzhzizjtazklAzlzmznkQzozpzqzrzsztzucMcZqMt0zvzwcqzxfHzyzzzAzBzCzDzEzFzGycdHzHzIQtQtQtQtQtQtQtQtQtQtQtQtQtQtQtQtQtQtQtQtQtQtQtQtQtQtQtQtQtQtQtQtQtQtQtQtQt",
"QtQtQtQtQtQtQtQtQtQtQtQtQtQtQtQtQtQtQtQtQtQtQtQtQtQtQtQtnzzJzKzLQtQtQt.#zMzNzOzPq9zQ.p.g#ezRzSzTzUzVzWzXzYzZz0z1z2z3z4z5z6z7z8z9A.A#AaAbbmAczxAdAeAfAgAhAib9AjAjAkAlAmAnAoApAqArAsAtAuQtQtQtQtQtQtQtQtQtQtQtQtQtQtQtQtQtQtQtQtQtQtQtQtQtQtQtQtQtQtQtQtQtQtQtQtQt",
"QtQtQtQtQtQtQtQtQtQtQtQtQtQtQtQtQtQtQtQtQtQtQtQtQtQtQtQtnzaNAvAwgZAxQtQt#rAyAzAAlRAB#f#i#eACADAEugAFAGAHAIAJAKALAMlE#aANAOAPtA#xAQARnJASATAUcMAdljAVAWAXAYAjAZvSA0A1A2A3A4A5lRy1A6A7A8QtQtQtQtQtQtQtQtQtQtQtQtQtQtQtQtQtQtQtQtQtQtQtQtQtQtQtQtQtQtQtQtQtQtQtQtQt",
"QtQtQtQtQtQtQtQtQtQtQtQtQtQtQtQtQtQtQtQtQtQtQtQtQtQtQtQtQtnzA9B.B#gZgZBaBbBcBdBeseBfBgaccifQBhBib8Bja#BkkE.6BlBmBnBoBpBqBrBsBtBuBvBwBxwmBkBydnBzBABBqHBCBDBEBFBGBHBIBJBKBLBMBNBOBPBQ.5QtQtQtQtQtQtQtQtQtQtQtQtQtQtQtQtQtQtQtQtQtQtQtQtQtQtQtQtQtQtQtQtQtQtQtQtQt",
"QtQtQtQtQtQtQtQtQtQtQtQtQtQtQtQtQtQtQtQtQtQtQtQtQtQtQtQtQtQtnzBRBSBTBUBVBWBXBYBZB0B1nAB2B3fCcj#ac2ddB4B5B5B6B7B8B9C.C#CaCbCcCdCeCfCgCh#zCiCjCkCllGCmBICngRCoCpCqCrCsCtCudWy1CvCwCxCy.5QtQtQtQtQtQtQtQtQtQtQtQtQtQtQtQtQtQtQtQtQtQtQtQtQtQtQtQtQtQtQtQtQtQtQtQtQt",
"QtQtQtQtQtQtQtQtQtQtQtQtQtQtQtQtQtQtQtQtQtQtQtQtQtQtQtQtQtQtnzQtnznznznzCzCACBCCCDCECFCGCH#e#e#RdbbzbzbzbzCICJCKCLCMCNCOCPCQCRCSCTpQtiCUCVCWdmCXCYCZC0C1C2C3C4C5C6C7C8C9D.zHD#DaDbDcQtQtQtQtQtQtQtQtQtQtQtQtQtQtQtQtQtQtQtQtQtQtQtQtQtQtQtQtQtQtQtQtQtQtQtQtQtQt",
"QtQtQtQtQtQtQtQtQtQtQtQtQtQtQtQtQtQtQtQtQtQtQtQtQtQtQtQtQtQtQtQtQtQtQtQtnznzaNDdDeDf#V.5#FaSblaW#b#e#b#edGDgbhDhjiDiDjDkDlDmDnDoDpDqDrDsDtDuDvDwDxDyDzDAagDBDCDDDEDFtmnPDGDHDIDJDKDLQtQtQtQtQtQtQtQtQtQtQtQtQtQtQtQtQtQtQtQtQtQtQtQtQtQtQtQtQtQtQtQtQtQtQtQtQtQt",
"QtQtQtQtQtQtQtQtQtQtQtQtQtQtQtQtQtQtQtQtQtQtQtQtQtQtQtQtQtQtQtQtQtQtQtQtQtQtnzDMDNDOcODPge#FaScHbu#p.g.U.gDQDRDSDTDUDVDWDXDYDZD0D1D2D3D4D5D6D7D8D9E.E#EaEbEcEdq9EeEfB3aSEgEhEiEjpzQtQtQtQtQtQtQtQtQtQtQtQtQtQtQtQtQtQtQtQtQtQtQtQtQtQtQtQtQtQtQtQtQtQtQtQtQtQtQt",
"QtQtQtQtQtQtQtQtQtQtQtQtQtQtQtQtQtQtQtQtQtQtQtQtQtQtQtQtQtQtQtQtQtQtQtQtQtQtEkElEmnz.4En.V.9.o.o.oac#L#L#LcifE#L.qnP#uEoEpEqErEsEtEuEvEwExEyEzEAEBECEDEEEFEGEHEIEJAEDVvdv2EKELcMhYEMQtQtQtQtQtQtQtQtQtQtQtQtQtQtQtQtQtQtQtQtQtQtQtQtQtQtQtQtQtQtQtQtQtQtQtQtQtQt",
"QtQtQtQtQtQtQtQtQtQtQtQtQtQtQtQtQtQtQtQtQtQtQtQtQtQtQtQtQtQtQtQtQtQtQtQtQtQtENnznzQt.#EO#G#f.9.9.9.9.9.9.5#u.5#pcTnAzX.pEPEQERESETEUEVfaEWhYEXEYEZE0E1E2E3xtE4myE5fC#f#fE6E7E8.#QtQtQtQtQtQtQtQtQtQtQtQtQtQtQtQtQtQtQtQtQtQtQtQtQtQtQtQtQtQtQtQtQtQtQtQtQtQtQtQt",
"QtQtQtQtQtQtQtQtQtQtQtQtQtQtQtQtQtQtQtQtQtQtQtQtQtQtQtQtQtQtQtQtQtQtQtQtQtQtQtQtQtQtQt.#E9F..v.E#fac.5.9.9.5.5.V#FDgzpF#FaFbFcFdFeFfFgFhFiFjFkFllAFmFnFoFpFqFrFsFtfE.5.5lzFusr.#QtQtQtQtQtQtQtQtQtQtQtQtQtQtQtQtQtQtQtQtQtQtQtQtQtQtQtQtQtQtQtQtQtQtQtQtQtQtQtQt",
"QtQtQtQtQtQtQtQtQtQtQtQtQtQtQtQtQtQtQtQtQtQtQtQtQtQtQtQtQtQtQtQtQtQtQtQtQtQtQtQtQtQtQtQt.#Fvd3#7#i.y#p.9.oa4.5.dFwFxFyFzFAFBFCFDFEFFozFGFHFIwHevFJFKFLFMFNFOFPhJFQFRwhFSFTFUFVQtQtQtQtQtQtQtQtQtQtQtQtQtQtQtQtQtQtQtQtQtQtQtQtQtQtQtQtQtQtQtQtQtQtQtQtQtQtQtQtQt",
"QtQtQtQtQtQtQtQtQtQtQtQtQtQtQtQtQtQtQtQtQtQtQtQtQtQtQtQtQtQtQtQtQtQtQtQtQtQtQtQtQtQtQtQt.#FWFXFY#f.o.o.o.o#f.g.L#iFZF0EIF1F2F3F4F5F6F7F8F9G.bcG#h3GaGbGcGdGeGfGgGhGi.9GjGk.#QtQtQtQtQtQtQtQtQtQtQtQtQtQtQtQtQtQtQtQtQtQtQtQtQtQtQtQtQtQtQtQtQtQtQtQtQtQtQtQtQtQt",
"QtQtQtQtQtQtQtQtQtQtQtQtQtQtQtQtQtQtQtQtQtQtQtQtQtQtQtQtQtQtQtQtQtQtQtQtQtQtQtQtQtQtQtQt.#GlGmGnGo#f.5.9.o.h.5.h#L.9GpGqGrGsGtGuGvGwGxGykFGzgeGAGBGCGDGEGFGGGHGIGJGKDPGLnm#wQtQtQtQtQtQtQtQtQtQtQtQtQtQtQtQtQtQtQtQtQtQtQtQtQtQtQtQtQtQtQtQtQtQtQtQtQtQtQtQtQtQt",
"QtQtQtQtQtQtQtQtQtQtQtQtQtQtQtQtQtQtQtQtQtQtQtQtQtQtQtQtQtQtQtQtQtQtQtQtQtQtQtQtQtQtQt.#GMGNGOcH.9.5.9.V#c.o#L#T#TGPGQGRGSDvGTGUGVGWGXGYGZG0G1G2G3G4G5G6G7G8G9H.H#HaHbHcHdQtQtQtQtQtQtQtQtQtQtQtQtQtQtQtQtQtQtQtQtQtQtQtQtQtQtQtQtQtQtQtQtQtQtQtQtQtQtQtQtQtQtQt",
"QtQtQtQtQtQtQtQtQtQtQtQtQtQtQtQtQtQtQtQtQtQtQtQtQtQtQtQtQtQtQtQtQtQtQtQtQtQtQtQtQtQtQtHeHfHgHhAswh.o#L.o#0.Eaz.7#vHiHjHkHlHmHnz8HoHpHqHrHsHtbbHuHvHwHxGBHyHzHAHBhKHCHDc2.#QtQtQtQtQtQtQtQtQtQtQtQtQtQtQtQtQtQtQtQtQtQtQtQtQtQtQtQtQtQtQtQtQtQtQtQtQtQtQtQtQtQtQt",
"QtQtQtQtQtQtQtQtQtQtQtQtQtQtQtQtQtQtQtQtQtQtQtQtQtQtQtQtQtQtQtQtQtQtQtQtQtQtQtQtQtQtQtHEHFHGHHHInA#L.7.O.D.p.q.q#L#gHJHKHLCuHMxzlEHNHOHPpsHQHRdlHSHTvYHUHVHWHXHYHZE.H0H1.#QtQtQtQtQtQtQtQtQtQtQtQtQtQtQtQtQtQtQtQtQtQtQtQtQtQtQtQtQtQtQtQtQtQtQtQtQtQtQtQtQtQtQt",
"QtQtQtQtQtQtQtQtQtQtQtQtQtQtQtQtQtQtQtQtQtQtQtQtQtQtQtQtQtQtQtQtQtQtQtQtQtQtQtQtQtQtQtH2H3H4.#H5H6.o.5.9.9#f.o.qb3H7H8qHH9I.I#BgpQIaIbIcIdjHIeIfIgIhIiIjIkwIv3IlImInIoIpIqIrQtQtQtQtQtQtQtQtQtQtQtQtQtQtQtQtQtQtQtQtQtQtQtQtQtQtQtQtQtQtQtQtQtQtQtQtQtQtQtQtQtQt",
"QtQtQtQtQtQtQtQtQtQtQtQtQtQtQtQtQtQtQtQtQtQtQtQtQtQtQtQtQtQtQtQtQtQtQtQtQtQtQtQtQtQtQtkSIsItIuIvGt.5.y#i.E#g.KrqymIwIxIyIzIAIBbrICIDIElEIFFIIGIHIIIJIKxdILzQIMINIOIPIQIRISICQtQtQtQtQtQtQtQtQtQtQtQtQtQtQtQtQtQtQtQtQtQtQtQtQtQtQtQtQtQtQtQtQtQtQtQtQtQtQtQtQtQt",
"QtQtQtQtQtQtQtQtQtQtQtQtQtQtQtQtQtQtQtQtQtQtQtQtQtQtQtQtQtQtQtQtQtQtQtQtQtQtQtQtQtQtQtQtlAITIUIVIW.o#7az.KIX.Ka6fDIYIZI0I1I2I3I4I5I6I7gZI8I9J.vYJ#JaJbJcJdJeFYjvJfJgygJhpzFUQtQtQtQtQtQtQtQtQtQtQtQtQtQtQtQtQtQtQtQtQtQtQtQtQtQtQtQtQtQtQtQtQtQtQtQtQtQtQtQtQtQt",
"QtQtQtQtQtQtQtQtQtQtQtQtQtQtQtQtQtQtQtQtQtQtQtQtQtQtQtQtQtQtQtQtQtQtQtQtQtQtQtQtQtQtQtQtJiJjJkJlJmJnJoJp.texAQwUFGJqJrJsJtJuJvJwyDJxJy#QJzJAJBJCJDJEJFJGJHdgJIJJJKygJLpQJMJNJOQtQtQtQtQtQtQtQtQtQtQtQtQtQtQtQtQtQtQtQtQtQtQtQtQtQtQtQtQtQtQtQtQtQtQtQtQtQtQtQtQt",
"QtQtQtQtQtQtQtQtQtQtQtQtQtQtQtQtQtQtQtQtQtQtQtQtQtQtQtQtQtQtQtQtQtQtQtQtQtQtQtQtQtQtQtQt.#JPpQJQJRJSJTJUH2JVJWJXJYJZJ0J1J2J3J4J5GKJ6J7J8J9lEK.K#snBuKaKbKcKdKeKfKgKhKiKjKklAQtQtQtQtQtQtQtQtQtQtQtQtQtQtQtQtQtQtQtQtQtQtQtQtQtQtQtQtQtQtQtQtQtQtQtQtQtQtQtQtQtQt",
"QtQtQtQtQtQtQtQtQtQtQtQtQtQtQtQtQtQtQtQtQtQtQtQtQtQtQtQtQtQtQtQtQtQtQtQtQtQtQtQtQtQtQtQt.#pzKlKmKntiKoKpKqKrKsKtKupQHWE.KvKwKxz8KyKzKAICKBKCyyKDKEKFKGKHkBKIKJKKKLKMKNKOCBQtQtQtQtQtQtQtQtQtQtQtQtQtQtQtQtQtQtQtQtQtQtQtQtQtQtQtQtQtQtQtQtQtQtQtQtQtQtQtQtQtQtQt",
"QtQtQtQtQtQtQtQtQtQtQtQtQtQtQtQtQtQtQtQtQtQtQtQtQtQtQtQtQtQtQtQtQtQtQtQtQtQtQtQtQtQtQtQtQt.#KPKQ.VKRKSKTKUKVKWKXKYKZK0K1K2gZpQK3K4K5K6K7K8K9L.L#LaLbLcLdh#LeLfLglELhLiLjpzQtQtQtQtQtQtQtQtQtQtQtQtQtQtQtQtQtQtQtQtQtQtQtQtQtQtQtQtQtQtQtQtQtQtQtQtQtQtQtQtQtQtQt",
"QtQtQtQtQtQtQtQtQtQtQtQtQtQtQtQtQtQtQtQtQtQtQtQtQtQtQtQtQtQtQtQtQtQtQtQtQtQtQtQtQtQtQtQtQt.#LkLlAFLmLnLoLpLqLrLsLtLuLvLwLxLyLzLALBLCLDLELFLGLHLILJLKLLLMLNLOLPLQLRLSLTLUpzQtQtQtQtQtQtQtQtQtQtQtQtQtQtQtQtQtQtQtQtQtQtQtQtQtQtQtQtQtQtQtQtQtQtQtQtQtQtQtQtQtQtQt",
"QtQtQtQtQtQtQtQtQtQtQtQtQtQtQtQtQtQtQtQtQtQtQtQtQtQtQtQtQtQtQtQtQtQtQtQtQtQtQtQtQtQtQtQt.#LVLWLXLYLZL0L1L2L3ABL4L5L6L7L8L9M.M#MaMbMcMdMeMfMgMhMiMjMkMlMmMnMoMpMqMrMslApzQtQtQtQtQtQtQtQtQtQtQtQtQtQtQtQtQtQtQtQtQtQtQtQtQtQtQtQtQtQtQtQtQtQtQtQtQtQtQtQtQtQtQtQt",
"QtQtQtQtQtQtQtQtQtQtQtQtQtQtQtQtQtQtQtQtQtQtQtQtQtQtQtQtQtQtQtQtQtQtQtQtQtQtQtQtQtQtQtQt.#MtMuMvMwnPMxMyjHMztkMAMBMCMDMEBRE.MFMGMHMIMJpQvYMKMLMMMNMOBcMPMQMRMNLgkWMSpzQtQtQtQtQtQtQtQtQtQtQtQtQtQtQtQtQtQtQtQtQtQtQtQtQtQtQtQtQtQtQtQtQtQtQtQtQtQtQtQtQtQtQtQtQt",
"QtQtQtQtQtQtQtQtQtQtQtQtQtQtQtQtQtQtQtQtQtQtQtQtQtQtQtQtQtQtQtQtQtQtQtQtQtQtQtQtQtQtQt.#MTMUMVMWMXMYMZM0M1M2M3M4M5M6M7M8M9N.N#NaNbNcNdNeNfM7NgNhNiNjNkNlNmNnNoNpiLNqpzQtQtQtQtQtQtQtQtQtQtQtQtQtQtQtQtQtQtQtQtQtQtQtQtQtQtQtQtQtQtQtQtQtQtQtQtQtQtQtQtQtQtQtQtQt",
"QtQtQtQtQtQtQtQtQtQtQtQtQtQtQtQtQtQtQtQtQtQtQtQtQtQtQtQtQtQtQtQtQtQtQtQtQtQtQtQtQtQtNrNsNtNuNvNwNxNyNzNANBNCNDNEvYNFNGNHNINJNKNLNMNNNONPNQNREVE.NSNTNUNVNWNXNYNZN0N1pzQtN2pzQtQtQtQtQtQtQtQtQtQtQtQtQtQtQtQtQtQtQtQtQtQtQtQtQtQtQtQtQtQtQtQtQtQtQtQtQtQtQtQtQtQt",
"QtQtQtQtQtQtQtQtQtQtQtQtQtQtQtQtQtQtQtQtQtQtQtQtQtQtQtQtQtQtQtQtQtQtQtQtQtQtQtQtQt.#N3N4N5N6N7N8N9O.O#OaObOcOdOeOfOgOhOiOjOkOlOmOnOoOpOqOrOsOtdxOuIPOvOwOxOyOzOAOBOCpzpzODOEQtQtQtQtQtQtQtQtQtQtQtQtQtQtQtQtQtQtQtQtQtQtQtQtQtQtQtQtQtQtQtQtQtQtQtQtQtQtQtQtQtQt",
"QtQtQtQtQtQtQtQtQtQtQtQtQtQtQtQtQtQtQtQtQtQtQtQtQtQtQtQtQtQtQtQtQtQtQtQtQtQtQtQt.#OFOGOHOIOJnA.obbkSOKOLOMONOOOPOQOROSOTOUOVOWOXOYOZO0O1O2O3O4O5gZO6lAO7O8O9P.P#PaPbPcPdpzQtQtQtQtQtQtQtQtQtQtQtQtQtQtQtQtQtQtQtQtQtQtQtQtQtQtQtQtQtQtQtQtQtQtQtQtQtQtQtQtQtQtQt",
"QtQtQtQtQtQtQtQtQtQtQtQtQtQtQtQtQtQtQtQtQtQtQtQtQtQtQtQtQtQtQtQtQtQtQtQtQtQtQtQt.#PePfkSPgPh#F.9.6PiPjPkPlPmkSPnPoPpPqPrPsozI5NwPtLg#vHdozPuPvPwPxPyPzPAPBPCPDPEPFPGPHpzQtQtQtQtQtQtQtQtQtQtQtQtQtQtQtQtQtQtQtQtQtQtQtQtQtQtQtQtQtQtQtQtQtQtQtQtQtQtQtQtQtQtQtQt",
"QtQtQtQtQtQtQtQtQtQtQtQtQtQtQtQtQtQtQtQtQtQtQtQtQtQtQtQtQtQtQtQtQtQtQtQtQtQtQtQt.#PIPJPKPLaDPMKRaWPNPOPPcjtmPQHdPRPSPTPUPVPWPXPYPZHEP0P1P2P3P4P5P6P7P8P9Q.Q#QaQbQcQdQeQfQgQtQtQtQtQtQtQtQtQtQtQtQtQtQtQtQtQtQtQtQtQtQtQtQtQtQtQtQtQtQtQtQtQtQtQtQtQtQtQtQtQtQtQt",
"QtQtQtQtQtQtQtQtQtQtQtQtQtQtQtQtQtQtQtQtQtQtQtQtQtQtQtQtQtQtQtQtQtQtQtQtQtQtQtQtQt.#lEQhQiQjQknxehKFQlQmQnQnQoQpQqQrQs..pQlEQuQvQwLWkSQxQyHdkSQzQAQBjVQCQDQEQFGKQGkQQHQIQJQKQtQtQtQtQtQtQtQtQtQtQtQtQtQtQtQtQtQtQtQtQtQtQtQtQtQtQtQtQtQtQtQtQtQtQtQtQtQtQtQtQtQt",
"QtQtQtQtQtQtQtQtQtQtQtQtQtQtQtQtQtQtQtQtQtQtQtQtQtQtQtQtQtQtQtQtQtQtQtQtQtQtQtQtQtQtE.QLbBQMkSQNQOQPC8QQQRdeQSDvQTQUQVQWQXHdQYQZQ0Q1Q2D8O6cSQ3Q4vaQ5Q6Q7KvQ8Q9CebRR.OhGuR#RahYQtQtQtQtQtQtQtQtQtQtQtQtQtQtQtQtQtQtQtQtQtQtQtQtQtQtQtQtQtQtQtQtQtQtQtQtQtQtQtQtQt",
"QtQtQtQtQtQtQtQtQtQtQtQtQtQtQtQtQtQtQtQtQtQtQtQtQtQtQtQtQtQtQtQtQtQtQtQtQtQtQtQtQtQtQtRbRcRdJ8ReRfGzehdlRgRh#QRiRjRkRlRmRnE.RoRpRqRrRsRtRuRvRwRx#RdXciACRyRzRAkS#udtRBRCRDvYQtQtQtQtQtQtQtQtQtQtQtQtQtQtQtQtQtQtQtQtQtQtQtQtQtQtQtQtQtQtQtQtQtQtQtQtQtQtQtQtQtQt",
"QtQtQtQtQtQtQtQtQtQtQtQtQtQtQtQtQtQtQtQtQtQtQtQtQtQtQtQtQtQtQtQtQtQtQtQtQtQtQtQtQtQtQtRERFskRGRHRIRJbARKRLRMRNRORPRQRRRSRTRURVRWRXAwRYRZR0R1R2R3NlR4R5R6R7R8R9S.S#SaSbScSdJNQtQtQtQtQtQtQtQtQtQtQtQtQtQtQtQtQtQtQtQtQtQtQtQtQtQtQtQtQtQtQtQtQtQtQtQtQtQtQtQtQtQt",
"QtQtQtQtQtQtQtQtQtQtQtQtQtQtQtQtQtQtQtQtQtQtQtQtQtQtQtQtQtQtQtQtQtQtQtQtQtQtQtQt.#.#Q7RESeSfSgShSiSjSkSlSmSnSoSpSqSrLgSsQzStSuSvSwSxSyG1SzkQSASBSCSDSESFSGHwSHQWSI#Q#CSJkWQtQtQtQtQtQtQtQtQtQtQtQtQtQtQtQtQtQtQtQtQtQtQtQtQtQtQtQtQtQtQtQtQtQtQtQtQtQtQtQtQtQtQt",
"QtQtQtQtQtQtQtQtQtQtQtQtQtQtQtQtQtQtQtQtQtQtQtQtQtQtQtQtQtQtQtQtQtQtQtQtQtQtQt.#SKSLSMSNSOSPSQSRSSSTSUSVSWSXSYSZS0S1EIS2S3S4S5S6S7S8S9T.T#TaTbTcTdTeTfTgThTiBITjTkTlb3TmkWQtQtQtQtQtQtQtQtQtQtQtQtQtQtQtQtQtQtQtQtQtQtQtQtQtQtQtQtQtQtQtQtQtQtQtQtQtQtQtQtQtQtQt",
"QtQtQtQtQtQtQtQtQtQtQtQtQtQtQtQtQtQtQtQtQtQtQtQtQtQtQtQtQtQtQtQtQtQtQtQtQtQtQtQtgZTnToTpTqTrPPTsTtD#TuB2TvTwTxTyTzPMQUTAiLTBTCTDTEKvvwE.TFTGTHaSTITJLgTKTLTMTNTOTPtiv9aYkWQtQtQtQtQtQtQtQtQtQtQtQtQtQtQtQtQtQtQtQtQtQtQtQtQtQtQtQtQtQtQtQtQtQtQtQtQtQtQtQtQtQtQt",
"QtQtQtQtQtQtQtQtQtQtQtQtQtQtQtQtQtQtQtQtQtQtQtQtQtQtQtQtQtQtQtQtQtQtQtQtQtQtQt.#TQTRTSTT#FTUTVvdTWTX.9TYTZT0AGT1T2T3T4T5T6T7T8T9AT.FU.U#UaJgUbUcUdUehCUfUgUhjiUiUjUkUlUmkWQtQtQtQtQtQtQtQtQtQtQtQtQtQtQtQtQtQtQtQtQtQtQtQtQtQtQtQtQtQtQtQtQtQtQtQtQtQtQtQtQtQtQt",
"QtQtQtQtQtQtQtQtQtQtQtQtQtQtQtQtQtQtQtQtQtQtQtQtQtQtQtQtQtQtQtQtQtQtQtQtQtQtQtlAUnUo#jUp#LbRUqdCUrUs.TrqUtUuEVUvzBUwUxQGvsUyUzUAUBUC#CUDUEdKxtUFdgTFlys2UGBpUHozUIUJUKULUMkWQtQtQtQtQtQtQtQtQtQtQtQtQtQtQtQtQtQtQtQtQtQtQtQtQtQtQtQtQtQtQtQtQtQtQtQtQtQtQtQtQtQt",
"QtQtQtQtQtQtQtQtQtQtQtQtQtQtQtQtQtQtQtQtQtQtQtQtQtQtQtQtQtQtQtQtQtQtQtQtQtQtUNUOUPUQURbmUS.9.9UTUUUV#g#CUt#gzDUWAlUXUYUZU0U1U2U3.cU4czd9U5U6U7fLeHQlU8U9V.V#arVaB2ozCeVbVcVdkWQtQtQtQtQtQtQtQtQtQtQtQtQtQtQtQtQtQtQtQtQtQtQtQtQtQtQtQtQtQtQtQtQtQtQtQtQtQtQtQtQt",
"QtQtQtQtQtQtQtQtQtQtQtQtQtQtQtQtQtQtQtQtQtQtQtQtQtQtQtQtQtQtQtQtQtQtQtQtQtQt.#VeVfVg#4QnVhtk#uViVjVk.Oa6Ut#nDCVlVmVnVoVpVqVrpzVsVtVuVvbxVwVxVyVzVAbdVBVCVDVEVFyn#FdCVGtxVHVIVJkWQtQtQtQtQtQtQtQtQtQtQtQtQtQtQtQtQtQtQtQtQtQtQtQtQtQtQtQtQtQtQtQtQtQtQtQtQtQtQtQt",
"QtQtQtQtQtQtQtQtQtQtQtQtQtQtQtQtQtQtQtQtQtQtQtQtQtQtQtQtQtQtQtQtQtQtQtQtQtQtQt.#VKVLVMdCvcVNvdVOVPVQfGVR.tVSVTVUVVVWVXVYVZV0V1V2V3V4bxVvV5V6V7a.wGBiV8V9W.W#fC#V.5wNwGfFgZWaWbkWQtQtQtQtQtQtQtQtQtQtQtQtQtQtQtQtQtQtQtQtQtQtQtQtQtQtQtQtQtQtQtQtQtQtQtQtQtQtQtQt",
"QtQtQtQtQtQtQtQtQtQtQtQtQtQtQtQtQtQtQtQtQtQtQtQtQtQtQtQtQtQtQtQtQtQtQtQtQtQtQtQtE.WcWdcHvcWelzWfWgU8WhBi.FWiWjWkWlWmWnWoWpWqWrWsWtWuWvWwssWxtnWyWzWAWBWCWDWE#bbr#L.oWF#HN2WGWHRJQtQtQtQtQtQtQtQtQtQtQtQtQtQtQtQtQtQtQtQtQtQtQtQtQtQtQtQtQtQtQtQtQtQtQtQtQtQtQtQt",
"QtQtQtQtQtQtQtQtQtQtQtQtQtQtQtQtQtQtQtQtQtQtQtQtQtQtQtQtQtQtQtQtQtQtQtQtQtQtQtQtQt.#UuugbRWIujWJWKWLdlWMwGWNWjWOh3WPWQbhWRWSWTHdWUWVWWdQWXWYWZW0VSFhW1W2W3W4brb3#FdCapW5W6W7kWW8QtQtQtQtQtQtQtQtQtQtQtQtQtQtQtQtQtQtQtQtQtQtQtQtQtQtQtQtQtQtQtQtQtQtQtQtQtQtQtQt",
"QtQtQtQtQtQtQtQtQtQtQtQtQtQtQtQtQtQtQtQtQtQtQtQtQtQtQtQtQtQtQtQtQtQtQtQtQtQtQtQtQt.#QQW9.9X.X#XaBOymb8.FahXbVzXcDeXdrsXeXfXgXhXiXjgjXkXlXmXnXoXpXqXrfGXsXtXu.qbudC#FapXvXwkWQtQtQtQtQtQtQtQtQtQtQtQtQtQtQtQtQtQtQtQtQtQtQtQtQtQtQtQtQtQtQtQtQtQtQtQtQtQtQtQtQtQt",
"QtQtQtQtQtQtQtQtQtQtQtQtQtQtQtQtQtQtQtQtQtQtQtQtQtQtQtQtQtQtQtQtQtQtQtQtQtQtQtQtRiaTWevcvc.5VOXxqoe9b8#gOJVzXyXzXAXBXCDCXDXEXFXGXHXIXJXlXKXLXMXqWUwVXNXOXPXQ.6.L.5#udCXRkWQtQtQtQtQtQtQtQtQtQtQtQtQtQtQtQtQtQtQtQtQtQtQtQtQtQtQtQtQtQtQtQtQtQtQtQtQtQtQtQtQtQtQt",
"QtQtQtQtQtQtQtQtQtQtQtQtQtQtQtQtQtQtQtQtQtQtQtQtQtQtQtQtQtQtQtQtQtQtQtQtQtQtQtQt.4XScH#u.9XTXUwtXVb8b8a6agXWahXXXYXZWiX0X1X2X3X4X5X6kSbaX7X8X9Y.Y#YaYbYcYdYeQlYfuhwhE6YgkWQtQtQtQtQtQtQtQtQtQtQtQtQtQtQtQtQtQtQtQtQtQtQtQtQtQtQtQtQtQtQtQtQtQtQtQtQtQtQtQtQtQtQt",
"QtQtQtQtQtQtQtQtQtQtQtQtQtQtQtQtQtQtQtQtQtQtQtQtQtQtQtQtQtQtQtQtQtQtQtQtQtQtQtQt.#gf#u#u#uYhYiv6Cob8b8a6agXyUFYjjvYkYlagbPYmYnYoYpYqYrYsYtYuYvYwYxYyJLfGXYYzYAFhYBlzYCYD.#kSQtQtQtQtQtQtQtQtQtQtQtQtQtQtQtQtQtQtQtQtQtQtQtQtQtQtQtQtQtQtQtQtQtQtQtQtQtQtQtQtQtQt",
"QtQtQtQtQtQtQtQtQtQtQtQtQtQtQtQtQtQtQtQtQtQtQtQtQtQtQtQtQtQtQtQtQtQtQtQtQtQtQt.#b.TZYE#FYFqSYGXMYHb8b8a6agVTUFYIYJpqX0zSa.YKYLYMYNYOYPYQYRYSy0IfYTytWAbdYUuGYVYWtk#udCYXYYYZkWQtQtQtQtQtQtQtQtQtQtQtQtQtQtQtQtQtQtQtQtQtQtQtQtQtQtQtQtQtQtQtQtQtQtQtQtQtQtQtQtQt",
"QtQtQtQtQtQtQtQtQtQtQtQtQtQtQtQtQtQtQtQtQtQtQtQtQtQtQtQtQtQtQtQtQtQtQtQtQtQtQt.#b.eHYE#FY0Y1Y2Y3Y4b8b8a6aaWUY5Y6Y7pqY8Y9UpZ.Z#ZaZbZcZdZeZfZgZhZiZjRBXNZktpZlZmqqWeHuZnZobprlZpkWQtQtQtQtQtQtQtQtQtQtQtQtQtQtQtQtQtQtQtQtQtQtQtQtQtQtQtQtQtQtQtQtQtQtQtQtQtQtQtQt",
"QtQtQtQtQtQtQtQtQtQtQtQtQtQtQtQtQtQtQtQtQtQtQtQtQtQtQtQtQtQtQtQtQtQtQtQtQtQtQtaYaZ#l.5vdZqZrZsZtZu.F.FbewGagWNNWZvZwX1ZxV3ZyX1ZzZAZBZCZDZEZFZGZHZIZJZKZLZMZNZOZPZQZRZSZTLZZUZVZWkWQtQtQtQtQtQtQtQtQtQtQtQtQtQtQtQtQtQtQtQtQtQtQtQtQtQtQtQtQtQtQtQtQtQtQtQtQtQtQt",
"QtQtQtQtQtQtQtQtQtQtQtQtQtQtQtQtQtQtQtQtQtQtQtQtQtQtQtQtQtQtQtQtQtQtQtQtQtQtQt.4Fw.5.9tjZXi.L7ZYrq.K.FZZZ0X0Z1Z2Z3Y5X0Z4WVZ5Z6WFazI5Z7Z8Z90.0#0a0b0c0d0e0f0g0h0i0j0k0l0mEv0n0o0p0qQtQtQtQtQtQtQtQtQtQtQtQtQtQtQtQtQtQtQtQtQtQtQtQtQtQtQtQtQtQtQtQtQtQtQtQtQtQtQt",
"QtQtQtQtQtQtQtQtQtQtQtQtQtQtQtQtQtQtQtQtQtQtQtQtQtQtQtQtQtQtQtQtQtQtQtQtQtQtQt#wa##FtktjnP0r0s0t0u.K.KZ0X0.R0v0w0xa.ZZcz0y.SY8Yl0z0AjV0B0C0D0E0FUM0G0H0I0J0K0L0M0N0O0P0Q0R0S0T0UozQtQtQtQtQtQtQtQtQtQtQtQtQtQtQtQtQtQtQtQtQtQtQtQtQtQtQtQtQtQtQtQtQtQtQtQtQtQtQt",
"QtQtQtQtQtQtQtQtQtQtQtQtQtQtQtQtQtQtQtQtQtQtQtQtQtQtQtQtQtQtQtQtQtQtQtQtQtQtaRbs#uy80V0Waz0XaW0YUt.K.KZ0Z0ah0Z00VlXCZZzMzMY5#OWU0102030405060708091.1#1a1b1c1d1e1f1gIL1h1i1j1k1lCeQtQtQtQtQtQtQtQtQtQtQtQtQtQtQtQtQtQtQtQtQtQtQtQtQtQtQtQtQtQtQtQtQtQtQtQtQtQtQt",
"QtQtQtQtQtQtQtQtQtQtQtQtQtQtQtQtQtQtQtQtQtQtQtQtQtQtQtQtQtQtQtQtQtQtQtQtQtQtfEeDac.5.9.9#p.g.g.K.K.K.1a.Vz1m1n1o1p1qah1r.Iagaga.aZ#9.gys1s1t1u1v1w1x1y1z1A1B1C1D1E1F1G1H1I1J1K1LtCQtQtQtQtQtQtQtQtQtQtQtQtQtQtQtQtQtQtQtQtQtQtQtQtQtQtQtQtQtQtQtQtQtQtQtQtQtQtQt",
"QtQtQtQtQtQtQtQtQtQtQtQtQtQtQtQtQtQtQtQtQtQtQtQtQtQtQtQtQtQtQtQtQtQtQtQtQt.#aH#h#l.9.9.h.U.y#h.F.F.K#Ga.Yl1M1N1OppVzahadbxagagaaaa#8VA1P1Q1R1S1T1U1V1W1X1Y1Z10111213141516171819.#QtQtQtQtQtQtQtQtQtQtQtQtQtQtQtQtQtQtQtQtQtQtQtQtQtQtQtQtQtQtQtQtQtQtQtQtQtQtQt",
"QtQtQtQtQtQtQtQtQtQtQtQtQtQtQtQtQtQtQtQtQtQtQtQtQtQtQtQtQtQtQtQtQtQtQtQtQt.##1.t.5.9.9#l#p.g.K.K.K2.2#a.WNRy2apty0Xy2bd9bxagagaZaa2c2d2e2f2gbp2h2i2j2k2l2m2n2o2p2qTn2r2s2t2u2v2wQtQtQtQtQtQtQtQtQtQtQtQtQtQtQtQtQtQtQtQtQtQtQtQtQtQtQtQtQtQtQtQtQtQtQtQtQtQtQtQt",
"QtQtQtQtQtQtQtQtQtQtQtQtQtQtQtQtQtQtQtQtQtQtQtQtQtQtQtQtQtQtQtQtQtQtQtQtQt.#a8#g.5.9.9#l#p#i#g.K.K2x2ytq2zoW2A2B2Cag2D2Ebxagaga.ahahfL.S#O2FDVysREoz2G2H2I2J2K2L2M2N2O2P2QiL2RQtQtQtQtQtQtQtQtQtQtQtQtQtQtQtQtQtQtQtQtQtQtQtQtQtQtQtQtQtQtQtQtQtQtQtQtQtQtQtQtQt",
"QtQtQtQtQtQtQtQtQtQtQtQtQtQtQtQtQtQtQtQtQtQtQtQtQtQtQtQtQtQtQtQtQtQtQtQtQt2S#afQ.5.9.9#7#i.y.K.K.KzX2TWUnw2U2V2W2XY5fLd9b2Y5Y5Y5VzY52YY52YC4b3.7.X2F2Z2021Au2223242526272829kWQtQtQtQtQtQtQtQtQtQtQtQtQtQtQtQtQtQtQtQtQtQtQtQtQtQtQtQtQtQtQtQtQtQtQtQtQtQtQtQtQt",
"QtQtQtQtQtQtQtQtQtQtQtQtQtQtQtQtQtQtQtQtQtQtQtQtQtQtQtQtQtQtQtQtQtQtQtQt.##a#a#f.5.9.9.g#p.q.K.K.K3.3#Vz3a3b3c3d2XX13ed9agY5Y5Y5Y52Y2Y2YY5Y5bPaa#7.P3f3gkCC6B1LYQM#u3h3iT#3jkWQtQtQtQtQtQtQtQtQtQtQtQtQtQtQtQtQtQtQtQtQtQtQtQtQtQtQtQtQtQtQtQtQtQtQtQtQtQtQtQtQt",
"QtQtQtQtQtQtQtQtQtQtQtQtQtQtQtQtQtQtQtQtQtQtQtQtQtQtQtQtQtQtQtQtQtQtQtQt.##a#0.9bR.9.5#p#i.U.K.K.K.n.fVsV73k3l3mXy01d9UFagY5Y5Y5Y5Y52Y2YY5Y5Y5aZaZ#C0t3n3o3ph.GL3q.5v7y43rbOkWQtQtQtQtQtQtQtQtQtQtQtQtQtQtQtQtQtQtQtQtQtQtQtQtQtQtQtQtQtQtQtQtQtQtQtQtQtQtQtQtQt",
"QtQtQtQtQtQtQtQtQtQtQtQtQtQtQtQtQtQtQtQtQtQtQtQtQtQtQtQtQtQtQtQtQtQtQtQt.##A#LvcbR.5.g#iaz#h.K.F.KWF2y3#ZjWUE4aoDC3s3tVzaaY5Y5Y5VzVzY5Y5Y5Y5Y5fLbP#C3u3v3w3xv6bu3y3z3A3BAD3CkWQtQtQtQtQtQtQtQtQtQtQtQtQtQtQtQtQtQtQtQtQtQtQtQtQtQtQtQtQtQtQtQtQtQtQtQtQtQtQtQtQt",
"QtQtQtQtQtQtQtQtQtQtQtQtQtQtQtQtQtQtQtQtQtQtQtQtQtQtQtQtQtQtQtQtQtQtQtQt.#aEfE.9.o.o#p#p.gbhb8.K.K3DX0WNY5X0Z0Z0ZZYldQX0X0XbYlXbXbYlVzY5Y5Y5XbwGaZfDWA3Ea63Fh##RHu3G3H3IfGe8.GQtQtQtQtQtQtQtQtQtQtQtQtQtQtQtQtQtQtQtQtQtQtQtQtQtQtQtQtQtQtQtQtQtQtQtQtQtQtQtQtQt"};
